( Made using CamBam - http://www.cambam.co.uk )
( midipedal_rupa 2/17/2016 10:06:55 AM )
( T0 : 3.0 )
G21 G90 G64 G40
G0 Z3.0
( T0 : 3.0 )
T0 M6
( Profile1 )
G17
M3 S1000
G0 X2.2 Y-0.05
G0 Z1.0
G1 F300.0 Z-3.2
G1 F800.0 X-7.5
G1 Y0.05
G1 X2.2
G1 Y-0.05
G1 F300.0 Z-6.4
G1 F800.0 X-7.5
G1 Y0.05
G1 X2.2
G1 Y-0.05
G1 F300.0 Z-9.6
G1 F800.0 X-7.5
G1 Y0.05
G1 X2.2
G1 Y-0.05
G1 F300.0 Z-12.7
G1 F800.0 X-7.5
G1 Y0.05
G1 X2.2
G1 Y-0.05
G0 Z3.0
M5
M30
