( Made using CamBam - http://www.cambam.co.uk )
( midipedal_rez 2/15/2016 7:23:26 PM )
( T0 : 3.0 )
G21 G90 G64 G40
G0 Z3.0
( T0 : 3.0 )
T0 M6
( Profile2 )
G17
M3 S1000
G0 X247.7625 Y69.6367
G1 F300.0 Z1.2
G1 F800.0 X247.8292
G1 Y6.6333
G1 X247.7625
G1 Y69.6367
G1 F300.0 Z0.0
G1 F800.0 X247.8292
G1 Y6.6333
G1 X247.7625
G1 Y69.6367
G0 Z3.0
G0 X236.0333
G1 F300.0 Z1.2
G1 F800.0 Y47.6333
G1 X235.9667
G1 Y69.7667
G1 X236.0333
G1 Y69.6367
G1 F300.0 Z0.0
G1 F800.0 Y47.6333
G1 X235.9667
G1 Y69.7667
G1 X236.0333
G1 Y69.6367
G0 Z3.0
G0 X236.0425 Y31.3067
G1 F300.0 Z1.2
G1 F800.0 X236.1092
G1 Y6.6333
G1 X236.0425
G1 Y31.3067
G1 F300.0 Z0.0
G1 F800.0 X236.1092
G1 Y6.6333
G1 X236.0425
G1 Y31.3067
G0 Z3.0
G0 X194.9133 Y123.6333
G1 F300.0 Z1.2
G1 F800.0 X194.8467
G1 Y140.6867
G1 X194.9133
G1 Y123.6333
G1 F300.0 Z0.0
G1 F800.0 X194.8467
G1 Y140.6867
G1 X194.9133
G1 Y123.6333
G0 Z3.0
G0 X126.2933 Y106.2267
G1 F300.0 Z1.2
G1 F800.0 Y86.6333
G1 X126.2267
G1 Y106.2267
G1 X126.2933
G1 F300.0 Z0.0
G1 F800.0 Y86.6333
G1 X126.2267
G1 Y106.2267
G1 X126.2933
G0 Z3.0
G0 X63.7533 Y69.7667
G1 F300.0 Z1.2
G1 F800.0 Y47.6333
G1 X63.6867
G1 Y69.7667
G1 X63.7533
G1 F300.0 Z0.0
G1 F800.0 Y47.6333
G1 X63.6867
G1 Y69.7667
G1 X63.7533
G0 Z3.0
G0 X4.3292 Y31.3067
G1 F300.0 Z1.2
G1 F800.0 Y6.6333
G1 X4.2625
G1 Y31.3067
G1 X4.3292
G1 F300.0 Z0.0
G1 F800.0 Y6.6333
G1 X4.2625
G1 Y31.3067
G1 X4.3292
G0 Z3.0
G0 X359.9654 Y31.3214
G1 F300.0 Z1.2
G1 F800.0 X359.9638 Y69.6365
G1 X360.0304
G1 X360.0331 Y6.6333
G1 X359.9664
G1 X359.9654 Y31.3214
G1 F300.0 Z0.0
G1 F800.0 X359.9638 Y69.6365
G1 X360.0304
G1 X360.0331 Y6.6333
G1 X359.9664
G1 X359.9654 Y31.3214
G0 Z3.0
G0 X359.9667 Y86.6333
G1 F300.0 Z1.2
G1 F800.0 Y106.2267
G1 X360.0333
G1 Y86.6333
G1 X359.9667
G1 F300.0 Z0.0
G1 F800.0 Y106.2267
G1 X360.0333
G1 Y86.6333
G1 X359.9667
G0 Z3.0
G0 Y123.6333
G1 F300.0 Z1.2
G1 F800.0 Y140.6867
G1 X360.0333
G1 Y123.6333
G1 X359.9667
G1 F300.0 Z0.0
G1 F800.0 Y140.6867
G1 X360.0333
G1 Y123.6333
G1 X359.9667
G0 Z3.0
M5
M30
