( Made using CamBam - http://www.cambam.co.uk )
( midipedal_papir_3 2/15/2016 8:41:39 PM )
( T0 : 0.0 )
G21 G90 G64 G40
G0 Z3.0
( T0 : 0.0 )
T0 M6
( Engrave1 )
G17
M3 S1000
G0 X0.0 Y52.0
G0 Z1.0
G1 F300.0 Z-1.0
G1 F800.0 Y200.0
G1 Y0.0
G1 X196.0
G1 Y121.0
G1 Y200.0
G1 X0.0
G0 Z3.0
G0 X3.5867 Y148.7167
G0 Z1.0
G1 F300.0 Z-1.0
G1 F800.0 X4.2533
G2 X5.2533 Y147.7167 I0.0 J-1.0
G1 Y130.0633
G2 X4.2533 Y129.0633 I-1.0 J0.0
G1 X3.5867
G2 X2.5867 Y130.0633 I0.0 J1.0
G1 Y147.7167
G2 X3.5867 Y148.7167 I1.0 J0.0
G0 Z3.0
G0 X19.0 Y121.0
G0 Z1.0
G1 F300.0 Z-1.0
G1 F800.0 Y52.0
G1 X42.0
G1 Y121.0
G1 X19.0
G0 Z3.0
G0 X48.0
G0 Z1.0
G1 F300.0 Z-1.0
G1 F800.0 Y52.0
G1 X71.0
G1 Y121.0
G1 X48.0
G0 Z3.0
G0 X78.0
G0 Z1.0
G1 F300.0 Z-1.0
G1 F800.0 Y52.0
G1 X102.0
G1 Y121.0
G1 X78.0
G0 Z3.0
G0 X110.0
G0 Z1.0
G1 F300.0 Z-1.0
G1 F800.0 Y52.0
G1 X132.0
G1 Y121.0
G1 X110.0
G0 Z3.0
G0 X139.0
G0 Z1.0
G1 F300.0 Z-1.0
G1 F800.0 Y52.0
G1 X161.0
G1 Y121.0
G1 X139.0
G0 Z3.0
G0 X167.7067 Y130.0633
G0 Z1.0
G1 F300.0 Z-1.0
G1 F800.0 Y147.7167
G2 X168.7067 Y148.7167 I1.0 J0.0
G1 X169.3733
G2 X170.3733 Y147.7167 I0.0 J-1.0
G1 Y130.0633
G2 X169.3733 Y129.0633 I-1.0 J0.0
G1 X168.7067
G2 X167.7067 Y130.0633 I0.0 J1.0
G0 Z3.0
M5
M30
