( Made using CamBam - http://www.cambam.co.uk )
( midipedal_papir_2 2/15/2016 8:24:51 PM )
( T0 : 0.0 )
G21 G90 G64 G40
G0 Z3.0
( T0 : 0.0 )
T0 M6
( Engrave1 )
G17
M3 S1000
G0 X385.5 Y121.0
G0 Z1.0
G1 F300.0 Z-1.0
G1 F800.0 Y52.0
G1 X408.5
G1 Y121.0
G1 X385.5
G0 Z3.0
G0 X378.5
G0 Z1.0
G1 F300.0 Z-1.0
G1 F800.0 X354.5
G1 Y52.0
G1 X378.5
G1 Y121.0
G0 Z3.0
G0 X347.5
G0 Z1.0
G1 F300.0 Z-1.0
G1 F800.0 Y52.0
G1 X324.5
G1 Y121.0
G1 X347.5
G0 Z3.0
G0 X317.5
G0 Z1.0
G1 F300.0 Z-1.0
G1 F800.0 Y52.0
G1 X294.5
G1 Y121.0
G1 X317.5
G0 Z3.0
G0 X288.5
G0 Z1.0
G1 F300.0 Z-1.0
G1 F800.0 Y52.0
G1 X265.5
G1 Y121.0
G1 X288.5
G0 Z3.0
G0 X255.5
G0 Z1.0
G1 F300.0 Z-1.0
G1 F800.0 Y52.0
G1 X232.5
G1 Y121.0
G1 X255.5
G0 Z3.0
G0 X222.5
G0 Z1.0
G1 F300.0 Z-1.0
G1 F800.0 X200.5
G1 Y52.0
G1 X222.5
G1 Y121.0
G0 Z3.0
G0 X186.1451 Y129.8274
G0 Z1.0
G1 F300.0 Z-1.0
G3 F800.0 X186.1733 Y130.0633 I-0.9718 J0.236
G1 Y150.2567
G3 X185.1733 Y151.2567 I-1.0 J0.0
G1 X184.5067
G3 X183.5067 Y150.2567 I0.0 J-1.0
G1 Y130.0633
G3 X184.5067 Y129.0633 I1.0 J0.0
G1 X185.1733
G3 X186.1451 Y129.8274 I0.0 J1.0
G0 Z3.0
G0 X177.953 Y130.0377
G0 Z1.0
G1 F300.0 Z-1.0
G3 F800.0 X177.9533 Y130.0633 I-0.9997 J0.0257
G1 Y152.7967
G3 X176.9533 Y153.7967 I-1.0 J0.0
G1 X176.2867
G3 X175.2867 Y152.7967 I0.0 J-1.0
G1 Y130.0633
G3 X176.2867 Y129.0633 I1.0 J0.0
G1 X176.9533
G3 X177.953 Y130.0377 I0.0 J1.0
G0 Z3.0
G0 X163.5 Y121.0
G0 Z1.0
G1 F300.0 Z-1.0
G1 F800.0 X141.5
G1 Y52.0
G1 X163.5
G1 Y121.0
G1 Y52.0
G0 Z3.0
G0 X134.5
G0 Z1.0
G1 F300.0 Z-1.0
G1 F800.0 Y121.0
G1 X111.5
G1 Y52.0
G1 X134.5
G0 Z3.0
G0 X103.5
G0 Z1.0
G1 F300.0 Z-1.0
G1 F800.0 Y121.0
G1 X80.5
G1 Y52.0
G1 X103.5
G0 Z3.0
G0 X72.5
G0 Z1.0
G1 F300.0 Z-1.0
G1 F800.0 Y121.0
G1 X49.5
G1 Y52.0
G1 X72.5
G0 Z3.0
G0 X42.5
G0 Z1.0
G1 F300.0 Z-1.0
G1 F800.0 Y121.0
G1 X19.5
G1 Y52.0
G1 X42.5
G0 Z3.0
G0 X0.0
G0 Z1.0
G1 F300.0 Z-1.0
G1 F800.0 Y0.0
G1 X427.5
G1 Y200.0
G1 X0.0
G1 Y0.0
G0 Z3.0
G0 X3.9759 Y129.0638
G0 Z1.0
G1 F300.0 Z-1.0
G3 F800.0 X4.0067 Y129.0633 I0.0308 J0.9995
G1 X4.6733
G3 X5.6733 Y130.0633 I0.0 J1.0
G1 Y152.7967
G3 X4.6733 Y153.7967 I-1.0 J0.0
G1 X4.0067
G3 X3.0067 Y152.7967 I0.0 J-1.0
G1 Y130.0633
G3 X3.9759 Y129.0638 I1.0 J0.0
G0 Z3.0
G0 X417.2467 Y130.0609
G0 Z1.0
G1 F300.0 Z-1.0
G3 F800.0 X418.2467 Y129.0633 I1.0 J0.0024
G1 X418.9133
G3 X419.9133 Y130.0633 I0.0 J1.0
G1 Y150.2567
G3 X418.9133 Y151.2567 I-1.0 J0.0
G1 X418.2467
G3 X417.2467 Y150.2567 I0.0 J-1.0
G1 Y130.0633
G3 Y130.0609 I1.0 J0.0
G0 Z3.0
M5
M30
