( Made using CamBam - http://www.cambam.co.uk )
( midipedal_papir_1 2/15/2016 4:37:08 PM )
( T0 : 0.1 )
G21 G90 G64 G40
G0 Z3.0
( T0 : 0.1 )
T0 M6
( Engrave1 )
G17
M3 S1000
G0 X375.5 Y52.0
G0 Z1.0
G1 F300.0 Z-1.0
G1 F800.0 Y200.0
G1 X0.0
G1 Y121.0
G1 Y0.0
G1 X375.5
G1 Y52.0
G0 Z3.0
G0 X356.0
G0 Z1.0
G1 F300.0 Z-1.0
G1 F800.0 X333.0
G1 Y121.0
G1 X356.0
G1 Y52.0
G0 Z3.0
G0 X325.0
G0 Z1.0
G1 F300.0 Z-1.0
G1 F800.0 X302.0
G1 Y121.0
G1 X325.0
G1 Y52.0
G0 Z3.0
G0 X295.0
G0 Z1.0
G1 F300.0 Z-1.0
G1 F800.0 X273.0
G1 Y121.0
G1 X295.0
G1 Y52.0
G0 Z3.0
G0 X264.0
G0 Z1.0
G1 F300.0 Z-1.0
G1 F800.0 X241.0
G1 Y121.0
G1 X264.0
G1 Y52.0
G0 Z3.0
G0 X232.0
G0 Z1.0
G1 F300.0 Z-1.0
G1 F800.0 X210.0
G1 Y121.0
G1 X232.0
G1 Y52.0
G0 Z3.0
G0 X203.0
G0 Z1.0
G1 F300.0 Z-1.0
G1 F800.0 X181.0
G1 Y121.0
G1 X203.0
G1 Y52.0
G0 Z3.0
G0 X175.0
G0 Z1.0
G1 F300.0 Z-1.0
G1 F800.0 X152.0
G1 Y121.0
G1 X175.0
G1 Y52.0
G0 Z3.0
G0 X112.0
G0 Z1.0
G1 F300.0 Z-1.0
G1 F800.0 X90.0
G1 Y121.0
G1 X112.0
G1 Y52.0
G0 Z3.0
G0 X82.0
G0 Z1.0
G1 F300.0 Z-1.0
G1 F800.0 X60.0
G1 Y121.0
G1 X82.0
G1 Y52.0
G0 Z3.0
G0 X54.0
G0 Z1.0
G1 F300.0 Z-1.0
G1 F800.0 X30.0
G1 Y121.0
G1 X41.25
G1 X42.75
G1 X54.0
G1 Y52.0
G0 Z3.0
G0 X13.2494 Y129.0633
G0 Z1.0
G1 F300.0 Z-1.0
G1 F800.0 X12.5828
G2 X11.5828 Y130.0634 I0.0 J1.0
G1 X11.5854 Y193.6666
G2 X12.5855 Y194.6665 I1.0 J0.0
G1 X13.2521
G2 X14.2521 Y193.6664 I0.0 J-1.0
G1 X14.2494 Y130.0633
G2 X13.2494 Y129.0633 I-1.0 J0.0
G0 Z3.0
G0 X123.7867 Y130.0633
G0 Z1.0
G1 F300.0 Z-1.0
G3 F800.0 X124.7867 Y129.0633 I1.0 J0.0
G1 X125.4533
G3 X126.4533 Y130.0633 I0.0 J1.0
G1 Y193.6667
G3 X125.4533 Y194.6667 I-1.0 J0.0
G1 X124.7867
G3 X123.7867 Y193.6667 I0.0 J-1.0
G1 Y130.0633
G0 Z3.0
G0 X135.5067
G0 Z1.0
G1 F300.0 Z-1.0
G1 F800.0 Y155.3367
G2 X136.5067 Y156.3367 I1.0 J0.0
G1 X137.1733
G2 X138.1733 Y155.3367 I0.0 J-1.0
G1 Y130.0633
G2 X137.1733 Y129.0633 I-1.0 J0.0
G1 X136.5067
G2 X135.5067 Y130.0633 I0.0 J1.0
G0 Z3.0
G0 X367.2867
G0 Z1.0
G1 F300.0 Z-1.0
G1 F800.0 Y155.3367
G2 X368.2867 Y156.3367 I1.0 J0.0
G1 X368.9533
G2 X369.9533 Y155.3367 I0.0 J-1.0
G1 Y130.0633
G2 X368.9533 Y129.0633 I-1.0 J0.0
G1 X368.2867
G2 X367.2867 Y130.0633 I0.0 J1.0
G0 Z3.0
M5
M30
