( Made using CamBam - http://www.cambam.co.uk )
( midipedal_rez 2/15/2016 7:07:50 PM )
( T0 : 0.0 )
G21 G90 G64 G40
G0 Z3.0
( T0 : 0.0 )
T0 M6
( Engrave2 )
G17
M3 S1000
G0 X249.5008 Y72.5405
G0 Z1.275
G1 F300.0 Z-0.125
G1 F200.0 Y71.0259
G2 X249.7085 Y71.2252 I1.5721 J-1.4305
G2 X249.9491 Y71.3833 I0.7727 J-0.9134
G2 X250.4325 Y71.4888 I0.4684 J-0.9862
G2 X250.9188 Y71.3862 I0.0302 J-1.0613
G2 X251.2557 Y71.0757 I-0.3791 J-0.7493
G2 X251.3905 Y70.6362 I-0.6609 J-0.4431
G1 Y69.1098
G1 X251.6659
G2 X251.732 Y69.1037 I0.0039 J-0.3177
G2 X251.7918 Y69.0747 I-0.0204 J-0.1181
G2 X251.8299 Y68.9868 I-0.0711 J-0.083
G2 X251.7918 Y68.8989 I-0.1146 J-0.0025
G2 X251.732 Y68.8699 I-0.0801 J0.089
G2 X251.6659 Y68.8638 I-0.0622 J0.311
G1 X250.866
G2 X250.7985 Y68.8701 I-0.0039 J0.3227
G2 X250.7371 Y68.8989 I0.023 J0.1288
G2 X250.6991 Y68.9868 I0.0765 J0.0854
G2 X250.7371 Y69.0747 I0.1092 J0.0049
G2 X250.866 Y69.1098 I0.1132 J-0.1613
G1 X251.1414
G1 Y70.6186
G3 X250.9481 Y71.0639 I-0.5813 J0.0122
G3 X250.6987 Y71.2046 I-0.4218 J-0.4564
G3 X250.4149 Y71.2427 I-0.2711 J-0.9456
G3 X249.9549 Y71.1108 I-0.0224 J-0.7902
G3 X249.7183 Y70.8994 I1.1704 J-1.5483
G3 X249.5008 Y70.6684 I5.4871 J-5.3837
G1 Y69.1098
G1 X249.7791
G2 X249.9051 Y69.0747 I0.0149 J-0.1901
G2 X249.9432 Y68.9868 I-0.0711 J-0.083
G2 X249.9051 Y68.8989 I-0.1146 J-0.0025
G2 X249.7791 Y68.8638 I-0.1111 J0.1549
G1 X248.9764
G2 X248.8504 Y68.8989 I-0.0149 J0.1901
G2 X248.8123 Y68.9868 I0.0765 J0.0854
G2 X248.8504 Y69.0747 I0.1092 J0.0049
G2 X248.9764 Y69.1098 I0.1111 J-0.1549
G1 X249.2547
G1 Y72.2915
G1 X248.9237
G2 X248.7977 Y72.3266 I-0.0149 J0.1901
G2 X248.7596 Y72.4175 I0.0799 J0.0869
G2 X248.7977 Y72.5054 I0.1146 J0.0025
G2 X248.9237 Y72.5405 I0.1111 J-0.1549
G1 X249.5008
G0 Z3.0
G0 X252.6982 Y70.7762
G0 Z1.275
G1 F300.0 Z-0.125
G2 F200.0 X252.9373 Y71.0874 I1.1424 J-0.6304
G2 X253.9129 Y71.4888 I0.9515 J-0.9265
G2 X254.8827 Y71.0903 I0.0219 J-1.3259
G2 X255.2869 Y70.1264 I-0.899 J-0.9438
G2 X254.8827 Y69.1655 I-1.3 J-0.0186
G2 X253.9129 Y68.7671 I-0.9478 J0.9275
G2 X252.9373 Y69.1655 I-0.0248 J1.3328
G2 X252.536 Y70.1264 I0.9096 J0.9442
G2 X252.6982 Y70.7762 I1.3047 J0.0194
G0 Z3.0
G0 X252.9144 Y70.6569
G0 Z1.275
G1 F300.0 Z-0.125
G3 F200.0 X252.7821 Y70.1264 I0.9326 J-0.5144
G3 X253.1102 Y69.3413 I1.0713 J-0.0134
G3 X253.91 Y69.0132 I0.7816 J0.7664
G3 X254.7069 Y69.3384 I0.0201 J1.0897
G3 X255.0379 Y70.1264 I-0.7388 J0.7739
G3 X254.7069 Y70.9145 I-1.0636 J0.0168
G3 X253.91 Y71.2397 I-0.7768 J-0.7645
G3 X253.1102 Y70.9116 I-0.0182 J-1.0945
G3 X252.9144 Y70.6569 I0.7368 J-0.7691
G0 Z3.0
G0 X256.355 Y71.2537
G0 Z1.275
G1 F300.0 Z-0.125
G2 F200.0 X256.3534 Y71.2778 I0.1163 J0.0202
G2 X256.3885 Y71.3657 I0.1193 J0.0033
G2 X256.5174 Y71.4009 I0.1132 J-0.1613
G1 X257.2176
G1 Y70.7798
G2 X257.5623 Y71.0764 I5.6918 J-6.2669
G2 X257.9354 Y71.3364 I1.6299 J-1.9405
G2 X258.149 Y71.4259 I0.5858 J-1.0993
G2 X258.3778 Y71.4624 I0.2371 J-0.7503
G2 X258.785 Y71.313 I-0.0041 J-0.6408
G2 X258.8976 Y71.2165 I-0.7279 J-0.9631
G2 X258.9469 Y71.1598 I-0.3197 J-0.3282
G2 X258.9754 Y71.0903 I-0.1019 J-0.0824
G2 X258.9373 Y70.9966 I-0.1274 J-0.0029
G2 X258.8465 Y70.9614 I-0.0862 J0.0879
G2 X258.7967 Y70.9702 I-0.0032 J0.1274
G2 X258.7205 Y71.0376 I0.3419 J0.4632
G3 X258.5418 Y71.1782 I-0.5604 J-0.5284
G3 X258.3924 Y71.2163 I-0.1549 J-0.2955
G3 X258.1898 Y71.1755 I0.0162 J-0.6041
G3 X258.0028 Y71.0874 I0.4487 J-1.195
G3 X257.795 Y70.9448 I1.0709 J-1.7829
G3 X257.2176 Y70.4575 I6.4037 J-8.1736
G1 Y69.1098
G1 X258.3075
G2 X258.375 Y69.1035 I0.0039 J-0.3227
G2 X258.4364 Y69.0747 I-0.023 J-0.1288
G2 X258.4744 Y68.9868 I-0.0711 J-0.083
G2 X258.4364 Y68.8989 I-0.1146 J-0.0025
G2 X258.3075 Y68.8638 I-0.1132 J0.1613
G1 X256.3768
G2 X256.2508 Y68.896 I-0.0151 J0.2034
G2 X256.2127 Y68.9839 I0.0765 J0.0854
G2 X256.2479 Y69.0659 I0.1064 J0.003
G2 X256.3768 Y69.1011 I0.1132 J-0.1613
G1 X256.9715
G1 Y71.1518
G1 X256.5174
G2 X256.3914 Y71.187 I-0.0149 J0.1901
G2 X256.355 Y71.2537 I0.0799 J0.0869
G0 Z3.0
G0 X259.4851 Y71.2732
G0 Z1.275
G1 F300.0 Z-0.125
G2 F200.0 X259.4852 Y71.2778 I0.1181 J0.0007
G2 X259.5233 Y71.3657 I0.1146 J0.0025
G2 X259.6493 Y71.4009 I0.1111 J-0.1549
G1 X260.5721
G2 X260.6981 Y71.3657 I0.0149 J-0.1901
G2 X260.7362 Y71.2749 I-0.0799 J-0.0869
G2 X260.6981 Y71.187 I-0.1146 J-0.0025
G2 X260.5721 Y71.1518 I-0.1111 J0.1549
G1 X260.1649
G1 X261.0672 Y69.1098
G1 X261.1756
G1 X262.0604 Y71.1518
G1 X261.6502
G2 X261.5243 Y71.187 I-0.0149 J0.1901
G2 X261.4862 Y71.2778 I0.0799 J0.0869
G2 X261.5243 Y71.3657 I0.1146 J0.0025
G2 X261.6502 Y71.4009 I0.1111 J-0.1549
G1 X262.576
G2 X262.6422 Y71.3947 I0.0039 J-0.3177
G2 X262.702 Y71.3657 I-0.0204 J-0.1181
G2 X262.7401 Y71.2749 I-0.0799 J-0.0869
G2 X262.702 Y71.187 I-0.1146 J-0.0025
G2 X262.6422 Y71.158 I-0.0801 J0.089
G2 X262.576 Y71.1518 I-0.0622 J0.311
G1 X262.327
G1 X261.328 Y68.8638
G1 X260.9119
G1 X259.9012 Y71.1518
G1 X259.6493
G2 X259.5233 Y71.187 I-0.0149 J0.1901
G2 X259.4851 Y71.2732 I0.0799 J0.0869
G0 Z3.0
G0 X263.6306 Y71.1743
G0 Z1.275
G1 F300.0 Z-0.125
G2 F200.0 X263.66 Y71.2456 I0.1074 J-0.0026
G2 X263.7378 Y71.2879 I0.1623 J-0.2054
G2 X263.991 Y71.3657 I0.8637 J-2.362
G2 X264.3333 Y71.4469 I1.3817 J-5.0627
G2 X264.6825 Y71.4888 I0.4032 J-1.8857
G2 X265.0671 Y71.4399 I0.0171 J-1.4049
G2 X265.409 Y71.2573 I-0.2266 J-0.8358
G2 X265.5974 Y71.0272 I-0.5363 J-0.6313
G2 X265.6698 Y70.7388 I-0.532 J-0.2867
G1 Y69.1098
G1 X265.9979
G2 X266.0654 Y69.1035 I0.0039 J-0.3227
G2 X266.1268 Y69.0747 I-0.023 J-0.1288
G2 X266.1649 Y68.9868 I-0.0711 J-0.083
G2 X266.1268 Y68.8989 I-0.1146 J-0.0025
G2 X265.9979 Y68.8638 I-0.1132 J0.1613
G1 X265.4207
G1 Y69.2182
G2 X264.8888 Y68.8889 I-1.3184 J1.5353
G2 X264.2752 Y68.7671 I-0.6128 J1.4797
G2 X263.9089 Y68.8143 I-0.0161 J1.3202
G2 X263.5838 Y68.9897 I0.2195 J0.7955
G2 X263.3348 Y69.5405 I0.4663 J0.5425
G2 X263.4254 Y69.8911 I0.7091 J0.0037
G2 X263.6629 Y70.1645 I0.8295 J-0.4807
G2 X264.1196 Y70.3782 I0.6978 J-0.8965
G2 X264.6209 Y70.4311 I0.477 J-2.1177
G2 X264.9901 Y70.4077 I-0.0167 J-3.1822
G2 X265.4207 Y70.3403 I-0.4828 J-4.4954
G1 Y70.7388
G3 X265.2332 Y71.0903 I-0.442 J-0.0099
G3 X264.9642 Y71.2109 I-0.3976 J-0.527
G3 X264.6707 Y71.2397 I-0.2786 J-1.3265
G3 X264.2621 Y71.1841 I0.0541 J-1.925
G3 X263.8651 Y71.0727 I1.1111 J-4.7258
G2 X263.745 Y71.0434 I-0.2162 J0.6256
G2 X263.6629 Y71.0786 I-0.0003 J0.1125
G2 X263.6307 Y71.1665 I0.093 J0.084
G2 X263.6306 Y71.1743 I0.1073 J0.0052
G0 Z3.0
G0 X264.0558 Y70.0903
G0 Z1.275
G1 F300.0 Z-0.125
G3 F200.0 X263.8094 Y69.9536 I0.389 J-0.9917
G3 X263.6444 Y69.7751 I0.3687 J-0.5063
G3 X263.5809 Y69.5405 I0.3908 J-0.2317
G3 X263.7537 Y69.1655 I0.4806 J-0.0058
G3 X263.9951 Y69.044 I0.3793 J0.4528
G3 X264.2635 Y69.0132 I0.2556 J1.0416
G3 X264.8553 Y69.1391 I0.0127 J1.3934
G3 X265.1544 Y69.32 I-0.766 J1.6044
G3 X265.4207 Y69.5464 I-1.6229 J2.1794
G1 Y70.0884
G3 X265.0545 Y70.1616 I-0.6404 J-2.2496
G3 X264.6473 Y70.185 I-0.3979 J-3.3642
G3 X264.2095 Y70.1375 I-0.0196 J-1.8594
G3 X264.0558 Y70.0903 I0.2352 J-1.0389
G0 Z3.0
G0 X266.9494 Y71.2306
G0 Z1.275
G1 F300.0 Z-0.125
G2 F200.0 X266.9412 Y71.2778 I0.1098 J0.0433
G2 X266.9793 Y71.3657 I0.1146 J0.0025
G2 X267.1053 Y71.4009 I0.1111 J-0.1549
G1 X267.5594
G1 Y72.1274
G2 X267.5946 Y72.2534 I0.1901 J0.0149
G2 X267.6825 Y72.2915 I0.0854 J-0.0765
G2 X267.7733 Y72.2534 I0.0039 J-0.118
G2 X267.8084 Y72.1274 I-0.1549 J-0.1111
G1 Y71.4009
G1 X269.1444
G2 X269.2703 Y71.3657 I0.0149 J-0.1901
G2 X269.3084 Y71.2749 I-0.0799 J-0.0869
G2 X269.2703 Y71.187 I-0.1146 J-0.0025
G2 X269.1444 Y71.1518 I-0.1111 J0.1549
G1 X267.8084
G1 Y69.5141
G3 X267.9784 Y69.1567 I0.4494 J-0.0055
G3 X268.218 Y69.0418 I0.3693 J0.4629
G3 X268.4823 Y69.0132 I0.2514 J1.086
G3 X269.0213 Y69.0864 I-0.0271 J2.2199
G3 X269.4725 Y69.2563 I-0.4428 J1.8595
G2 X269.5692 Y69.2944 I0.1197 J-0.1621
G2 X269.6512 Y69.2563 I-0.0006 J-0.1086
G2 X269.6864 Y69.1714 I-0.0806 J-0.0831
G2 X269.6483 Y69.0893 I-0.1154 J0.0037
G2 X269.5443 Y69.0166 I-0.3027 J0.3221
G2 X269.1912 Y68.8784 I-0.9809 J1.9854
G2 X268.4998 Y68.7671 I-0.7144 J2.234
G2 X268.1399 Y68.8101 I-0.015 J1.4019
G2 X267.8143 Y68.9692 I0.2173 J0.8574
G2 X267.5594 Y69.5141 I0.4041 J0.5211
G1 Y71.1518
G1 X267.1053
G2 X266.9793 Y71.187 I-0.0149 J0.1901
G2 X266.9494 Y71.2306 I0.0799 J0.0869
G0 Z3.0
G0 X270.659 Y70.7358
G0 Z1.275
G1 F300.0 Z-0.125
G1 F200.0 X273.1698
G1 Y70.3843
G1 X270.659
G1 Y70.7358
G0 Z3.0
G0 X274.0977 Y70.3398
G0 Z1.275
G1 F300.0 Z-0.125
G2 F200.0 X274.4852 Y71.105 I1.2286 J-0.1415
G2 X275.4696 Y71.4888 I0.9493 J-0.9805
G2 X276.0074 Y71.3947 I0.0177 J-1.4834
G2 X276.4627 Y71.0932 I-0.4646 J-1.1964
G2 X276.7604 Y70.6233 I-0.8969 J-0.8974
G2 X276.8465 Y70.0737 I-1.4897 J-0.515
G1 X274.3387
G3 X274.466 Y69.6512 I1.3105 J0.1644
G3 X274.7371 Y69.3032 I1.027 J0.5205
G3 X275.1264 Y69.0813 I0.7559 J0.8737
G3 X275.5692 Y69.0132 I0.4293 J1.3168
G3 X276.1463 Y69.104 I-0.02 J2.0063
G3 X276.6385 Y69.3442 I-0.3995 J1.4429
G2 X276.7352 Y69.3882 I0.1168 J-0.1287
G2 X276.8172 Y69.3501 I-0.0006 J-0.1086
G2 X276.8524 Y69.2651 I-0.0806 J-0.0831
G2 X276.8055 Y69.1684 I-0.1389 J0.0077
G2 X276.5693 Y69.0048 I-0.6231 J0.6473
G2 X276.3045 Y68.893 I-1.0248 J2.0575
G2 X275.5692 Y68.7671 I-0.7332 J2.0706
G2 X274.9985 Y68.8664 I-0.0171 J1.5901
G2 X274.5116 Y69.1802 I0.5094 J1.3255
G2 X274.0897 Y70.185 I0.9376 J0.9846
G2 X274.0977 Y70.3398 I1.2367 J0.0133
G0 Z3.0
G0 X274.3416 Y70.3227
G0 Z1.275
G1 F300.0 Z-0.125
G1 F200.0 X276.5975
G3 X276.2108 Y70.9848 I-1.0557 J-0.1726
G3 X275.4696 Y71.2397 I-0.716 J-0.877
G3 X275.0767 Y71.1793 I-0.0102 J-1.2419
G3 X274.7284 Y70.9878 I0.346 J-1.0415
G3 X274.3416 Y70.3227 I0.6782 J-0.8393
G0 Z3.0
G0 X277.8697 Y69.0293
G0 Z1.275
G1 F300.0 Z-0.125
G2 F200.0 X277.9012 Y69.0747 I0.1026 J-0.0376
G2 X278.0272 Y69.1098 I0.1111 J-0.1549
G1 X278.994
G1 Y72.2915
G1 X278.285
G2 X278.1561 Y72.3266 I-0.0143 J0.2016
G2 X278.118 Y72.4175 I0.0799 J0.0869
G2 X278.1561 Y72.5054 I0.1146 J0.0025
G2 X278.285 Y72.5405 I0.1132 J-0.1613
G1 X279.2401
G1 Y69.1098
G1 X280.2069
G2 X280.2744 Y69.1035 I0.0039 J-0.3227
G2 X280.3358 Y69.0747 I-0.023 J-0.1288
G2 X280.3739 Y68.9868 I-0.0711 J-0.083
G2 X280.3358 Y68.8989 I-0.1146 J-0.0025
G2 X280.2069 Y68.8638 I-0.1132 J0.1613
G1 X278.0272
G2 X277.9012 Y68.8989 I-0.0149 J0.1901
G2 X277.8631 Y68.9868 I0.0765 J0.0854
G2 X277.8697 Y69.0293 I0.1092 J0.0049
G0 Z3.0
G0 X281.3275 Y69.8506
G0 Z1.275
G1 F300.0 Z-0.125
G2 F200.0 X281.2909 Y70.185 I1.3229 J0.3142
G2 X281.6864 Y71.105 I1.2367 J0.0133
G2 X282.6707 Y71.4888 I0.9493 J-0.9805
G2 X283.2086 Y71.3947 I0.0177 J-1.4834
G2 X283.6639 Y71.0932 I-0.4646 J-1.1964
G2 X283.9616 Y70.6233 I-0.8969 J-0.8974
G2 X284.0477 Y70.0737 I-1.4897 J-0.515
G1 X281.5399
G3 X281.6671 Y69.6512 I1.3105 J0.1644
G3 X281.9383 Y69.3032 I1.027 J0.5205
G3 X282.3275 Y69.0813 I0.7559 J0.8737
G3 X282.7703 Y69.0132 I0.4293 J1.3168
G3 X283.3475 Y69.104 I-0.02 J2.0063
G3 X283.8397 Y69.3442 I-0.3995 J1.4429
G2 X283.9364 Y69.3882 I0.1168 J-0.1287
G2 X284.0184 Y69.3501 I-0.0006 J-0.1086
G2 X284.0535 Y69.2651 I-0.0806 J-0.0831
G2 X284.0067 Y69.1684 I-0.1389 J0.0077
G2 X283.7704 Y69.0048 I-0.6231 J0.6473
G2 X283.5057 Y68.893 I-1.0248 J2.0575
G2 X282.7703 Y68.7671 I-0.7332 J2.0706
G2 X282.1997 Y68.8664 I-0.0171 J1.5901
G2 X281.7127 Y69.1802 I0.5094 J1.3255
G2 X281.3275 Y69.8506 I0.9376 J0.9846
G0 Z3.0
G0 X281.5428 Y70.3227
G0 Z1.275
G1 F300.0 Z-0.125
G1 F200.0 X283.7987
G3 X283.4119 Y70.9848 I-1.0557 J-0.1726
G3 X282.6707 Y71.2397 I-0.716 J-0.877
G3 X282.2778 Y71.1793 I-0.0102 J-1.2419
G3 X281.9295 Y70.9878 I0.346 J-1.0415
G3 X281.5428 Y70.3227 I0.6782 J-0.8393
G0 Z3.0
G0 X285.0825 Y69.0292
G0 Z1.275
G1 F300.0 Z-0.125
G2 F200.0 X285.1141 Y69.0747 I0.1026 J-0.0375
G2 X285.2401 Y69.1098 I0.1111 J-0.1549
G1 X285.5711
G1 Y72.2915
G1 X285.2401
G2 X285.1141 Y72.3266 I-0.0149 J0.1901
G2 X285.076 Y72.4175 I0.0799 J0.0869
G2 X285.1141 Y72.5054 I0.1146 J0.0025
G2 X285.2401 Y72.5405 I0.1111 J-0.1549
G1 X285.8172
G1 Y70.2729
G1 X286.8631 Y71.1518
G1 X286.7371
G2 X286.6112 Y71.187 I-0.0149 J0.1901
G2 X286.5731 Y71.2749 I0.0765 J0.0854
G2 X286.6112 Y71.3657 I0.118 J0.0039
G2 X286.7371 Y71.4009 I0.1111 J-0.1549
G1 X287.5252
G2 X287.5928 Y71.3945 I0.0039 J-0.3227
G2 X287.6541 Y71.3657 I-0.023 J-0.1288
G2 X287.6922 Y71.2749 I-0.0799 J-0.0869
G2 X287.6541 Y71.187 I-0.1146 J-0.0025
G2 X287.5252 Y71.1518 I-0.1132 J0.1613
G1 X287.241
G1 X286.2801 Y70.3491
G1 X287.4959 Y69.1098
G1 X287.7801
G2 X287.8476 Y69.1035 I0.0039 J-0.3227
G2 X287.909 Y69.0747 I-0.023 J-0.1288
G2 X287.9471 Y68.9868 I-0.0711 J-0.083
G2 X287.909 Y68.8989 I-0.1146 J-0.0025
G2 X287.7801 Y68.8638 I-0.1132 J0.1613
G1 X286.9832
G2 X286.8573 Y68.8989 I-0.0149 J0.1901
G2 X286.8192 Y68.9868 I0.0765 J0.0854
G2 X286.8573 Y69.0747 I0.1092 J0.0049
G2 X286.9832 Y69.1098 I0.1111 J-0.1549
G1 X287.1561
G1 X286.0985 Y70.1968
G1 X285.8172 Y69.9595
G1 Y68.8638
G1 X285.2401
G2 X285.1141 Y68.8989 I-0.0149 J0.1901
G2 X285.076 Y68.9868 I0.0765 J0.0854
G2 X285.0825 Y69.0292 I0.1092 J0.0049
G0 Z3.0
G0 X284.5891 Y65.7436
G0 Z1.275
G1 F300.0 Z-0.125
G1 F200.0 Y64.229
G2 X284.7968 Y64.4283 I1.5721 J-1.4305
G2 X285.0374 Y64.5864 I0.7727 J-0.9134
G2 X285.5208 Y64.6919 I0.4684 J-0.9862
G2 X286.0071 Y64.5893 I0.0302 J-1.0613
G2 X286.344 Y64.2788 I-0.3791 J-0.7493
G2 X286.4788 Y63.8393 I-0.6609 J-0.4431
G1 Y62.313
G1 X286.7542
G2 X286.8204 Y62.3068 I0.0039 J-0.3177
G2 X286.8802 Y62.2778 I-0.0204 J-0.1181
G2 X286.9182 Y62.1899 I-0.0711 J-0.083
G2 X286.8802 Y62.102 I-0.1146 J-0.0025
G2 X286.8204 Y62.073 I-0.0801 J0.089
G2 X286.7542 Y62.0669 I-0.0622 J0.311
G1 X285.9544
G2 X285.8869 Y62.0732 I-0.0039 J0.3227
G2 X285.8255 Y62.102 I0.023 J0.1288
G2 X285.7874 Y62.1899 I0.0765 J0.0854
G2 X285.8255 Y62.2778 I0.1092 J0.0049
G2 X285.9544 Y62.313 I0.1132 J-0.1613
G1 X286.2298
G1 Y63.8218
G3 X286.0364 Y64.2671 I-0.5813 J0.0122
G3 X285.787 Y64.4078 I-0.4218 J-0.4564
G3 X285.5032 Y64.4458 I-0.2711 J-0.9456
G3 X285.0432 Y64.3139 I-0.0224 J-0.7902
G3 X284.8066 Y64.1026 I1.1704 J-1.5483
G3 X284.5891 Y63.8716 I5.4871 J-5.3837
G1 Y62.313
G1 X284.8675
G2 X284.9934 Y62.2778 I0.0149 J-0.1901
G2 X285.0315 Y62.1899 I-0.0711 J-0.083
G2 X284.9934 Y62.102 I-0.1146 J-0.0025
G2 X284.8675 Y62.0669 I-0.1111 J0.1549
G1 X284.0647
G2 X283.9387 Y62.102 I-0.0149 J0.1901
G2 X283.9007 Y62.1899 I0.0765 J0.0854
G2 X283.9387 Y62.2778 I0.1092 J0.0049
G2 X284.0647 Y62.313 I0.1111 J-0.1549
G1 X284.343
G1 Y65.4946
G1 X284.012
G2 X283.886 Y65.5298 I-0.0149 J0.1901
G2 X283.8479 Y65.6206 I0.0799 J0.0869
G2 X283.886 Y65.7085 I0.1146 J0.0025
G2 X284.012 Y65.7436 I0.1111 J-0.1549
G1 X284.5891
G0 Z3.0
G0 X287.7865 Y63.9793
G0 Z1.275
G1 F300.0 Z-0.125
G2 F200.0 X288.0257 Y64.2905 I1.1424 J-0.6304
G2 X289.0012 Y64.6919 I0.9515 J-0.9265
G2 X289.971 Y64.2934 I0.0219 J-1.3259
G2 X290.3753 Y63.3296 I-0.899 J-0.9438
G2 X289.971 Y62.3686 I-1.3 J-0.0186
G2 X289.0012 Y61.9702 I-0.9478 J0.9275
G2 X288.0257 Y62.3686 I-0.0248 J1.3328
G2 X287.6243 Y63.3296 I0.9096 J0.9442
G2 X287.7865 Y63.9793 I1.3047 J0.0194
G0 Z3.0
G0 X288.0027 Y63.8601
G0 Z1.275
G1 F300.0 Z-0.125
G3 F200.0 X287.8704 Y63.3296 I0.9326 J-0.5144
G3 X288.1985 Y62.5444 I1.0713 J-0.0134
G3 X288.9983 Y62.2163 I0.7816 J0.7664
G3 X289.7952 Y62.5415 I0.0201 J1.0897
G3 X290.1262 Y63.3296 I-0.7388 J0.7739
G3 X289.7952 Y64.1177 I-1.0636 J0.0168
G3 X288.9983 Y64.4429 I-0.7768 J-0.7645
G3 X288.1985 Y64.1147 I-0.0182 J-1.0945
G3 X288.0027 Y63.8601 I0.7368 J-0.7691
G0 Z3.0
G0 X291.4434 Y64.4568
G0 Z1.275
G1 F300.0 Z-0.125
G2 F200.0 X291.4417 Y64.4809 I0.1163 J0.0202
G2 X291.4768 Y64.5688 I0.1193 J0.0033
G2 X291.6057 Y64.604 I0.1132 J-0.1613
G1 X292.3059
G1 Y63.9829
G2 X292.6507 Y64.2795 I5.6918 J-6.2669
G2 X293.0237 Y64.5395 I1.6299 J-1.9405
G2 X293.2374 Y64.629 I0.5858 J-1.0993
G2 X293.4661 Y64.6655 I0.2371 J-0.7503
G2 X293.8733 Y64.5161 I-0.0041 J-0.6408
G2 X293.9859 Y64.4196 I-0.7279 J-0.9631
G2 X294.0352 Y64.3629 I-0.3197 J-0.3282
G2 X294.0637 Y64.2934 I-0.1019 J-0.0824
G2 X294.0257 Y64.1997 I-0.1274 J-0.0029
G2 X293.9348 Y64.1645 I-0.0862 J0.0879
G2 X293.885 Y64.1733 I-0.0032 J0.1274
G2 X293.8089 Y64.2407 I0.3419 J0.4632
G3 X293.6302 Y64.3813 I-0.5604 J-0.5284
G3 X293.4807 Y64.4194 I-0.1549 J-0.2955
G3 X293.2781 Y64.3786 I0.0162 J-0.6041
G3 X293.0911 Y64.2905 I0.4487 J-1.195
G3 X292.8833 Y64.1479 I1.0709 J-1.7829
G3 X292.3059 Y63.6606 I6.4037 J-8.1736
G1 Y62.313
G1 X293.3958
G2 X293.4633 Y62.3067 I0.0039 J-0.3227
G2 X293.5247 Y62.2778 I-0.023 J-0.1288
G2 X293.5628 Y62.1899 I-0.0711 J-0.083
G2 X293.5247 Y62.102 I-0.1146 J-0.0025
G2 X293.3958 Y62.0669 I-0.1132 J0.1613
G1 X291.4651
G2 X291.3391 Y62.0991 I-0.0151 J0.2034
G2 X291.3011 Y62.187 I0.0765 J0.0854
G2 X291.3362 Y62.269 I0.1064 J0.003
G2 X291.4651 Y62.3042 I0.1132 J-0.1613
G1 X292.0598
G1 Y64.355
G1 X291.6057
G2 X291.4798 Y64.3901 I-0.0149 J0.1901
G2 X291.4434 Y64.4568 I0.0799 J0.0869
G0 Z3.0
G0 X294.5735 Y64.4763
G0 Z1.275
G1 F300.0 Z-0.125
G2 F200.0 Y64.4809 I0.1181 J0.0007
G2 X294.6116 Y64.5688 I0.1146 J0.0025
G2 X294.7376 Y64.604 I0.1111 J-0.1549
G1 X295.6604
G2 X295.7864 Y64.5688 I0.0149 J-0.1901
G2 X295.8245 Y64.478 I-0.0799 J-0.0869
G2 X295.7864 Y64.3901 I-0.1146 J-0.0025
G2 X295.6604 Y64.355 I-0.1111 J0.1549
G1 X295.2532
G1 X296.1555 Y62.313
G1 X296.2639
G1 X297.1487 Y64.355
G1 X296.7386
G2 X296.6126 Y64.3901 I-0.0149 J0.1901
G2 X296.5745 Y64.4809 I0.0799 J0.0869
G2 X296.6126 Y64.5688 I0.1146 J0.0025
G2 X296.7386 Y64.604 I0.1111 J-0.1549
G1 X297.6643
G2 X297.7305 Y64.5978 I0.0039 J-0.3177
G2 X297.7903 Y64.5688 I-0.0204 J-0.1181
G2 X297.8284 Y64.478 I-0.0799 J-0.0869
G2 X297.7903 Y64.3901 I-0.1146 J-0.0025
G2 X297.7305 Y64.3611 I-0.0801 J0.089
G2 X297.6643 Y64.355 I-0.0622 J0.311
G1 X297.4153
G1 X296.4163 Y62.0669
G1 X296.0003
G1 X294.9895 Y64.355
G1 X294.7376
G2 X294.6116 Y64.3901 I-0.0149 J0.1901
G2 X294.5735 Y64.4763 I0.0799 J0.0869
G0 Z3.0
G0 X298.7189 Y64.3774
G0 Z1.275
G1 F300.0 Z-0.125
G2 F200.0 X298.7483 Y64.4487 I0.1074 J-0.0026
G2 X298.8261 Y64.4911 I0.1623 J-0.2054
G2 X299.0794 Y64.5688 I0.8637 J-2.362
G2 X299.4216 Y64.65 I1.3817 J-5.0627
G2 X299.7708 Y64.6919 I0.4032 J-1.8857
G2 X300.1554 Y64.6431 I0.0171 J-1.4049
G2 X300.4973 Y64.4604 I-0.2266 J-0.8358
G2 X300.6858 Y64.2303 I-0.5363 J-0.6313
G2 X300.7581 Y63.9419 I-0.532 J-0.2867
G1 Y62.313
G1 X301.0862
G2 X301.1537 Y62.3067 I0.0039 J-0.3227
G2 X301.2151 Y62.2778 I-0.023 J-0.1288
G2 X301.2532 Y62.1899 I-0.0711 J-0.083
G2 X301.2151 Y62.102 I-0.1146 J-0.0025
G2 X301.0862 Y62.0669 I-0.1132 J0.1613
G1 X300.5091
G1 Y62.4214
G2 X299.9772 Y62.0921 I-1.3184 J1.5353
G2 X299.3636 Y61.9702 I-0.6128 J1.4797
G2 X298.9972 Y62.0174 I-0.0161 J1.3202
G2 X298.6721 Y62.1929 I0.2195 J0.7955
G2 X298.4231 Y62.7436 I0.4663 J0.5425
G2 X298.5138 Y63.0943 I0.7091 J0.0037
G2 X298.7512 Y63.3677 I0.8295 J-0.4807
G2 X299.2079 Y63.5813 I0.6978 J-0.8965
G2 X299.7093 Y63.6343 I0.477 J-2.1177
G2 X300.0784 Y63.6108 I-0.0167 J-3.1822
G2 X300.5091 Y63.5434 I-0.4828 J-4.4954
G1 Y63.9419
G3 X300.3216 Y64.2934 I-0.442 J-0.0099
G3 X300.0525 Y64.414 I-0.3976 J-0.527
G3 X299.7591 Y64.4429 I-0.2786 J-1.3265
G3 X299.3505 Y64.3872 I0.0541 J-1.925
G3 X298.9534 Y64.2759 I1.1111 J-4.7258
G2 X298.8333 Y64.2466 I-0.2162 J0.6256
G2 X298.7512 Y64.2817 I-0.0003 J0.1125
G2 X298.719 Y64.3696 I0.093 J0.084
G2 X298.7189 Y64.3774 I0.1073 J0.0052
G0 Z3.0
G0 X299.1441 Y63.2934
G0 Z1.275
G1 F300.0 Z-0.125
G3 F200.0 X298.8977 Y63.1567 I0.389 J-0.9917
G3 X298.7327 Y62.9782 I0.3687 J-0.5063
G3 X298.6692 Y62.7436 I0.3908 J-0.2317
G3 X298.8421 Y62.3686 I0.4806 J-0.0058
G3 X299.0834 Y62.2471 I0.3793 J0.4528
G3 X299.3518 Y62.2163 I0.2556 J1.0416
G3 X299.9436 Y62.3423 I0.0127 J1.3934
G3 X300.2427 Y62.5231 I-0.766 J1.6044
G3 X300.5091 Y62.7495 I-1.6229 J2.1794
G1 Y63.2915
G3 X300.1429 Y63.3647 I-0.6404 J-2.2496
G3 X299.7356 Y63.3882 I-0.3979 J-3.3642
G3 X299.2978 Y63.3406 I-0.0196 J-1.8594
G3 X299.1441 Y63.2934 I0.2352 J-1.0389
G0 Z3.0
G0 X302.0377 Y64.4337
G0 Z1.275
G1 F300.0 Z-0.125
G2 F200.0 X302.0296 Y64.4809 I0.1098 J0.0433
G2 X302.0677 Y64.5688 I0.1146 J0.0025
G2 X302.1936 Y64.604 I0.1111 J-0.1549
G1 X302.6477
G1 Y65.3305
G2 X302.6829 Y65.4565 I0.1901 J0.0149
G2 X302.7708 Y65.4946 I0.0854 J-0.0765
G2 X302.8616 Y65.4565 I0.0039 J-0.118
G2 X302.8968 Y65.3305 I-0.1549 J-0.1111
G1 Y64.604
G1 X304.2327
G2 X304.3587 Y64.5688 I0.0149 J-0.1901
G2 X304.3968 Y64.478 I-0.0799 J-0.0869
G2 X304.3587 Y64.3901 I-0.1146 J-0.0025
G2 X304.2327 Y64.355 I-0.1111 J0.1549
G1 X302.8968
G1 Y62.7173
G3 X303.0667 Y62.3598 I0.4494 J-0.0055
G3 X303.3063 Y62.2449 I0.3693 J0.4629
G3 X303.5706 Y62.2163 I0.2514 J1.086
G3 X304.1096 Y62.2895 I-0.0271 J2.2199
G3 X304.5608 Y62.4595 I-0.4428 J1.8595
G2 X304.6575 Y62.4975 I0.1197 J-0.1621
G2 X304.7395 Y62.4595 I-0.0006 J-0.1086
G2 X304.7747 Y62.3745 I-0.0806 J-0.0831
G2 X304.7366 Y62.2925 I-0.1154 J0.0037
G2 X304.6327 Y62.2198 I-0.3027 J0.3221
G2 X304.2796 Y62.0815 I-0.9809 J1.9854
G2 X303.5882 Y61.9702 I-0.7144 J2.234
G2 X303.2283 Y62.0132 I-0.015 J1.4019
G2 X302.9026 Y62.1723 I0.2173 J0.8574
G2 X302.6477 Y62.7173 I0.4041 J0.5211
G1 Y64.355
G1 X302.1936
G2 X302.0677 Y64.3901 I-0.0149 J0.1901
G2 X302.0377 Y64.4337 I0.0799 J0.0869
G0 Z3.0
G0 X302.025 Y68.8632
G0 Z1.275
G1 F300.0 Z-0.125
G2 F200.0 X302.0096 Y68.8638 I-0.0005 J0.1906
G1 X301.3504
G2 X301.2829 Y68.8701 I-0.0039 J0.3227
G2 X301.2215 Y68.8989 I0.023 J0.1288
G2 X301.1834 Y68.9868 I0.0765 J0.0854
G2 X301.2215 Y69.0747 I0.1092 J0.0049
G2 X301.3504 Y69.1098 I0.1132 J-0.1613
G1 X301.5555
G1 Y70.6186
G3 X301.3651 Y71.0581 I-0.579 J0.0101
G3 X301.1281 Y71.1992 I-0.4292 J-0.4511
G3 X300.8553 Y71.2397 I-0.2619 J-0.8254
G3 X300.4334 Y71.1401 I-0.0205 J-0.8562
G3 X300.2898 Y71.0367 I0.4356 J-0.7562
G3 X299.9237 Y70.6538 I2.4496 J-2.709
G1 Y69.1098
G1 X300.202
G2 X300.328 Y69.0747 I0.0149 J-0.1901
G2 X300.366 Y68.9868 I-0.0711 J-0.083
G2 X300.328 Y68.8989 I-0.1146 J-0.0025
G2 X300.202 Y68.8638 I-0.1111 J0.1549
G1 X299.3993
G2 X299.2733 Y68.8989 I-0.0149 J0.1901
G2 X299.2352 Y68.9868 I0.0765 J0.0854
G2 X299.2733 Y69.0747 I0.1092 J0.0049
G2 X299.3993 Y69.1098 I0.1111 J-0.1549
G1 X299.6776
G1 Y71.1518
G1 X299.4696
G2 X299.3436 Y71.187 I-0.0149 J0.1901
G2 X299.3055 Y71.2778 I0.0799 J0.0869
G2 X299.3436 Y71.3657 I0.1146 J0.0025
G2 X299.4696 Y71.4009 I0.1111 J-0.1549
G1 X299.9237
G1 Y71.0288
G2 X300.1419 Y71.2279 I1.872 J-1.8331
G2 X300.3895 Y71.3891 I0.8349 J-1.011
G2 X300.8582 Y71.4888 I0.452 J-0.9742
G2 X301.3709 Y71.3686 I0.0134 J-1.0969
G2 X301.6668 Y71.0757 I-0.4214 J-0.7216
G2 X301.8016 Y70.6596 I-0.6079 J-0.4268
G1 Y69.1098
G1 X302.0096
G2 X302.1356 Y69.0747 I0.0149 J-0.1901
G2 X302.1737 Y68.9868 I-0.0711 J-0.083
G2 X302.1356 Y68.8989 I-0.1146 J-0.0025
G2 X302.025 Y68.8632 I-0.1111 J0.1549
G0 Z3.0
G0 X303.0737 Y68.9724
G0 Z1.275
G1 F300.0 Z-0.125
G2 F200.0 X303.0731 Y68.9868 I0.114 J0.0119
G2 X303.1112 Y69.0747 I0.1092 J0.0049
G2 X303.2371 Y69.1098 I0.1111 J-0.1549
G1 X304.2039
G1 Y71.1518
G1 X303.4862
G2 X303.3573 Y71.187 I-0.0143 J0.2016
G2 X303.3192 Y71.2749 I0.0765 J0.0854
G2 X303.3573 Y71.3657 I0.118 J0.0039
G2 X303.4862 Y71.4009 I0.1132 J-0.1613
G1 X304.45
G1 Y69.1098
G1 X305.4168
G2 X305.4844 Y69.1035 I0.0039 J-0.3227
G2 X305.5457 Y69.0747 I-0.023 J-0.1288
G2 X305.5838 Y68.9868 I-0.0711 J-0.083
G2 X305.5457 Y68.8989 I-0.1146 J-0.0025
G2 X305.4168 Y68.8638 I-0.1132 J0.1613
G1 X303.2371
G2 X303.1112 Y68.8989 I-0.0149 J0.1901
G2 X303.0737 Y68.9724 I0.0765 J0.0854
G0 Z3.0
G0 X304.078 Y72.0278
G0 Z1.275
G1 F300.0 Z-0.125
G1 F200.0 Y72.6636
G1 X304.4412
G1 Y72.0278
G1 X304.078
G0 Z3.0
G0 X306.6806 Y72.397
G0 Z1.275
G1 F300.0 Z-0.125
G2 F200.0 X306.6795 Y72.4175 I0.1169 J0.0166
G2 X306.7176 Y72.5054 I0.1146 J0.0025
G2 X306.8436 Y72.5405 I0.1111 J-0.1549
G1 X307.4207
G1 Y70.2729
G1 X308.4666 Y71.1518
G1 X308.3407
G2 X308.2147 Y71.187 I-0.0149 J0.1901
G2 X308.1766 Y71.2749 I0.0765 J0.0854
G2 X308.2147 Y71.3657 I0.118 J0.0039
G2 X308.3407 Y71.4009 I0.1111 J-0.1549
G1 X309.1287
G2 X309.1963 Y71.3945 I0.0039 J-0.3227
G2 X309.2577 Y71.3657 I-0.023 J-0.1288
G2 X309.2957 Y71.2749 I-0.0799 J-0.0869
G2 X309.2577 Y71.187 I-0.1146 J-0.0025
G2 X309.1287 Y71.1518 I-0.1132 J0.1613
G1 X308.8446
G1 X307.8836 Y70.3491
G1 X309.0994 Y69.1098
G1 X309.3836
G2 X309.4512 Y69.1035 I0.0039 J-0.3227
G2 X309.5125 Y69.0747 I-0.023 J-0.1288
G2 X309.5506 Y68.9868 I-0.0711 J-0.083
G2 X309.5125 Y68.8989 I-0.1146 J-0.0025
G2 X309.3836 Y68.8638 I-0.1132 J0.1613
G1 X308.5868
G2 X308.4608 Y68.8989 I-0.0149 J0.1901
G2 X308.4227 Y68.9868 I0.0765 J0.0854
G2 X308.4608 Y69.0747 I0.1092 J0.0049
G2 X308.5868 Y69.1098 I0.1111 J-0.1549
G1 X308.7596
G1 X307.702 Y70.1968
G1 X307.4207 Y69.9595
G1 Y68.8638
G1 X306.8436
G2 X306.7176 Y68.8989 I-0.0149 J0.1901
G2 X306.6795 Y68.9868 I0.0765 J0.0854
G2 X306.7176 Y69.0747 I0.1092 J0.0049
G2 X306.8436 Y69.1098 I0.1111 J-0.1549
G1 X307.1746
G1 Y72.2915
G1 X306.8436
G2 X306.7176 Y72.3266 I-0.0149 J0.1901
G2 X306.6806 Y72.397 I0.0799 J0.0869
G0 Z3.0
G0 X310.4432 Y71.2042
G0 Z1.275
G1 F300.0 Z-0.125
G2 F200.0 X310.4676 Y71.2456 I0.1024 J-0.0325
G2 X310.5454 Y71.2879 I0.1623 J-0.2054
G2 X310.7987 Y71.3657 I0.8637 J-2.362
G2 X311.1409 Y71.4469 I1.3817 J-5.0627
G2 X311.4901 Y71.4888 I0.4032 J-1.8857
G2 X311.8747 Y71.4399 I0.0171 J-1.4049
G2 X312.2166 Y71.2573 I-0.2266 J-0.8358
G2 X312.405 Y71.0272 I-0.5363 J-0.6313
G2 X312.4774 Y70.7388 I-0.532 J-0.2867
G1 Y69.1098
G1 X312.8055
G2 X312.873 Y69.1035 I0.0039 J-0.3227
G2 X312.9344 Y69.0747 I-0.023 J-0.1288
G2 X312.9725 Y68.9868 I-0.0711 J-0.083
G2 X312.9344 Y68.8989 I-0.1146 J-0.0025
G2 X312.8055 Y68.8638 I-0.1132 J0.1613
G1 X312.2284
G1 Y69.2182
G2 X311.6965 Y68.8889 I-1.3184 J1.5353
G2 X311.0828 Y68.7671 I-0.6128 J1.4797
G2 X310.7165 Y68.8143 I-0.0161 J1.3202
G2 X310.3914 Y68.9897 I0.2195 J0.7955
G2 X310.1424 Y69.5405 I0.4663 J0.5425
G2 X310.2331 Y69.8911 I0.7091 J0.0037
G2 X310.4705 Y70.1645 I0.8295 J-0.4807
G2 X310.9272 Y70.3782 I0.6978 J-0.8965
G2 X311.4285 Y70.4311 I0.477 J-2.1177
G2 X311.7977 Y70.4077 I-0.0167 J-3.1822
G2 X312.2284 Y70.3403 I-0.4828 J-4.4954
G1 Y70.7388
G3 X312.0409 Y71.0903 I-0.442 J-0.0099
G3 X311.7718 Y71.2109 I-0.3976 J-0.527
G3 X311.4784 Y71.2397 I-0.2786 J-1.3265
G3 X311.0697 Y71.1841 I0.0541 J-1.925
G3 X310.6727 Y71.0727 I1.1111 J-4.7258
G2 X310.5526 Y71.0434 I-0.2162 J0.6256
G2 X310.4705 Y71.0786 I-0.0003 J0.1125
G2 X310.4383 Y71.1665 I0.093 J0.084
G2 X310.4432 Y71.2042 I0.1073 J0.0052
G0 Z3.0
G0 X310.8703 Y70.0929
G0 Z1.275
G1 F300.0 Z-0.125
G3 F200.0 X310.617 Y69.9536 I0.3821 J-0.9944
G3 X310.452 Y69.7751 I0.3687 J-0.5063
G3 X310.3885 Y69.5405 I0.3908 J-0.2317
G3 X310.5614 Y69.1655 I0.4806 J-0.0058
G3 X310.8027 Y69.044 I0.3793 J0.4528
G3 X311.0711 Y69.0132 I0.2556 J1.0416
G3 X311.6629 Y69.1391 I0.0127 J1.3934
G3 X311.962 Y69.32 I-0.766 J1.6044
G3 X312.2284 Y69.5464 I-1.6229 J2.1794
G1 Y70.0884
G3 X311.8621 Y70.1616 I-0.6404 J-2.2496
G3 X311.4549 Y70.185 I-0.3979 J-3.3642
G3 X311.0171 Y70.1375 I-0.0196 J-1.8594
G3 X310.8703 Y70.0929 I0.2352 J-1.0389
G0 Z3.0
G0 X298.4941 Y70.1065
G0 Z1.275
G1 F300.0 Z-0.125
G2 F200.0 X298.0897 Y69.1655 I-1.3001 J0.0014
G2 X297.12 Y68.7671 I-0.9478 J0.9275
G2 X296.1444 Y69.1655 I-0.0248 J1.3328
G2 X295.743 Y70.1264 I0.9096 J0.9442
G2 X296.1444 Y71.0874 I1.3047 J0.0194
G2 X297.12 Y71.4888 I0.9515 J-0.9265
G2 X298.0897 Y71.0903 I0.0219 J-1.3259
G2 X298.494 Y70.1264 I-0.899 J-0.9438
G2 X298.4941 Y70.1065 I-1.3 J-0.0186
G0 Z3.0
G0 X298.245 Y70.1076
G0 Z1.275
G1 F300.0 Z-0.125
G3 F200.0 Y70.1264 I-1.07 J0.0047
G3 X297.9139 Y70.9145 I-1.0636 J0.0168
G3 X297.117 Y71.2397 I-0.7768 J-0.7645
G3 X296.3172 Y70.9116 I-0.0182 J-1.0945
G3 X295.9891 Y70.1264 I0.7368 J-0.7691
G3 X296.3172 Y69.3413 I1.0713 J-0.0134
G3 X297.117 Y69.0132 I0.7816 J0.7664
G3 X297.9139 Y69.3384 I0.0201 J1.0897
G3 X298.245 Y70.1076 I-0.7388 J0.7739
G0 Z3.0
G0 X294.9763 Y71.0521
G0 Z1.275
G1 F300.0 Z-0.125
G2 F200.0 X294.9432 Y70.9966 I-0.1224 J0.0354
G2 X294.8524 Y70.9614 I-0.0862 J0.0879
G2 X294.8026 Y70.9702 I-0.0032 J0.1274
G2 X294.7264 Y71.0376 I0.3419 J0.4632
G3 X294.5477 Y71.1782 I-0.5604 J-0.5284
G3 X294.3983 Y71.2163 I-0.1549 J-0.2955
G3 X294.1956 Y71.1755 I0.0162 J-0.6041
G3 X294.0086 Y71.0874 I0.4487 J-1.195
G3 X293.8009 Y70.9448 I1.0709 J-1.7829
G3 X293.2235 Y70.4575 I6.4037 J-8.1736
G1 Y69.1098
G1 X294.3133
G2 X294.3808 Y69.1035 I0.0039 J-0.3227
G2 X294.4422 Y69.0747 I-0.023 J-0.1288
G2 X294.4803 Y68.9868 I-0.0711 J-0.083
G2 X294.4422 Y68.8989 I-0.1146 J-0.0025
G2 X294.3133 Y68.8638 I-0.1132 J0.1613
G1 X292.3827
G2 X292.2567 Y68.896 I-0.0151 J0.2034
G2 X292.2186 Y68.9839 I0.0765 J0.0854
G2 X292.2537 Y69.0659 I0.1064 J0.003
G2 X292.3827 Y69.1011 I0.1132 J-0.1613
G1 X292.9774
G1 Y71.1518
G1 X292.5233
G2 X292.3973 Y71.187 I-0.0149 J0.1901
G2 X292.3592 Y71.2778 I0.0799 J0.0869
G2 X292.3944 Y71.3657 I0.1193 J0.0033
G2 X292.5233 Y71.4009 I0.1132 J-0.1613
G1 X293.2235
G1 Y70.7798
G2 X293.5682 Y71.0764 I5.6918 J-6.2669
G2 X293.9412 Y71.3364 I1.6299 J-1.9405
G2 X294.1549 Y71.4259 I0.5858 J-1.0993
G2 X294.3836 Y71.4624 I0.2371 J-0.7503
G2 X294.7909 Y71.313 I-0.0041 J-0.6408
G2 X294.9034 Y71.2165 I-0.7279 J-0.9631
G2 X294.9528 Y71.1598 I-0.3197 J-0.3282
G2 X294.9813 Y71.0903 I-0.1019 J-0.0824
G2 X294.9763 Y71.0521 I-0.1274 J-0.0029
G0 Z3.0
G0 X290.9118 Y71.2663
G0 Z1.275
G1 F300.0 Z-0.125
G2 F200.0 X290.8739 Y71.187 I-0.1145 J0.006
G2 X290.7479 Y71.1518 I-0.1111 J0.1549
G1 X289.4119
G1 Y69.5141
G3 X289.5819 Y69.1567 I0.4494 J-0.0055
G3 X289.8215 Y69.0418 I0.3693 J0.4629
G3 X290.0858 Y69.0132 I0.2514 J1.086
G3 X290.6248 Y69.0864 I-0.0271 J2.2199
G3 X291.076 Y69.2563 I-0.4428 J1.8595
G2 X291.1727 Y69.2944 I0.1197 J-0.1621
G2 X291.2547 Y69.2563 I-0.0006 J-0.1086
G2 X291.2899 Y69.1714 I-0.0806 J-0.0831
G2 X291.2518 Y69.0893 I-0.1154 J0.0037
G2 X291.1479 Y69.0166 I-0.3027 J0.3221
G2 X290.7948 Y68.8784 I-0.9809 J1.9854
G2 X290.1034 Y68.7671 I-0.7144 J2.234
G2 X289.7435 Y68.8101 I-0.015 J1.4019
G2 X289.4178 Y68.9692 I0.2173 J0.8574
G2 X289.1629 Y69.5141 I0.4041 J0.5211
G1 Y71.1518
G1 X288.7088
G2 X288.5828 Y71.187 I-0.0149 J0.1901
G2 X288.5448 Y71.2778 I0.0799 J0.0869
G2 X288.5828 Y71.3657 I0.1146 J0.0025
G2 X288.7088 Y71.4009 I0.1111 J-0.1549
G1 X289.1629
G1 Y72.1274
G2 X289.1981 Y72.2534 I0.1901 J0.0149
G2 X289.286 Y72.2915 I0.0854 J-0.0765
G2 X289.3768 Y72.2534 I0.0039 J-0.118
G2 X289.4119 Y72.1274 I-0.1549 J-0.1111
G1 Y71.4009
G1 X290.7479
G2 X290.8739 Y71.3657 I0.0149 J-0.1901
G2 X290.9119 Y71.2749 I-0.0799 J-0.0869
G2 X290.9118 Y71.2663 I-0.1146 J-0.0025
G0 Z3.0
G0 X280.9492 Y64.3278
G0 Z1.275
G1 F300.0 Z-0.125
G2 F200.0 X280.9808 Y64.2788 I-0.6857 J-0.4776
G2 X281.1156 Y63.8628 I-0.6079 J-0.4268
G1 Y62.313
G1 X281.3236
G2 X281.4496 Y62.2778 I0.0149 J-0.1901
G2 X281.4877 Y62.1899 I-0.0711 J-0.083
G2 X281.4496 Y62.102 I-0.1146 J-0.0025
G2 X281.3236 Y62.0669 I-0.1111 J0.1549
G1 X280.6644
G2 X280.5969 Y62.0732 I-0.0039 J0.3227
G2 X280.5355 Y62.102 I0.023 J0.1288
G2 X280.4975 Y62.1899 I0.0765 J0.0854
G2 X280.5355 Y62.2778 I0.1092 J0.0049
G2 X280.6644 Y62.313 I0.1132 J-0.1613
G1 X280.8695
G1 Y63.8218
G3 X280.6791 Y64.2612 I-0.579 J0.0101
G3 X280.4421 Y64.4024 I-0.4292 J-0.4511
G3 X280.1693 Y64.4429 I-0.2619 J-0.8254
G3 X279.7475 Y64.3432 I-0.0205 J-0.8562
G3 X279.6038 Y64.2398 I0.4356 J-0.7562
G3 X279.2377 Y63.8569 I2.4496 J-2.709
G1 Y62.313
G1 X279.516
G2 X279.642 Y62.2778 I0.0149 J-0.1901
G2 X279.6801 Y62.1899 I-0.0711 J-0.083
G2 X279.642 Y62.102 I-0.1146 J-0.0025
G2 X279.516 Y62.0669 I-0.1111 J0.1549
G1 X278.7133
G2 X278.5873 Y62.102 I-0.0149 J0.1901
G2 X278.5492 Y62.1899 I0.0765 J0.0854
G2 X278.5873 Y62.2778 I0.1092 J0.0049
G2 X278.7133 Y62.313 I0.1111 J-0.1549
G1 X278.9916
G1 Y64.355
G1 X278.7836
G2 X278.6576 Y64.3901 I-0.0149 J0.1901
G2 X278.6195 Y64.4809 I0.0799 J0.0869
G2 X278.6576 Y64.5688 I0.1146 J0.0025
G2 X278.7836 Y64.604 I0.1111 J-0.1549
G1 X279.2377
G1 Y64.2319
G2 X279.456 Y64.431 I1.872 J-1.8331
G2 X279.7035 Y64.5923 I0.8349 J-1.011
G2 X280.1723 Y64.6919 I0.452 J-0.9742
G2 X280.685 Y64.5718 I0.0134 J-1.0969
G2 X280.9492 Y64.3278 I-0.4214 J-0.7216
G0 Z3.0
G0 X277.3865 Y63.9991
G0 Z1.275
G1 F300.0 Z-0.125
G2 F200.0 X277.3891 Y63.9419 I-0.6018 J-0.0555
G1 Y62.313
G1 X277.7172
G2 X277.7847 Y62.3067 I0.0039 J-0.3227
G2 X277.8461 Y62.2778 I-0.023 J-0.1288
G2 X277.8842 Y62.1899 I-0.0711 J-0.083
G2 X277.8461 Y62.102 I-0.1146 J-0.0025
G2 X277.7172 Y62.0669 I-0.1132 J0.1613
G1 X277.14
G1 Y62.4214
G2 X276.6081 Y62.0921 I-1.3184 J1.5353
G2 X275.9945 Y61.9702 I-0.6128 J1.4797
G2 X275.6282 Y62.0174 I-0.0161 J1.3202
G2 X275.3031 Y62.1929 I0.2195 J0.7955
G2 X275.0541 Y62.7436 I0.4663 J0.5425
G2 X275.1447 Y63.0943 I0.7091 J0.0037
G2 X275.3822 Y63.3677 I0.8295 J-0.4807
G2 X275.8389 Y63.5813 I0.6978 J-0.8965
G2 X276.3402 Y63.6343 I0.477 J-2.1177
G2 X276.7094 Y63.6108 I-0.0167 J-3.1822
G2 X277.14 Y63.5434 I-0.4828 J-4.4954
G1 Y63.9419
G3 X276.9525 Y64.2934 I-0.442 J-0.0099
G3 X276.6835 Y64.414 I-0.3976 J-0.527
G3 X276.39 Y64.4429 I-0.2786 J-1.3265
G3 X275.9814 Y64.3872 I0.0541 J-1.925
G3 X275.5844 Y64.2759 I1.1111 J-4.7258
G2 X275.4642 Y64.2466 I-0.2162 J0.6256
G2 X275.3822 Y64.2817 I-0.0003 J0.1125
G2 X275.35 Y64.3696 I0.093 J0.084
G2 X275.3793 Y64.4487 I0.1073 J0.0052
G2 X275.457 Y64.4911 I0.1623 J-0.2054
G2 X275.7103 Y64.5688 I0.8637 J-2.362
G2 X276.0525 Y64.65 I1.3817 J-5.0627
G2 X276.4017 Y64.6919 I0.4032 J-1.8857
G2 X276.7863 Y64.6431 I0.0171 J-1.4049
G2 X277.1283 Y64.4604 I-0.2266 J-0.8358
G2 X277.3167 Y64.2303 I-0.5363 J-0.6313
G2 X277.3865 Y63.9991 I-0.532 J-0.2867
G0 Z3.0
G0 X277.14 Y63.2915
G0 Z1.275
G1 F300.0 Z-0.125
G3 F200.0 X276.7738 Y63.3647 I-0.6404 J-2.2496
G3 X276.3666 Y63.3882 I-0.3979 J-3.3642
G3 X275.9288 Y63.3406 I-0.0196 J-1.8594
G3 X275.5287 Y63.1567 I0.2352 J-1.0389
G3 X275.3637 Y62.9782 I0.3687 J-0.5063
G3 X275.3002 Y62.7436 I0.3908 J-0.2317
G3 X275.473 Y62.3686 I0.4806 J-0.0058
G3 X275.7144 Y62.2471 I0.3793 J0.4528
G3 X275.9828 Y62.2163 I0.2556 J1.0416
G3 X276.5746 Y62.3423 I0.0127 J1.3934
G3 X276.8737 Y62.5231 I-0.766 J1.6044
G3 X277.14 Y62.7495 I-1.6229 J2.1794
G1 Y63.2915
G0 Z3.0
G0 X274.2862 Y63.3637
G0 Z1.275
G1 F300.0 Z-0.125
G2 F200.0 X273.9057 Y62.5034 I-1.2333 J0.0312
G2 X272.974 Y62.1284 I-0.902 J0.896
G2 X271.9047 Y62.6645 I-0.0251 J1.2845
G1 Y61.1821
G1 X272.5023
G2 X272.6283 Y61.1499 I0.0151 J-0.2034
G2 X272.6664 Y61.0591 I-0.0799 J-0.0869
G2 X272.6283 Y60.9712 I-0.1146 J-0.0025
G2 X272.5023 Y60.936 I-0.1111 J0.1549
G1 X271.3275
G2 X271.2016 Y60.9712 I-0.0149 J0.1901
G2 X271.1635 Y61.0591 I0.0711 J0.083
G2 X271.2016 Y61.1499 I0.118 J0.0039
G2 X271.3275 Y61.1821 I0.1109 J-0.1711
G1 X271.6586
G1 Y64.355
G1 X271.3275
G2 X271.2016 Y64.3901 I-0.0149 J0.1901
G2 X271.1635 Y64.4809 I0.0799 J0.0869
G2 X271.2016 Y64.5688 I0.1146 J0.0025
G2 X271.3275 Y64.604 I0.1111 J-0.1549
G1 X271.9047
G1 Y64.1557
G2 X272.3764 Y64.5571 I1.2533 J-0.995
G2 X272.9711 Y64.6919 I0.565 J-1.1139
G2 X273.642 Y64.522 I0.0113 J-1.3649
G2 X274.1166 Y64.0473 I-0.5634 J-1.038
G2 X274.2865 Y63.4116 I-1.1071 J-0.6365
G2 X274.2862 Y63.3637 I-1.2335 J-0.0167
G0 Z3.0
G0 X274.0372 Y63.3708
G0 Z1.275
G1 F300.0 Z-0.125
G3 F200.0 X274.0375 Y63.4116 I-0.989 J0.0282
G3 X273.7269 Y64.1382 I-0.9766 J0.0122
G3 X272.974 Y64.4429 I-0.7312 J-0.7243
G3 X272.2152 Y64.1382 I-0.022 J-1.0423
G3 X271.9047 Y63.4116 I0.6723 J-0.717
G3 X272.2152 Y62.6821 I0.986 J-0.0111
G3 X272.974 Y62.3774 I0.7368 J0.7376
G3 X273.7269 Y62.6792 I0.0199 J1.0405
G3 X274.0372 Y63.3708 I-0.6787 J0.7198
G0 Z3.0
G0 X270.5632 Y63.33
G0 Z1.275
G1 F300.0 Z-0.125
G2 F200.0 X270.5629 Y63.2768 I-1.5761 J-0.0185
G1 X268.0551
G3 X268.1823 Y62.8544 I1.3105 J0.1644
G3 X268.4535 Y62.5063 I1.027 J0.5205
G3 X268.8427 Y62.2844 I0.7559 J0.8737
G3 X269.2855 Y62.2163 I0.4293 J1.3168
G3 X269.8627 Y62.3071 I-0.02 J2.0063
G3 X270.3549 Y62.5473 I-0.3995 J1.4429
G2 X270.4516 Y62.5913 I0.1168 J-0.1287
G2 X270.5336 Y62.5532 I-0.0006 J-0.1086
G2 X270.5687 Y62.4682 I-0.0806 J-0.0831
G2 X270.5219 Y62.3716 I-0.1389 J0.0077
G2 X270.2856 Y62.208 I-0.6231 J0.6473
G2 X270.0209 Y62.0962 I-1.0248 J2.0575
G2 X269.2855 Y61.9702 I-0.7332 J2.0706
G2 X268.7149 Y62.0696 I-0.0171 J1.5901
G2 X268.2279 Y62.3833 I0.5094 J1.3255
G2 X267.806 Y63.3882 I0.9376 J0.9846
G2 X268.2016 Y64.3081 I1.2367 J0.0133
G2 X269.1859 Y64.6919 I0.9493 J-0.9805
G2 X269.7238 Y64.5978 I0.0177 J-1.4834
G2 X270.1791 Y64.2964 I-0.4646 J-1.1964
G2 X270.4768 Y63.8264 I-0.8969 J-0.8974
G2 X270.5632 Y63.33 I-1.4897 J-0.515
G0 Z3.0
G0 X270.3139 Y63.5259
G0 Z1.275
G1 F300.0 Z-0.125
G3 F200.0 X269.9271 Y64.188 I-1.0557 J-0.1726
G3 X269.1859 Y64.4429 I-0.716 J-0.877
G3 X268.793 Y64.3825 I-0.0102 J-1.2419
G3 X268.4447 Y64.1909 I0.346 J-1.0415
G3 X268.058 Y63.5259 I0.6782 J-0.8393
G1 X270.3139
G0 Z3.0
G0 X266.2445
G0 Z1.275
G1 F300.0 Z-0.125
G1 F200.0 Y61.894
G2 X266.2163 Y61.6229 I-1.2252 J-0.0093
G2 X266.1156 Y61.3696 I-0.8201 J0.1792
G2 X265.7289 Y61.0268 I-0.7946 J0.5069
G2 X265.3041 Y60.936 I-0.402 J0.8413
G1 X264.5219
G2 X264.3959 Y60.9712 I-0.0149 J0.1901
G2 X264.3578 Y61.0591 I0.0711 J0.083
G2 X264.3959 Y61.1499 I0.118 J0.0039
G2 X264.5219 Y61.185 I0.1111 J-0.1549
G1 X265.2982 Y61.1821
G3 X265.5737 Y61.2302 I0.0099 J0.7558
G3 X265.8051 Y61.3872 I-0.2278 J0.5849
G3 X265.9984 Y61.894 I-0.5175 J0.4877
G1 Y64.355
G1 X264.5365
G2 X264.4105 Y64.3901 I-0.0149 J0.1901
G2 X264.3725 Y64.4809 I0.0799 J0.0869
G2 X264.4076 Y64.5688 I0.1193 J0.0033
G2 X264.5365 Y64.604 I0.1132 J-0.1613
G1 X266.2445
G1 Y63.5259
G0 Z3.0
G0 X265.9838 Y65.2309
G0 Z1.275
G1 F300.0 Z-0.125
G1 F200.0 X265.6205
G1 Y65.8667
G1 X265.9838
G1 Y65.2309
G0 Z3.0
G0 X263.0215 Y64.5098
G0 Z1.275
G1 F300.0 Z-0.125
G2 F200.0 X263.0248 Y64.478 I-0.1147 J-0.0279
G2 X262.9867 Y64.3901 I-0.1146 J-0.0025
G2 X262.8607 Y64.355 I-0.1111 J0.1549
G1 X261.5248
G1 Y62.7173
G3 X261.6947 Y62.3598 I0.4494 J-0.0055
G3 X261.9344 Y62.2449 I0.3693 J0.4629
G3 X262.1986 Y62.2163 I0.2514 J1.086
G3 X262.7377 Y62.2895 I-0.0271 J2.2199
G3 X263.1889 Y62.4595 I-0.4428 J1.8595
G2 X263.2855 Y62.4975 I0.1197 J-0.1621
G2 X263.3676 Y62.4595 I-0.0006 J-0.1086
G2 X263.4027 Y62.3745 I-0.0806 J-0.0831
G2 X263.3646 Y62.2925 I-0.1154 J0.0037
G2 X263.2607 Y62.2198 I-0.3027 J0.3221
G2 X262.9076 Y62.0815 I-0.9809 J1.9854
G2 X262.2162 Y61.9702 I-0.7144 J2.234
G2 X261.8563 Y62.0132 I-0.015 J1.4019
G2 X261.5307 Y62.1723 I0.2173 J0.8574
G2 X261.2758 Y62.7173 I0.4041 J0.5211
G1 Y64.355
G1 X260.8217
G2 X260.6957 Y64.3901 I-0.0149 J0.1901
G2 X260.6576 Y64.4809 I0.0799 J0.0869
G2 X260.6957 Y64.5688 I0.1146 J0.0025
G2 X260.8217 Y64.604 I0.1111 J-0.1549
G1 X261.2758
G1 Y65.3305
G2 X261.3109 Y65.4565 I0.1901 J0.0149
G2 X261.3988 Y65.4946 I0.0854 J-0.0765
G2 X261.4896 Y65.4565 I0.0039 J-0.118
G2 X261.5248 Y65.3305 I-0.1549 J-0.1111
G1 Y64.604
G1 X262.8607
G2 X262.9867 Y64.5688 I0.0149 J-0.1901
G2 X263.0215 Y64.5098 I-0.0799 J-0.0869
G0 Z3.0
G0 X259.4922 Y64.4557
G0 Z1.275
G1 F300.0 Z-0.125
G2 F200.0 X259.4916 Y64.437 I-0.197 J-0.003
G1 Y64.0151
G2 X259.4564 Y63.8891 I-0.1901 J-0.0149
G2 X259.3656 Y63.8511 I-0.0869 J0.0799
G2 X259.2807 Y63.8833 I-0.0026 J0.1213
G2 X259.2426 Y63.9888 I0.1318 J0.1072
G3 X259.0609 Y64.2788 I-0.3912 J-0.0431
G3 X258.7553 Y64.4083 I-0.4969 J-0.7468
G3 X258.4252 Y64.4429 I-0.3167 J-1.4332
G3 X258.0914 Y64.4092 I-0.0153 J-1.5194
G3 X257.7836 Y64.2759 I0.1685 J-0.811
G3 X257.6629 Y64.1563 I0.2892 J-0.4128
G3 X257.6107 Y63.9946 I0.2304 J-0.1635
G3 X257.6724 Y63.8195 I0.2774 J-0.0008
G3 X257.8158 Y63.7016 I0.3756 J0.311
G3 X258.0772 Y63.6165 I0.4168 J0.836
G3 X258.349 Y63.5757 I0.6139 J3.1593
G2 X258.7079 Y63.529 I-0.7936 J-7.5012
G2 X259.0609 Y63.4497 I-0.3114 J-2.2125
G2 X259.2923 Y63.338 I-0.3814 J-1.0857
G2 X259.4828 Y63.1655 I-0.3896 J-0.6216
G2 X259.6234 Y62.7729 I-0.4886 J-0.3965
G2 X259.5377 Y62.458 I-0.6183 J-0.0009
G2 X259.3217 Y62.2134 I-0.7798 J0.471
G2 X258.8995 Y62.0182 I-0.6407 J0.8318
G2 X258.4369 Y61.9702 I-0.4399 J1.9861
G2 X257.9339 Y62.036 I-0.0183 J1.8149
G2 X257.4818 Y62.2661 I0.35 J1.2469
G2 X257.4701 Y62.1372 I-0.4972 J-0.0198
G2 X257.4262 Y62.0874 I-0.0983 J0.0424
G2 X257.3588 Y62.0669 I-0.0655 J0.0941
G2 X257.2709 Y62.105 I-0.0025 J0.1146
G2 X257.2357 Y62.2309 I0.1549 J0.1111
G1 Y62.7378
G2 X257.268 Y62.8638 I0.2034 J0.0151
G2 X257.3588 Y62.9018 I0.0869 J-0.0799
G2 X257.4467 Y62.8638 I0.0025 J-0.1146
G2 X257.4848 Y62.7671 I-0.0874 J-0.0903
G3 X257.5521 Y62.5415 I0.3695 J-0.0125
G3 X257.699 Y62.4025 I0.4794 J0.3595
G3 X257.8773 Y62.3071 I0.561 J0.8341
G3 X258.1484 Y62.2357 I0.4413 J1.1257
G3 X258.4281 Y62.2163 I0.2705 J1.8681
G3 X258.7994 Y62.2501 I0.0192 J1.8463
G3 X259.143 Y62.395 I-0.1506 J0.8366
G3 X259.3041 Y62.5567 I-0.4439 J0.6037
G3 X259.3773 Y62.7729 I-0.3013 J0.2225
G3 X259.3106 Y62.9897 I-0.3699 J0.0048
G3 X259.14 Y63.1391 I-0.424 J-0.312
G3 X258.7989 Y63.2656 I-0.6181 J-1.1437
G3 X258.4398 Y63.3237 I-0.6263 J-2.7326
G2 X258.1083 Y63.3671 I0.5251 J5.3017
G2 X257.7836 Y63.4468 I0.2694 J1.7996
G2 X257.473 Y63.6753 I0.2251 J0.6312
G2 X257.3617 Y64.0034 I0.4344 J0.3303
G2 X257.4463 Y64.2977 I0.5257 J0.0083
G2 X257.6723 Y64.5044 I0.5593 J-0.3847
G2 X258.0299 Y64.6492 I0.643 J-1.0738
G2 X258.4135 Y64.6919 I0.3725 J-1.6036
G2 X258.849 Y64.6373 I0.0165 J-1.6334
G2 X259.2426 Y64.4429 I-0.289 J-1.0805
G2 X259.2777 Y64.5659 I0.1839 J0.014
G2 X259.3656 Y64.604 I0.0854 J-0.0765
G2 X259.4564 Y64.5659 I0.0039 J-0.118
G2 X259.4922 Y64.4557 I-0.1613 J-0.1132
G0 Z3.0
G0 X267.3281 Y58.5778
G0 Z1.275
G1 F300.0 Z-0.125
G2 F200.0 X267.7118 Y58.897 I0.8631 J-0.6474
G2 X268.2684 Y59.0346 I0.5636 J-1.0844
G2 X269.0594 Y58.7153 I0.0161 J-1.0995
G2 X269.3013 Y58.3884 I-0.7801 J-0.8302
G2 X269.3905 Y57.9917 I-0.821 J-0.3929
G2 X269.3348 Y57.6782 I-0.861 J-0.0088
G2 X269.1444 Y57.3677 I-1.1838 J0.5123
G2 X268.9121 Y57.1081 I-3.0697 J2.5131
G2 X268.6668 Y56.8608 I-8.9172 J8.5999
G2 X267.9707 Y56.1867 I-33.584 J33.9824
G2 X267.2547 Y55.5337 I-15.4914 J16.2665
G1 Y55.5161
G1 X269.1444
G1 Y55.6128
G2 X269.1795 Y55.7388 I0.1901 J0.0149
G2 X269.2703 Y55.7768 I0.0869 J-0.0799
G2 X269.3582 Y55.7388 I0.0025 J-0.1146
G2 X269.3934 Y55.6128 I-0.1549 J-0.1111
G1 Y55.27
G1 X267.0145
G1 Y55.6333
G3 X268.4735 Y57.0044 I-29.6607 J33.0238
G3 X268.9276 Y57.4819 I-4.9443 J5.1563
G3 X269.0946 Y57.7485 I-0.8196 J0.699
G3 X269.1414 Y57.9829 I-0.5806 J0.238
G3 X268.8866 Y58.5425 I-0.7541 J-0.0057
G3 X268.2713 Y58.7856 I-0.5991 J-0.6159
G3 X267.7 Y58.6011 I-0.0136 J-0.9343
G3 X267.3778 Y58.144 I0.4772 J-0.6786
G2 X267.3338 Y58.0532 I-0.1797 J0.0309
G2 X267.2518 Y58.0239 I-0.0802 J0.0949
G2 X267.1668 Y58.0561 I-0.0026 J0.1213
G2 X267.1346 Y58.1382 I0.0854 J0.0809
G2 X267.1873 Y58.338 I0.5172 J-0.0295
G2 X267.2869 Y58.519 I1.3451 J-0.6226
G2 X267.3281 Y58.5778 I0.9042 J-0.5886
G0 Z3.0
G0 X270.8294 Y57.9145
G0 Z1.275
G1 F300.0 Z-0.125
G2 F200.0 X270.865 Y58.0742 I2.505 J-0.4746
G2 X271.1629 Y58.6714 I1.5371 J-0.3939
G2 X271.4933 Y58.9417 I0.7811 J-0.6175
G2 X271.91 Y59.0346 I0.4054 J-0.8371
G2 X272.3202 Y58.9468 I0.0073 J-0.9671
G2 X272.6453 Y58.7065 I-0.3726 J-0.8446
G2 X272.8328 Y58.393 I-1.1028 J-0.8724
G2 X272.9793 Y58.0034 I-2.188 J-1.0449
G2 X273.0438 Y57.4116 I-2.3631 J-0.5568
G1 Y56.8022
G2 X272.9636 Y56.1411 I-2.5345 J-0.0281
G2 X272.6659 Y55.5454 I-1.5367 J0.3958
G2 X272.3355 Y55.275 I-0.7811 J0.6175
G2 X271.9188 Y55.1821 I-0.4054 J0.8371
G2 X271.5086 Y55.27 I-0.0046 J0.9797
G2 X271.1834 Y55.5102 I0.3726 J0.8446
G2 X270.9959 Y55.8208 I1.1664 J0.9161
G2 X270.8524 Y56.2134 I1.9724 J0.9438
G2 X270.785 Y56.8022 I2.2442 J0.5551
G1 Y57.4116
G2 X270.8294 Y57.9145 I2.5494 J0.0283
G0 Z3.0
G0 X271.0797 Y57.862
G0 Z1.275
G1 F300.0 Z-0.125
G3 F200.0 X271.0311 Y57.3794 I2.241 J-0.4696
G1 Y56.8374
G3 X271.1278 Y56.187 I2.1227 J-0.0169
G3 X271.3534 Y55.7065 I1.7932 J0.5488
G3 X271.5409 Y55.5337 I0.5207 J0.3767
G3 X271.9188 Y55.4282 I0.3677 J0.5876
G3 X272.3024 Y55.5454 I0.0103 J0.6523
G3 X272.5633 Y55.8501 I-0.533 J0.7206
G3 X272.7436 Y56.3287 I-1.594 J0.8737
G3 X272.7977 Y56.8374 I-2.2444 J0.4958
G1 Y57.3794
G3 X272.6981 Y58.0268 I-2.0384 J0.0178
G3 X272.4784 Y58.5073 I-1.8054 J-0.5352
G3 X272.2879 Y58.6831 I-0.5348 J-0.3883
G3 X271.9129 Y58.7856 I-0.3656 J-0.6
G3 X271.5278 Y58.6689 I-0.0108 J-0.6582
G3 X271.2655 Y58.3638 I0.5279 J-0.7192
G3 X271.085 Y57.8866 I1.5726 J-0.8675
G3 X271.0797 Y57.862 I2.2358 J-0.4942
G0 Z3.0
G0 X274.3878 Y58.4862
G0 Z1.275
G1 F300.0 Z-0.125
G2 F200.0 X274.3856 Y58.5102 I0.1236 J0.0233
G2 X274.4149 Y58.5923 I0.1321 J-0.0009
G2 X274.5116 Y58.6421 I0.1869 J-0.2441
G1 X275.6366 Y58.9966
G1 Y55.5161
G1 X276.4803
G2 X276.6063 Y55.4809 I0.0149 J-0.1901
G2 X276.6444 Y55.393 I-0.0711 J-0.083
G2 X276.6063 Y55.3052 I-0.1146 J-0.0025
G2 X276.4803 Y55.27 I-0.1111 J0.1549
G1 X274.5467
G2 X274.4207 Y55.3052 I-0.0149 J0.1901
G2 X274.3827 Y55.393 I0.0765 J0.0854
G2 X274.4207 Y55.4809 I0.1092 J0.0049
G2 X274.5467 Y55.5161 I0.1111 J-0.1549
G1 X275.3905
G1 Y58.6567
G1 X274.5877 Y58.4048
G2 X274.5028 Y58.3872 I-0.1163 J0.3482
G2 X274.4207 Y58.4223 I0.0027 J0.1196
G2 X274.3878 Y58.4862 I0.0906 J0.0872
G0 Z3.0
G0 X278.1726 Y57.5881
G0 Z1.275
G1 F300.0 Z-0.125
G2 F200.0 X278.3026 Y57.9653 I1.9701 J-0.4675
G2 X278.6776 Y58.5044 I1.6445 J-0.744
G2 X279.2225 Y58.8852 I1.3587 J-1.3637
G2 X279.8993 Y59.0346 I0.6648 J-1.4036
G2 X280.3094 Y58.935 I0.0267 J-0.7842
G2 X280.3797 Y58.8179 I-0.0632 J-0.1176
G2 X280.3475 Y58.73 I-0.1253 J-0.0039
G2 X280.2655 Y58.6977 I-0.0784 J0.079
G2 X280.1746 Y58.727 I0.0143 J0.1998
G3 X279.8758 Y58.7856 I-0.2782 J-0.6277
G3 X279.3024 Y58.6495 I-0.0017 J-1.2682
G3 X278.8328 Y58.2934 I0.7912 J-1.5312
G3 X278.3641 Y57.1274 I1.1583 J-1.1429
G3 X278.3817 Y56.8257 I4.1909 J0.0927
G2 X278.5927 Y57.0966 I2.011 J-1.3488
G2 X278.8504 Y57.3237 I1.0728 J-0.9576
G2 X279.3895 Y57.4848 I0.5309 J-0.7939
G2 X279.7737 Y57.3963 I0.0041 J-0.8597
G2 X280.0868 Y57.1567 I-0.4903 J-0.9651
G2 X280.3914 Y56.3511 I-0.8292 J-0.774
G2 X280.1131 Y55.5454 I-1.3019 J-0.0011
G2 X279.7741 Y55.2692 I-0.72 J0.5377
G2 X279.3455 Y55.1821 I-0.4117 J0.9281
G2 X278.7479 Y55.3784 I0.0033 J1.0181
G2 X278.487 Y55.6485 I0.6331 J0.8727
G2 X278.3143 Y55.9819 I1.3475 J0.9093
G2 X278.118 Y57.104 I2.8929 J1.0843
G2 X278.1726 Y57.5881 I2.0247 J0.0166
G0 Z3.0
G0 X278.8081 Y56.9707
G0 Z1.275
G1 F300.0 Z-0.125
G3 F200.0 X278.6134 Y56.7218 I1.0583 J-1.0283
G3 X278.4373 Y56.4184 I3.3057 J-2.1216
G3 X278.5577 Y56.0129 I2.2557 J0.4491
G3 X278.786 Y55.6567 I0.9794 J0.3764
G3 X279.3514 Y55.4282 I0.5572 J0.565
G3 X279.911 Y55.6831 I0.0058 J0.729
G3 X280.0921 Y55.9946 I-0.6355 J0.5779
G3 X280.1453 Y56.3511 I-1.0791 J0.3434
G3 X280.0904 Y56.6919 I-1.015 J0.0111
G3 X279.911 Y56.9868 I-0.7943 J-0.2811
G3 X279.673 Y57.17 I-0.6241 J-0.5644
G3 X279.3807 Y57.2388 I-0.29 J-0.5773
G3 X279.0835 Y57.1696 I0.0031 J-0.6869
G3 X278.8328 Y56.9956 I0.4487 J-0.9137
G3 X278.8081 Y56.9707 I1.0336 J-1.0532
G0 Z3.0
G0 X281.5868
G0 Z1.275
G1 F300.0 Z-0.125
G1 F200.0 Y57.4116
G2 X281.6668 Y58.0742 I2.5494 J0.0283
G2 X281.9647 Y58.6714 I1.5371 J-0.3939
G2 X282.2951 Y58.9417 I0.7811 J-0.6175
G2 X282.7118 Y59.0346 I0.4054 J-0.8371
G2 X283.1219 Y58.9468 I0.0073 J-0.9671
G2 X283.4471 Y58.7065 I-0.3726 J-0.8446
G2 X283.6346 Y58.393 I-1.1028 J-0.8724
G2 X283.7811 Y58.0034 I-2.188 J-1.0449
G2 X283.8455 Y57.4116 I-2.3631 J-0.5568
G1 Y56.8022
G2 X283.7654 Y56.1411 I-2.5345 J-0.0281
G2 X283.4676 Y55.5454 I-1.5367 J0.3958
G2 X283.1372 Y55.275 I-0.7811 J0.6175
G2 X282.7205 Y55.1821 I-0.4054 J0.8371
G2 X282.3104 Y55.27 I-0.0046 J0.9797
G2 X281.9852 Y55.5102 I0.3726 J0.8446
G2 X281.7977 Y55.8208 I1.1664 J0.9161
G2 X281.6541 Y56.2134 I1.9724 J0.9438
G2 X281.5868 Y56.8022 I2.2442 J0.5551
G1 Y56.9707
G0 Z3.0
G0 X281.8328
G0 Z1.275
G1 F300.0 Z-0.125
G1 F200.0 Y56.8374
G3 X281.9295 Y56.187 I2.1227 J-0.0169
G3 X282.1551 Y55.7065 I1.7932 J0.5488
G3 X282.3426 Y55.5337 I0.5207 J0.3767
G3 X282.7205 Y55.4282 I0.3677 J0.5876
G3 X283.1041 Y55.5454 I0.0103 J0.6523
G3 X283.3651 Y55.8501 I-0.533 J0.7206
G3 X283.5454 Y56.3287 I-1.594 J0.8737
G3 X283.5994 Y56.8374 I-2.2444 J0.4958
G1 Y57.3794
G3 X283.4998 Y58.0268 I-2.0384 J0.0178
G3 X283.2801 Y58.5073 I-1.8054 J-0.5352
G3 X283.0897 Y58.6831 I-0.5348 J-0.3883
G3 X282.7147 Y58.7856 I-0.3656 J-0.6
G3 X282.3296 Y58.6689 I-0.0108 J-0.6582
G3 X282.0672 Y58.3638 I0.5279 J-0.7192
G3 X281.8868 Y57.8866 I1.5726 J-0.8675
G3 X281.8328 Y57.3794 I2.2358 J-0.4942
G1 Y56.9707
G0 Z3.0
G0 X285.0174 Y55.6333
G0 Z1.275
G1 F300.0 Z-0.125
G3 F200.0 X286.4764 Y57.0044 I-29.6607 J33.0238
G3 X286.9305 Y57.4819 I-4.9443 J5.1563
G3 X287.0975 Y57.7485 I-0.8196 J0.699
G3 X287.1444 Y57.9829 I-0.5806 J0.238
G3 X286.8895 Y58.5425 I-0.7541 J-0.0057
G3 X286.2743 Y58.7856 I-0.5991 J-0.6159
G3 X285.703 Y58.6011 I-0.0136 J-0.9343
G3 X285.3807 Y58.144 I0.4772 J-0.6786
G2 X285.3368 Y58.0532 I-0.1797 J0.0309
G2 X285.2547 Y58.0239 I-0.0802 J0.0949
G2 X285.1698 Y58.0561 I-0.0026 J0.1213
G2 X285.1375 Y58.1382 I0.0854 J0.0809
G2 X285.1902 Y58.338 I0.5172 J-0.0295
G2 X285.2899 Y58.519 I1.3451 J-0.6226
G2 X285.7147 Y58.897 I0.9042 J-0.5886
G2 X286.2713 Y59.0346 I0.5636 J-1.0844
G2 X287.0623 Y58.7153 I0.0161 J-1.0995
G2 X287.3042 Y58.3884 I-0.7801 J-0.8302
G2 X287.3934 Y57.9917 I-0.821 J-0.3929
G2 X287.3377 Y57.6782 I-0.861 J-0.0088
G2 X287.1473 Y57.3677 I-1.1838 J0.5123
G2 X286.915 Y57.1081 I-3.0697 J2.5131
G2 X286.6698 Y56.8608 I-8.9172 J8.5999
G2 X285.9736 Y56.1867 I-33.584 J33.9824
G2 X285.2577 Y55.5337 I-15.4914 J16.2665
G1 Y55.5161
G1 X287.1473
G1 Y55.6128
G2 X287.1825 Y55.7388 I0.1901 J0.0149
G2 X287.2733 Y55.7768 I0.0869 J-0.0799
G2 X287.3612 Y55.7388 I0.0025 J-0.1146
G2 X287.3963 Y55.6128 I-0.1549 J-0.1111
G1 Y55.27
G1 X285.0174
G1 Y55.6333
G0 Z3.0
G0 X288.7851 Y55.4046
G0 Z1.275
G1 F300.0 Z-0.125
G2 F200.0 X288.8231 Y55.4809 I0.1091 J-0.0066
G2 X288.9491 Y55.5161 I0.1111 J-0.1549
G1 X289.7928
G1 Y58.6567
G1 X288.9901 Y58.4048
G2 X288.9051 Y58.3872 I-0.1163 J0.3482
G2 X288.8231 Y58.4223 I0.0027 J0.1196
G2 X288.7879 Y58.5102 I0.0906 J0.0872
G2 X288.8172 Y58.5923 I0.1321 J-0.0009
G2 X288.9139 Y58.6421 I0.1869 J-0.2441
G1 X290.0389 Y58.9966
G1 Y55.5161
G1 X290.8827
G2 X291.0086 Y55.4809 I0.0149 J-0.1901
G2 X291.0467 Y55.393 I-0.0711 J-0.083
G2 X291.0086 Y55.3052 I-0.1146 J-0.0025
G2 X290.8827 Y55.27 I-0.1111 J0.1549
G1 X288.9491
G2 X288.8231 Y55.3052 I-0.0149 J0.1901
G2 X288.785 Y55.393 I0.0765 J0.0854
G2 X288.7851 Y55.4046 I0.1092 J0.0049
G0 Z3.0
G0 X292.2918 Y55.768
G0 Z1.275
G1 F300.0 Z-0.125
G2 F200.0 X292.327 Y55.8559 I0.1193 J0.0033
G2 X292.409 Y55.894 I0.0826 J-0.0705
G2 X292.5145 Y55.8413 I-0.0156 J-0.1631
G3 X292.956 Y55.5405 I1.1247 J1.1766
G3 X293.4784 Y55.4282 I0.5206 J1.1504
G3 X293.8655 Y55.4989 I0.0122 J1.0283
G3 X294.1903 Y55.7212 I-0.35 J0.8599
G3 X294.4083 Y56.086 I-0.7034 J0.6681
G3 X294.4715 Y56.5063 I-1.2578 J0.404
G3 X294.4166 Y56.8646 I-1.1062 J0.0139
G3 X294.2284 Y57.1743 I-0.7808 J-0.2626
G3 X293.6102 Y57.4292 I-0.5936 J-0.5627
G3 X292.8426 Y57.227 I0.0208 J-1.6375
G2 X292.7108 Y57.1802 I-0.2006 J0.3553
G2 X292.6258 Y57.2153 I-0.0043 J0.1099
G2 X292.5936 Y57.3149 I0.1116 J0.0911
G1 Y58.9468
G1 X294.3104
G2 X294.4364 Y58.9116 I0.0149 J-0.1901
G2 X294.4744 Y58.8208 I-0.0799 J-0.0869
G2 X294.4364 Y58.7329 I-0.1146 J-0.0025
G2 X294.3104 Y58.6977 I-0.1111 J0.1549
G1 X292.8397
G1 Y57.4936
G2 X293.2557 Y57.6284 I0.9596 J-2.2526
G2 X293.6336 Y57.6753 I0.3914 J-1.6089
G2 X294.0551 Y57.5954 I0.0121 J-1.0878
G2 X294.4071 Y57.3501 I-0.4023 J-0.9525
G2 X294.6493 Y56.9537 I-0.7664 J-0.7405
G2 X294.7205 Y56.4946 I-1.3313 J-0.4417
G2 X294.64 Y55.9847 I-1.5354 J-0.0188
G2 X294.369 Y55.5454 I-1.126 J0.3914
G2 X293.4901 Y55.1821 I-0.8491 J0.8093
G2 X292.8192 Y55.3374 I0.0002 J1.5278
G2 X292.4032 Y55.6069 I0.7912 J1.677
G2 X292.3331 Y55.6776 I0.3743 J0.441
G2 X292.2918 Y55.768 I0.1164 J0.1078
G0 Z3.0
M5
M30
