( Made using CamBam - http://www.cambam.co.uk )
( midipedal_rez 2/15/2016 7:20:25 PM )
( T0 : 3.0 )
G21 G90 G64 G40
G0 Z3.0
( T0 : 3.0 )
T0 M6
( Profile1 )
G17
M3 S1000
G0 X361.0 Y114.36
G1 F300.0 Z1.2
G1 F800.0 X353.46
G1 X326.0
G1 X324.5 Z3.0
G1 X321.5
G1 X320.0 Z1.2
G1 X223.0
G1 X221.5 Z3.0
G1 X218.5
G1 X217.0 Z1.2
G1 X125.26
G3 X120.76 Y109.86 I0.0 J-4.5
G1 Y99.0
G1 Y97.5 Z3.0
G1 Y94.5
G1 Y93.0 Z1.2
G1 Y83.0
G3 X125.26 Y78.5 I4.5 J0.0
G1 X167.5975
G1 X168.0 Z1.683
G1 X169.0975 Z3.0
G1 X169.5
G1 X172.0975
G1 X172.5
G1 X173.5975 Z1.683
G1 X174.0 Z1.2
G1 X297.0
G1 X298.5 Z3.0
G1 X301.5
G1 X303.0 Z1.2
G1 X361.0
G3 X365.5 Y83.0 I0.0 J4.5
G1 Y95.0
G1 Y96.5 Z3.0
G1 Y99.5
G1 Y101.0 Z1.2
G1 Y109.86
G3 X361.0 Y114.36 I-4.5 J0.0
G1 F300.0 Y115.5
G3 F800.0 X365.5 Y120.0 I0.0 J4.5
G1 Y130.0
G1 Y131.5 Z3.0
G1 Y134.5
G1 Y136.0 Z1.2
G1 Y144.32
G3 X361.0 Y148.82 I-4.5 J0.0
G1 X356.0
G1 X325.0
G1 X323.5 Z3.0
G1 X320.5
G1 X319.0 Z1.2
G1 X222.0
G1 X220.5 Z3.0
G1 X217.5
G1 X216.0 Z1.2
G1 X193.88
G3 X189.38 Y144.32 I0.0 J-4.5
G1 Y136.0
G1 Y134.5 Z3.0
G1 Y131.5
G1 Y130.0 Z1.2
G1 Y120.0
G3 X193.88 Y115.5 I4.5 J0.0
G1 X198.88
G1 X217.0
G1 X218.5 Z3.0
G1 X221.5
G1 X223.0 Z1.2
G1 X320.0
G1 X321.5 Z3.0
G1 X324.5
G1 X326.0 Z1.2
G1 X361.0
G1 F300.0 Z0.0
G3 F800.0 X365.5 Y120.0 I0.0 J4.5
G1 Y130.0
G1 Y131.5 Z3.0
G1 Y134.5
G1 Y136.0 Z0.0
G1 Y144.32
G3 X361.0 Y148.82 I-4.5 J0.0
G1 X356.0
G1 X325.0
G1 X323.5 Z3.0
G1 X320.5
G1 X319.0 Z0.0
G1 X222.0
G1 X220.5 Z3.0
G1 X217.5
G1 X216.0 Z0.0
G1 X193.88
G3 X189.38 Y144.32 I0.0 J-4.5
G1 Y136.0
G1 Y134.5 Z3.0
G1 Y131.5
G1 Y130.0 Z0.0
G1 Y120.0
G3 X193.88 Y115.5 I4.5 J0.0
G1 X198.88
G1 X217.0
G1 X218.5 Z3.0
G1 X221.5
G1 X223.0 Z0.0
G1 X320.0
G1 X321.5 Z3.0
G1 X324.5
G1 X326.0 Z0.0
G1 X361.0
G0 Z3.0
G0 X360.9973 Y77.77
G1 F300.0 Z1.2
G3 F800.0 X360.997 I-0.0003 J-4.5
G1 X303.0
G1 X301.5 Z3.0
G1 X298.5
G1 X297.0 Z1.2
G1 X246.7959
G3 X242.2959 Y73.27 I0.0 J-4.5
G1 Y61.0
G1 Y59.5 Z3.0
G1 Y56.5
G1 Y55.0 Z1.2
G1 Y24.0
G1 Y22.5 Z3.0
G1 Y19.5
G1 Y18.0 Z1.2
G1 Y3.0
G3 X246.7959 Y-1.5 I4.5 J0.0
G1 X265.7621
G1 X267.2621 Z3.0
G1 X270.2621
G1 X271.7621 Z1.2
G1 X330.3946
G1 X331.8946 Z3.0
G1 X334.8946
G1 X336.3946 Z1.2
G1 X360.9999
G3 X365.4999 Y3.0002 I0.0 J4.5
G1 X365.4984 Y38.0
G1 Y39.5 Z3.0
G1 X365.4982 Y42.5
G1 Y44.0 Z1.2
G1 X365.497 Y73.2702
G3 X360.9973 Y77.77 I-4.5 J-0.0002
G0 Z3.0
G0 X241.4972 Y73.5585
G1 F300.0 Z1.2
G3 F800.0 X237.0 Y77.9 I-4.4972 J-0.1585
G1 X229.46
G1 X174.0
G1 X173.5975 Z1.683
G1 X172.5 Z3.0
G1 X172.0975
G1 X169.5
G1 X169.0975
G1 X168.0 Z1.683
G1 X167.5975 Z1.2
G1 X104.0
G1 X102.5 Z3.0
G1 X99.5
G1 X98.0 Z1.2
G1 X62.72
G3 X58.22 Y73.4 I0.0 J-4.5
G1 Y61.0
G1 Y59.5 Z3.0
G1 Y56.5
G1 Y55.0 Z1.2
G1 Y44.0
G3 X62.72 Y39.5 I4.5 J0.0
G1 X96.5035
G1 X97.0 Z1.7958
G1 X98.0035 Z3.0
G1 X98.5
G1 X101.0035
G1 X101.5
G1 X102.5035 Z1.7958
G1 X103.0 Z1.2
G1 X166.0
G1 X166.2724 Z1.5269
G1 X167.5 Z3.0
G1 X167.7724
G1 X170.5
G1 X170.7724
G1 X172.0 Z1.5269
G1 X172.2724 Z1.2
G1 X237.0
G3 X241.5 Y44.0 I0.0 J4.5
G1 Y55.0
G1 Y56.5 Z3.0
G1 Y59.5
G1 Y61.0 Z1.2
G1 Y73.4
G3 X241.4972 Y73.5585 I-4.5 J0.0
G0 Z3.0
G0 Y78.5
G0 Z2.2
G1 F300.0 Z0.0
G1 F800.0 X297.0
G1 X298.5 Z3.0
G1 X301.5
G1 X303.0 Z0.0
G1 X361.0
G3 X365.5 Y83.0 I0.0 J4.5
G1 Y95.0
G1 Y96.5 Z3.0
G1 Y99.5
G1 Y101.0 Z0.0
G1 Y109.86
G3 X361.0 Y114.36 I-4.5 J0.0
G1 X353.46
G1 X326.0
G1 X324.5 Z3.0
G1 X321.5
G1 X320.0 Z0.0
G1 X223.0
G1 X221.5 Z3.0
G1 X218.5
G1 X217.0 Z0.0
G1 X125.26
G3 X120.76 Y109.86 I0.0 J-4.5
G1 Y99.0
G1 Y97.5 Z3.0
G1 Y94.5
G1 Y93.0 Z0.0
G1 Y83.0
G3 X125.26 Y78.5 I4.5 J0.0
G1 X167.5975
G1 X168.0 Z0.8051
G1 X169.0975 Z3.0
G1 X169.5
G1 X172.0975
G1 X172.5
G1 X173.5975 Z0.8051
G1 X174.0 Z0.0
G1 X241.4972
G0 Z3.0
G0 X237.5303 Y39.417
G1 F300.0 Z1.2
G3 F800.0 X237.0759 Y39.44 I-0.4544 J-4.477
G1 X232.0759
G1 X172.2724
G1 X172.0 Z1.5269
G1 X170.7724 Z3.0
G1 X170.5
G1 X167.7724
G1 X167.5
G1 X166.2724 Z1.5269
G1 X166.0 Z1.2
G1 X103.0
G1 X102.5035 Z1.7958
G1 X101.5 Z3.0
G1 X101.0035
G1 X98.5
G1 X98.0035
G1 X97.0 Z1.7958
G1 X96.5035 Z1.2
G1 X3.2959
G3 X-1.2041 Y34.94 I0.0 J-4.5
G1 Y22.0
G1 Y20.5 Z3.0
G1 Y17.5
G1 Y16.0 Z1.2
G1 Y3.0
G3 X3.2959 Y-1.5 I4.5 J0.0
G1 X50.0
G1 X51.5 Z3.0
G1 X54.5
G1 X56.0 Z1.2
G1 X194.0
G1 X195.5 Z3.0
G1 X198.5
G1 X200.0 Z1.2
G1 X237.0759
G3 X241.5759 Y3.0 I0.0 J4.5
G1 Y18.0
G1 Y19.5 Z3.0
G1 Y22.5
G1 Y24.0 Z1.2
G1 Y34.94
G3 X237.5303 Y39.417 I-4.5 J0.0
G1 F300.0 Z0.0
G3 F800.0 X237.0759 Y39.44 I-0.4544 J-4.477
G1 X232.0759
G1 X172.2724
G1 X172.0 Z0.5448
G1 X170.7724 Z3.0
G1 X170.5
G1 X167.7724
G1 X167.5
G1 X166.2724 Z0.5448
G1 X166.0 Z0.0
G1 X103.0
G1 X102.5035 Z0.9931
G1 X101.5 Z3.0
G1 X101.0035
G1 X98.5
G1 X98.0035
G1 X97.0 Z0.9931
G1 X96.5035 Z0.0
G1 X3.2959
G3 X-1.2041 Y34.94 I0.0 J-4.5
G1 Y22.0
G1 Y20.5 Z3.0
G1 Y17.5
G1 Y16.0 Z0.0
G1 Y3.0
G3 X3.2959 Y-1.5 I4.5 J0.0
G1 X50.0
G1 X51.5 Z3.0
G1 X54.5
G1 X56.0 Z0.0
G1 X194.0
G1 X195.5 Z3.0
G1 X198.5
G1 X200.0 Z0.0
G1 X237.0759
G3 X241.5759 Y3.0 I0.0 J4.5
G1 Y18.0
G1 Y19.5 Z3.0
G1 Y22.5
G1 Y24.0 Z0.0
G1 Y34.94
G3 X237.5303 Y39.417 I-4.5 J0.0
G1 F300.0 X237.5172 Y39.5298
G3 F800.0 X241.5 Y44.0 I-0.5172 J4.4702
G1 Y55.0
G1 Y56.5 Z3.0
G1 Y59.5
G1 Y61.0 Z0.0
G1 Y73.4
G3 X237.0 Y77.9 I-4.5 J0.0
G1 X229.46
G1 X174.0
G1 X173.5975 Z0.8051
G1 X172.5 Z3.0
G1 X172.0975
G1 X169.5
G1 X169.0975
G1 X168.0 Z0.8051
G1 X167.5975 Z0.0
G1 X104.0
G1 X102.5 Z3.0
G1 X99.5
G1 X98.0 Z0.0
G1 X62.72
G3 X58.22 Y73.4 I0.0 J-4.5
G1 Y61.0
G1 Y59.5 Z3.0
G1 Y56.5
G1 Y55.0 Z0.0
G1 Y44.0
G3 X62.72 Y39.5 I4.5 J0.0
G1 X96.5035
G1 X97.0 Z0.9931
G1 X98.0035 Z3.0
G1 X98.5
G1 X101.0035
G1 X101.5
G1 X102.5035 Z0.9931
G1 X103.0 Z0.0
G1 X166.0
G1 X166.2724 Z0.5448
G1 X167.5 Z3.0
G1 X167.7724
G1 X170.5
G1 X170.7724
G1 X172.0 Z0.5448
G1 X172.2724 Z0.0
G1 X237.0
G3 X237.5172 Y39.5298 I0.0 J4.5
G0 Z3.0
G0 X242.2959
G0 Z2.2
G1 F300.0 Z0.0
G1 F800.0 Y24.0
G1 Y22.5 Z3.0
G1 Y19.5
G1 Y18.0 Z0.0
G1 Y3.0
G3 X246.7959 Y-1.5 I4.5 J0.0
G1 X265.7621
G1 X267.2621 Z3.0
G1 X270.2621
G1 X271.7621 Z0.0
G1 X330.3946
G1 X331.8946 Z3.0
G1 X334.8946
G1 X336.3946 Z0.0
G1 X360.9999
G3 X365.4999 Y3.0002 I0.0 J4.5
G1 X365.4984 Y38.0
G1 Y39.5 Z3.0
G1 X365.4982 Y42.5
G1 Y44.0 Z0.0
G1 X365.497 Y73.2702
G3 X360.997 Y77.77 I-4.5 J-0.0002
G1 X303.0
G1 X301.5 Z3.0
G1 X298.5
G1 X297.0 Z0.0
G1 X246.7959
G3 X242.2959 Y73.27 I0.0 J-4.5
G1 Y61.0
G1 Y59.5 Z3.0
G1 Y56.5
G1 Y55.0 Z0.0
G1 Y39.5298
G0 Z3.0
M5
M30
