( Made using CamBam - http://www.cambam.co.uk )
( midipedal_rez 2/15/2016 6:43:08 PM )
( T0 : 1.0 )
G21 G90 G64 G40
G0 Z3.0
( T0 : 1.0 )
T0 M6
( Drill1 )
G17
M3 S1000
G0 X335.9159 Y63.77
G0 Z3.0
G0 X335.9659 Y63.77
G1 F150.0 Z2.3
G2 X335.8909 Y63.7267 Z2.1667 I-0.05 J0.0
G2 Y63.8133 Z2.0333 I0.025 J0.0433
G2 X335.9659 Y63.77 Z1.9 I0.025 J-0.0433
G2 X335.8909 Y63.7267 Z1.7667 I-0.05 J0.0
G2 Y63.8133 Z1.6333 I0.025 J0.0433
G2 X335.9659 Y63.77 Z1.5 I0.025 J-0.0433
G2 X335.8909 Y63.7267 Z1.3667 I-0.05 J0.0
G2 Y63.8133 Z1.2333 I0.025 J0.0433
G2 X335.9659 Y63.77 Z1.1 I0.025 J-0.0433
G2 X335.8909 Y63.7267 Z0.9667 I-0.05 J0.0
G2 Y63.8133 Z0.8333 I0.025 J0.0433
G2 X335.9659 Y63.77 Z0.7 I0.025 J-0.0433
G2 X335.8909 Y63.7267 Z0.5667 I-0.05 J0.0
G2 Y63.8133 Z0.4333 I0.025 J0.0433
G2 X335.9659 Y63.77 Z0.3 I0.025 J-0.0433
G2 X335.8909 Y63.7267 Z0.1667 I-0.05 J0.0
G2 Y63.8133 Z0.0333 I0.025 J0.0433
G2 X335.9159 Y63.82 Z0.0 I0.025 J-0.0433
G2 X335.9592 Y63.745 I0.0 J-0.05
G2 X335.8726 I-0.0433 J0.025
G2 X335.9159 Y63.82 I0.0433 J0.025
G0 Z3.0
G0 X338.4659 Y61.27
G1 Z2.3
G2 X338.3909 Y61.2267 Z2.1667 I-0.05 J0.0
G2 Y61.3133 Z2.0333 I0.025 J0.0433
G2 X338.4659 Y61.27 Z1.9 I0.025 J-0.0433
G2 X338.3909 Y61.2267 Z1.7667 I-0.05 J0.0
G2 Y61.3133 Z1.6333 I0.025 J0.0433
G2 X338.4659 Y61.27 Z1.5 I0.025 J-0.0433
G2 X338.3909 Y61.2267 Z1.3667 I-0.05 J0.0
G2 Y61.3133 Z1.2333 I0.025 J0.0433
G2 X338.4659 Y61.27 Z1.1 I0.025 J-0.0433
G2 X338.3909 Y61.2267 Z0.9667 I-0.05 J0.0
G2 Y61.3133 Z0.8333 I0.025 J0.0433
G2 X338.4659 Y61.27 Z0.7 I0.025 J-0.0433
G2 X338.3909 Y61.2267 Z0.5667 I-0.05 J0.0
G2 Y61.3133 Z0.4333 I0.025 J0.0433
G2 X338.4659 Y61.27 Z0.3 I0.025 J-0.0433
G2 X338.3909 Y61.2267 Z0.1667 I-0.05 J0.0
G2 Y61.3133 Z0.0333 I0.025 J0.0433
G2 X338.4159 Y61.32 Z0.0 I0.025 J-0.0433
G2 X338.4592 Y61.245 I0.0 J-0.05
G2 X338.3726 I-0.0433 J0.025
G2 X338.4159 Y61.32 I0.0433 J0.025
G0 Z3.0
G0 X343.4659 Y63.77
G1 Z2.3
G2 X343.3909 Y63.7267 Z2.1667 I-0.05 J0.0
G2 Y63.8133 Z2.0333 I0.025 J0.0433
G2 X343.4659 Y63.77 Z1.9 I0.025 J-0.0433
G2 X343.3909 Y63.7267 Z1.7667 I-0.05 J0.0
G2 Y63.8133 Z1.6333 I0.025 J0.0433
G2 X343.4659 Y63.77 Z1.5 I0.025 J-0.0433
G2 X343.3909 Y63.7267 Z1.3667 I-0.05 J0.0
G2 Y63.8133 Z1.2333 I0.025 J0.0433
G2 X343.4659 Y63.77 Z1.1 I0.025 J-0.0433
G2 X343.3909 Y63.7267 Z0.9667 I-0.05 J0.0
G2 Y63.8133 Z0.8333 I0.025 J0.0433
G2 X343.4659 Y63.77 Z0.7 I0.025 J-0.0433
G2 X343.3909 Y63.7267 Z0.5667 I-0.05 J0.0
G2 Y63.8133 Z0.4333 I0.025 J0.0433
G2 X343.4659 Y63.77 Z0.3 I0.025 J-0.0433
G2 X343.3909 Y63.7267 Z0.1667 I-0.05 J0.0
G2 Y63.8133 Z0.0333 I0.025 J0.0433
G2 X343.4159 Y63.82 Z0.0 I0.025 J-0.0433
G2 X343.4592 Y63.745 I0.0 J-0.05
G2 X343.3726 I-0.0433 J0.025
G2 X343.4159 Y63.82 I0.0433 J0.025
G0 Z3.0
G0 X348.4659 Y61.27
G1 Z2.3
G2 X348.3909 Y61.2267 Z2.1667 I-0.05 J0.0
G2 Y61.3133 Z2.0333 I0.025 J0.0433
G2 X348.4659 Y61.27 Z1.9 I0.025 J-0.0433
G2 X348.3909 Y61.2267 Z1.7667 I-0.05 J0.0
G2 Y61.3133 Z1.6333 I0.025 J0.0433
G2 X348.4659 Y61.27 Z1.5 I0.025 J-0.0433
G2 X348.3909 Y61.2267 Z1.3667 I-0.05 J0.0
G2 Y61.3133 Z1.2333 I0.025 J0.0433
G2 X348.4659 Y61.27 Z1.1 I0.025 J-0.0433
G2 X348.3909 Y61.2267 Z0.9667 I-0.05 J0.0
G2 Y61.3133 Z0.8333 I0.025 J0.0433
G2 X348.4659 Y61.27 Z0.7 I0.025 J-0.0433
G2 X348.3909 Y61.2267 Z0.5667 I-0.05 J0.0
G2 Y61.3133 Z0.4333 I0.025 J0.0433
G2 X348.4659 Y61.27 Z0.3 I0.025 J-0.0433
G2 X348.3909 Y61.2267 Z0.1667 I-0.05 J0.0
G2 Y61.3133 Z0.0333 I0.025 J0.0433
G2 X348.4159 Y61.32 Z0.0 I0.025 J-0.0433
G2 X348.4592 Y61.245 I0.0 J-0.05
G2 X348.3726 I-0.0433 J0.025
G2 X348.4159 Y61.32 I0.0433 J0.025
G0 Z3.0
G0 X350.9659 Y63.77
G1 Z2.3
G2 X350.8909 Y63.7267 Z2.1667 I-0.05 J0.0
G2 Y63.8133 Z2.0333 I0.025 J0.0433
G2 X350.9659 Y63.77 Z1.9 I0.025 J-0.0433
G2 X350.8909 Y63.7267 Z1.7667 I-0.05 J0.0
G2 Y63.8133 Z1.6333 I0.025 J0.0433
G2 X350.9659 Y63.77 Z1.5 I0.025 J-0.0433
G2 X350.8909 Y63.7267 Z1.3667 I-0.05 J0.0
G2 Y63.8133 Z1.2333 I0.025 J0.0433
G2 X350.9659 Y63.77 Z1.1 I0.025 J-0.0433
G2 X350.8909 Y63.7267 Z0.9667 I-0.05 J0.0
G2 Y63.8133 Z0.8333 I0.025 J0.0433
G2 X350.9659 Y63.77 Z0.7 I0.025 J-0.0433
G2 X350.8909 Y63.7267 Z0.5667 I-0.05 J0.0
G2 Y63.8133 Z0.4333 I0.025 J0.0433
G2 X350.9659 Y63.77 Z0.3 I0.025 J-0.0433
G2 X350.8909 Y63.7267 Z0.1667 I-0.05 J0.0
G2 Y63.8133 Z0.0333 I0.025 J0.0433
G2 X350.9159 Y63.82 Z0.0 I0.025 J-0.0433
G2 X350.9592 Y63.745 I0.0 J-0.05
G2 X350.8726 I-0.0433 J0.025
G2 X350.9159 Y63.82 I0.0433 J0.025
G0 Z3.0
G0 X352.2459 Y58.08
G1 Z2.3
G2 X352.1709 Y58.0367 Z2.1667 I-0.05 J0.0
G2 Y58.1233 Z2.0333 I0.025 J0.0433
G2 X352.2459 Y58.08 Z1.9 I0.025 J-0.0433
G2 X352.1709 Y58.0367 Z1.7667 I-0.05 J0.0
G2 Y58.1233 Z1.6333 I0.025 J0.0433
G2 X352.2459 Y58.08 Z1.5 I0.025 J-0.0433
G2 X352.1709 Y58.0367 Z1.3667 I-0.05 J0.0
G2 Y58.1233 Z1.2333 I0.025 J0.0433
G2 X352.2459 Y58.08 Z1.1 I0.025 J-0.0433
G2 X352.1709 Y58.0367 Z0.9667 I-0.05 J0.0
G2 Y58.1233 Z0.8333 I0.025 J0.0433
G2 X352.2459 Y58.08 Z0.7 I0.025 J-0.0433
G2 X352.1709 Y58.0367 Z0.5667 I-0.05 J0.0
G2 Y58.1233 Z0.4333 I0.025 J0.0433
G2 X352.2459 Y58.08 Z0.3 I0.025 J-0.0433
G2 X352.1709 Y58.0367 Z0.1667 I-0.05 J0.0
G2 Y58.1233 Z0.0333 I0.025 J0.0433
G2 X352.1959 Y58.13 Z0.0 I0.025 J-0.0433
G2 X352.2392 Y58.055 I0.0 J-0.05
G2 X352.1526 I-0.0433 J0.025
G2 X352.1959 Y58.13 I0.0433 J0.025
G0 Z3.0
G0 X354.7858 Y53.0018
G1 Z2.3
G2 X354.7108 Y52.9585 Z2.1667 I-0.05 J0.0
G2 Y53.0451 Z2.0333 I0.025 J0.0433
G2 X354.7858 Y53.0018 Z1.9 I0.025 J-0.0433
G2 X354.7108 Y52.9585 Z1.7667 I-0.05 J0.0
G2 Y53.0451 Z1.6333 I0.025 J0.0433
G2 X354.7858 Y53.0018 Z1.5 I0.025 J-0.0433
G2 X354.7108 Y52.9585 Z1.3667 I-0.05 J0.0
G2 Y53.0451 Z1.2333 I0.025 J0.0433
G2 X354.7858 Y53.0018 Z1.1 I0.025 J-0.0433
G2 X354.7108 Y52.9585 Z0.9667 I-0.05 J0.0
G2 Y53.0451 Z0.8333 I0.025 J0.0433
G2 X354.7858 Y53.0018 Z0.7 I0.025 J-0.0433
G2 X354.7108 Y52.9585 Z0.5667 I-0.05 J0.0
G2 Y53.0451 Z0.4333 I0.025 J0.0433
G2 X354.7858 Y53.0018 Z0.3 I0.025 J-0.0433
G2 X354.7108 Y52.9585 Z0.1667 I-0.05 J0.0
G2 Y53.0451 Z0.0333 I0.025 J0.0433
G2 X354.7358 Y53.0518 Z0.0 I0.025 J-0.0433
G2 X354.7791 Y52.9768 I0.0 J-0.05
G2 X354.6925 I-0.0433 J0.025
G2 X354.7358 Y53.0518 I0.0433 J0.025
G0 Z3.0
G0 X352.2459 Y48.08
G1 Z2.3
G2 X352.1709 Y48.0367 Z2.1667 I-0.05 J0.0
G2 Y48.1233 Z2.0333 I0.025 J0.0433
G2 X352.2459 Y48.08 Z1.9 I0.025 J-0.0433
G2 X352.1709 Y48.0367 Z1.7667 I-0.05 J0.0
G2 Y48.1233 Z1.6333 I0.025 J0.0433
G2 X352.2459 Y48.08 Z1.5 I0.025 J-0.0433
G2 X352.1709 Y48.0367 Z1.3667 I-0.05 J0.0
G2 Y48.1233 Z1.2333 I0.025 J0.0433
G2 X352.2459 Y48.08 Z1.1 I0.025 J-0.0433
G2 X352.1709 Y48.0367 Z0.9667 I-0.05 J0.0
G2 Y48.1233 Z0.8333 I0.025 J0.0433
G2 X352.2459 Y48.08 Z0.7 I0.025 J-0.0433
G2 X352.1709 Y48.0367 Z0.5667 I-0.05 J0.0
G2 Y48.1233 Z0.4333 I0.025 J0.0433
G2 X352.2459 Y48.08 Z0.3 I0.025 J-0.0433
G2 X352.1709 Y48.0367 Z0.1667 I-0.05 J0.0
G2 Y48.1233 Z0.0333 I0.025 J0.0433
G2 X352.1959 Y48.13 Z0.0 I0.025 J-0.0433
G2 X352.2392 Y48.055 I0.0 J-0.05
G2 X352.1526 I-0.0433 J0.025
G2 X352.1959 Y48.13 I0.0433 J0.025
G0 Z3.0
G0 X349.7059 Y48.08
G1 Z2.3
G2 X349.6309 Y48.0367 Z2.1667 I-0.05 J0.0
G2 Y48.1233 Z2.0333 I0.025 J0.0433
G2 X349.7059 Y48.08 Z1.9 I0.025 J-0.0433
G2 X349.6309 Y48.0367 Z1.7667 I-0.05 J0.0
G2 Y48.1233 Z1.6333 I0.025 J0.0433
G2 X349.7059 Y48.08 Z1.5 I0.025 J-0.0433
G2 X349.6309 Y48.0367 Z1.3667 I-0.05 J0.0
G2 Y48.1233 Z1.2333 I0.025 J0.0433
G2 X349.7059 Y48.08 Z1.1 I0.025 J-0.0433
G2 X349.6309 Y48.0367 Z0.9667 I-0.05 J0.0
G2 Y48.1233 Z0.8333 I0.025 J0.0433
G2 X349.7059 Y48.08 Z0.7 I0.025 J-0.0433
G2 X349.6309 Y48.0367 Z0.5667 I-0.05 J0.0
G2 Y48.1233 Z0.4333 I0.025 J0.0433
G2 X349.7059 Y48.08 Z0.3 I0.025 J-0.0433
G2 X349.6309 Y48.0367 Z0.1667 I-0.05 J0.0
G2 Y48.1233 Z0.0333 I0.025 J0.0433
G2 X349.6559 Y48.13 Z0.0 I0.025 J-0.0433
G2 X349.6992 Y48.055 I0.0 J-0.05
G2 X349.6126 I-0.0433 J0.025
G2 X349.6559 Y48.13 I0.0433 J0.025
G0 Z3.0
G0 X349.7059 Y50.62
G1 Z2.3
G2 X349.6309 Y50.5767 Z2.1667 I-0.05 J0.0
G2 Y50.6633 Z2.0333 I0.025 J0.0433
G2 X349.7059 Y50.62 Z1.9 I0.025 J-0.0433
G2 X349.6309 Y50.5767 Z1.7667 I-0.05 J0.0
G2 Y50.6633 Z1.6333 I0.025 J0.0433
G2 X349.7059 Y50.62 Z1.5 I0.025 J-0.0433
G2 X349.6309 Y50.5767 Z1.3667 I-0.05 J0.0
G2 Y50.6633 Z1.2333 I0.025 J0.0433
G2 X349.7059 Y50.62 Z1.1 I0.025 J-0.0433
G2 X349.6309 Y50.5767 Z0.9667 I-0.05 J0.0
G2 Y50.6633 Z0.8333 I0.025 J0.0433
G2 X349.7059 Y50.62 Z0.7 I0.025 J-0.0433
G2 X349.6309 Y50.5767 Z0.5667 I-0.05 J0.0
G2 Y50.6633 Z0.4333 I0.025 J0.0433
G2 X349.7059 Y50.62 Z0.3 I0.025 J-0.0433
G2 X349.6309 Y50.5767 Z0.1667 I-0.05 J0.0
G2 Y50.6633 Z0.0333 I0.025 J0.0433
G2 X349.6559 Y50.67 Z0.0 I0.025 J-0.0433
G2 X349.6992 Y50.595 I0.0 J-0.05
G2 X349.6126 I-0.0433 J0.025
G2 X349.6559 Y50.67 I0.0433 J0.025
G0 Z3.0
G0 X347.1659 Y51.89
G1 Z2.3
G2 X347.0909 Y51.8467 Z2.1667 I-0.05 J0.0
G2 Y51.9333 Z2.0333 I0.025 J0.0433
G2 X347.1659 Y51.89 Z1.9 I0.025 J-0.0433
G2 X347.0909 Y51.8467 Z1.7667 I-0.05 J0.0
G2 Y51.9333 Z1.6333 I0.025 J0.0433
G2 X347.1659 Y51.89 Z1.5 I0.025 J-0.0433
G2 X347.0909 Y51.8467 Z1.3667 I-0.05 J0.0
G2 Y51.9333 Z1.2333 I0.025 J0.0433
G2 X347.1659 Y51.89 Z1.1 I0.025 J-0.0433
G2 X347.0909 Y51.8467 Z0.9667 I-0.05 J0.0
G2 Y51.9333 Z0.8333 I0.025 J0.0433
G2 X347.1659 Y51.89 Z0.7 I0.025 J-0.0433
G2 X347.0909 Y51.8467 Z0.5667 I-0.05 J0.0
G2 Y51.9333 Z0.4333 I0.025 J0.0433
G2 X347.1659 Y51.89 Z0.3 I0.025 J-0.0433
G2 X347.0909 Y51.8467 Z0.1667 I-0.05 J0.0
G2 Y51.9333 Z0.0333 I0.025 J0.0433
G2 X347.1159 Y51.94 Z0.0 I0.025 J-0.0433
G2 X347.1592 Y51.865 I0.0 J-0.05
G2 X347.0726 I-0.0433 J0.025
G2 X347.1159 Y51.94 I0.0433 J0.025
G0 Z3.0
G0 X344.6259 Y51.89
G1 Z2.3
G2 X344.5509 Y51.8467 Z2.1667 I-0.05 J0.0
G2 Y51.9333 Z2.0333 I0.025 J0.0433
G2 X344.6259 Y51.89 Z1.9 I0.025 J-0.0433
G2 X344.5509 Y51.8467 Z1.7667 I-0.05 J0.0
G2 Y51.9333 Z1.6333 I0.025 J0.0433
G2 X344.6259 Y51.89 Z1.5 I0.025 J-0.0433
G2 X344.5509 Y51.8467 Z1.3667 I-0.05 J0.0
G2 Y51.9333 Z1.2333 I0.025 J0.0433
G2 X344.6259 Y51.89 Z1.1 I0.025 J-0.0433
G2 X344.5509 Y51.8467 Z0.9667 I-0.05 J0.0
G2 Y51.9333 Z0.8333 I0.025 J0.0433
G2 X344.6259 Y51.89 Z0.7 I0.025 J-0.0433
G2 X344.5509 Y51.8467 Z0.5667 I-0.05 J0.0
G2 Y51.9333 Z0.4333 I0.025 J0.0433
G2 X344.6259 Y51.89 Z0.3 I0.025 J-0.0433
G2 X344.5509 Y51.8467 Z0.1667 I-0.05 J0.0
G2 Y51.9333 Z0.0333 I0.025 J0.0433
G2 X344.5759 Y51.94 Z0.0 I0.025 J-0.0433
G2 X344.6192 Y51.865 I0.0 J-0.05
G2 X344.5326 I-0.0433 J0.025
G2 X344.5759 Y51.94 I0.0433 J0.025
G0 Z3.0
G0 X342.0859 Y51.89
G1 Z2.3
G2 X342.0109 Y51.8467 Z2.1667 I-0.05 J0.0
G2 Y51.9333 Z2.0333 I0.025 J0.0433
G2 X342.0859 Y51.89 Z1.9 I0.025 J-0.0433
G2 X342.0109 Y51.8467 Z1.7667 I-0.05 J0.0
G2 Y51.9333 Z1.6333 I0.025 J0.0433
G2 X342.0859 Y51.89 Z1.5 I0.025 J-0.0433
G2 X342.0109 Y51.8467 Z1.3667 I-0.05 J0.0
G2 Y51.9333 Z1.2333 I0.025 J0.0433
G2 X342.0859 Y51.89 Z1.1 I0.025 J-0.0433
G2 X342.0109 Y51.8467 Z0.9667 I-0.05 J0.0
G2 Y51.9333 Z0.8333 I0.025 J0.0433
G2 X342.0859 Y51.89 Z0.7 I0.025 J-0.0433
G2 X342.0109 Y51.8467 Z0.5667 I-0.05 J0.0
G2 Y51.9333 Z0.4333 I0.025 J0.0433
G2 X342.0859 Y51.89 Z0.3 I0.025 J-0.0433
G2 X342.0109 Y51.8467 Z0.1667 I-0.05 J0.0
G2 Y51.9333 Z0.0333 I0.025 J0.0433
G2 X342.0359 Y51.94 Z0.0 I0.025 J-0.0433
G2 X342.0792 Y51.865 I0.0 J-0.05
G2 X341.9926 I-0.0433 J0.025
G2 X342.0359 Y51.94 I0.0433 J0.025
G0 Z3.0
G0 X339.5459 Y51.89
G1 Z2.3
G2 X339.4709 Y51.8467 Z2.1667 I-0.05 J0.0
G2 Y51.9333 Z2.0333 I0.025 J0.0433
G2 X339.5459 Y51.89 Z1.9 I0.025 J-0.0433
G2 X339.4709 Y51.8467 Z1.7667 I-0.05 J0.0
G2 Y51.9333 Z1.6333 I0.025 J0.0433
G2 X339.5459 Y51.89 Z1.5 I0.025 J-0.0433
G2 X339.4709 Y51.8467 Z1.3667 I-0.05 J0.0
G2 Y51.9333 Z1.2333 I0.025 J0.0433
G2 X339.5459 Y51.89 Z1.1 I0.025 J-0.0433
G2 X339.4709 Y51.8467 Z0.9667 I-0.05 J0.0
G2 Y51.9333 Z0.8333 I0.025 J0.0433
G2 X339.5459 Y51.89 Z0.7 I0.025 J-0.0433
G2 X339.4709 Y51.8467 Z0.5667 I-0.05 J0.0
G2 Y51.9333 Z0.4333 I0.025 J0.0433
G2 X339.5459 Y51.89 Z0.3 I0.025 J-0.0433
G2 X339.4709 Y51.8467 Z0.1667 I-0.05 J0.0
G2 Y51.9333 Z0.0333 I0.025 J0.0433
G2 X339.4959 Y51.94 Z0.0 I0.025 J-0.0433
G2 X339.5392 Y51.865 I0.0 J-0.05
G2 X339.4526 I-0.0433 J0.025
G2 X339.4959 Y51.94 I0.0433 J0.025
G0 Z3.0
G0 X337.0059 Y51.89
G1 Z2.3
G2 X336.9309 Y51.8467 Z2.1667 I-0.05 J0.0
G2 Y51.9333 Z2.0333 I0.025 J0.0433
G2 X337.0059 Y51.89 Z1.9 I0.025 J-0.0433
G2 X336.9309 Y51.8467 Z1.7667 I-0.05 J0.0
G2 Y51.9333 Z1.6333 I0.025 J0.0433
G2 X337.0059 Y51.89 Z1.5 I0.025 J-0.0433
G2 X336.9309 Y51.8467 Z1.3667 I-0.05 J0.0
G2 Y51.9333 Z1.2333 I0.025 J0.0433
G2 X337.0059 Y51.89 Z1.1 I0.025 J-0.0433
G2 X336.9309 Y51.8467 Z0.9667 I-0.05 J0.0
G2 Y51.9333 Z0.8333 I0.025 J0.0433
G2 X337.0059 Y51.89 Z0.7 I0.025 J-0.0433
G2 X336.9309 Y51.8467 Z0.5667 I-0.05 J0.0
G2 Y51.9333 Z0.4333 I0.025 J0.0433
G2 X337.0059 Y51.89 Z0.3 I0.025 J-0.0433
G2 X336.9309 Y51.8467 Z0.1667 I-0.05 J0.0
G2 Y51.9333 Z0.0333 I0.025 J0.0433
G2 X336.9559 Y51.94 Z0.0 I0.025 J-0.0433
G2 X336.9992 Y51.865 I0.0 J-0.05
G2 X336.9126 I-0.0433 J0.025
G2 X336.9559 Y51.94 I0.0433 J0.025
G0 Z3.0
G0 X334.4659 Y51.89
G1 Z2.3
G2 X334.3909 Y51.8467 Z2.1667 I-0.05 J0.0
G2 Y51.9333 Z2.0333 I0.025 J0.0433
G2 X334.4659 Y51.89 Z1.9 I0.025 J-0.0433
G2 X334.3909 Y51.8467 Z1.7667 I-0.05 J0.0
G2 Y51.9333 Z1.6333 I0.025 J0.0433
G2 X334.4659 Y51.89 Z1.5 I0.025 J-0.0433
G2 X334.3909 Y51.8467 Z1.3667 I-0.05 J0.0
G2 Y51.9333 Z1.2333 I0.025 J0.0433
G2 X334.4659 Y51.89 Z1.1 I0.025 J-0.0433
G2 X334.3909 Y51.8467 Z0.9667 I-0.05 J0.0
G2 Y51.9333 Z0.8333 I0.025 J0.0433
G2 X334.4659 Y51.89 Z0.7 I0.025 J-0.0433
G2 X334.3909 Y51.8467 Z0.5667 I-0.05 J0.0
G2 Y51.9333 Z0.4333 I0.025 J0.0433
G2 X334.4659 Y51.89 Z0.3 I0.025 J-0.0433
G2 X334.3909 Y51.8467 Z0.1667 I-0.05 J0.0
G2 Y51.9333 Z0.0333 I0.025 J0.0433
G2 X334.4159 Y51.94 Z0.0 I0.025 J-0.0433
G2 X334.4592 Y51.865 I0.0 J-0.05
G2 X334.3726 I-0.0433 J0.025
G2 X334.4159 Y51.94 I0.0433 J0.025
G0 Z3.0
G0 X331.9259 Y51.89
G1 Z2.3
G2 X331.8509 Y51.8467 Z2.1667 I-0.05 J0.0
G2 Y51.9333 Z2.0333 I0.025 J0.0433
G2 X331.9259 Y51.89 Z1.9 I0.025 J-0.0433
G2 X331.8509 Y51.8467 Z1.7667 I-0.05 J0.0
G2 Y51.9333 Z1.6333 I0.025 J0.0433
G2 X331.9259 Y51.89 Z1.5 I0.025 J-0.0433
G2 X331.8509 Y51.8467 Z1.3667 I-0.05 J0.0
G2 Y51.9333 Z1.2333 I0.025 J0.0433
G2 X331.9259 Y51.89 Z1.1 I0.025 J-0.0433
G2 X331.8509 Y51.8467 Z0.9667 I-0.05 J0.0
G2 Y51.9333 Z0.8333 I0.025 J0.0433
G2 X331.9259 Y51.89 Z0.7 I0.025 J-0.0433
G2 X331.8509 Y51.8467 Z0.5667 I-0.05 J0.0
G2 Y51.9333 Z0.4333 I0.025 J0.0433
G2 X331.9259 Y51.89 Z0.3 I0.025 J-0.0433
G2 X331.8509 Y51.8467 Z0.1667 I-0.05 J0.0
G2 Y51.9333 Z0.0333 I0.025 J0.0433
G2 X331.8759 Y51.94 Z0.0 I0.025 J-0.0433
G2 X331.9192 Y51.865 I0.0 J-0.05
G2 X331.8326 I-0.0433 J0.025
G2 X331.8759 Y51.94 I0.0433 J0.025
G0 Z3.0
G0 X329.3859 Y51.89
G1 Z2.3
G2 X329.3109 Y51.8467 Z2.1667 I-0.05 J0.0
G2 Y51.9333 Z2.0333 I0.025 J0.0433
G2 X329.3859 Y51.89 Z1.9 I0.025 J-0.0433
G2 X329.3109 Y51.8467 Z1.7667 I-0.05 J0.0
G2 Y51.9333 Z1.6333 I0.025 J0.0433
G2 X329.3859 Y51.89 Z1.5 I0.025 J-0.0433
G2 X329.3109 Y51.8467 Z1.3667 I-0.05 J0.0
G2 Y51.9333 Z1.2333 I0.025 J0.0433
G2 X329.3859 Y51.89 Z1.1 I0.025 J-0.0433
G2 X329.3109 Y51.8467 Z0.9667 I-0.05 J0.0
G2 Y51.9333 Z0.8333 I0.025 J0.0433
G2 X329.3859 Y51.89 Z0.7 I0.025 J-0.0433
G2 X329.3109 Y51.8467 Z0.5667 I-0.05 J0.0
G2 Y51.9333 Z0.4333 I0.025 J0.0433
G2 X329.3859 Y51.89 Z0.3 I0.025 J-0.0433
G2 X329.3109 Y51.8467 Z0.1667 I-0.05 J0.0
G2 Y51.9333 Z0.0333 I0.025 J0.0433
G2 X329.3359 Y51.94 Z0.0 I0.025 J-0.0433
G2 X329.3792 Y51.865 I0.0 J-0.05
G2 X329.2926 I-0.0433 J0.025
G2 X329.3359 Y51.94 I0.0433 J0.025
G0 Z3.0
G0 X326.8459 Y51.89
G1 Z2.3
G2 X326.7709 Y51.8467 Z2.1667 I-0.05 J0.0
G2 Y51.9333 Z2.0333 I0.025 J0.0433
G2 X326.8459 Y51.89 Z1.9 I0.025 J-0.0433
G2 X326.7709 Y51.8467 Z1.7667 I-0.05 J0.0
G2 Y51.9333 Z1.6333 I0.025 J0.0433
G2 X326.8459 Y51.89 Z1.5 I0.025 J-0.0433
G2 X326.7709 Y51.8467 Z1.3667 I-0.05 J0.0
G2 Y51.9333 Z1.2333 I0.025 J0.0433
G2 X326.8459 Y51.89 Z1.1 I0.025 J-0.0433
G2 X326.7709 Y51.8467 Z0.9667 I-0.05 J0.0
G2 Y51.9333 Z0.8333 I0.025 J0.0433
G2 X326.8459 Y51.89 Z0.7 I0.025 J-0.0433
G2 X326.7709 Y51.8467 Z0.5667 I-0.05 J0.0
G2 Y51.9333 Z0.4333 I0.025 J0.0433
G2 X326.8459 Y51.89 Z0.3 I0.025 J-0.0433
G2 X326.7709 Y51.8467 Z0.1667 I-0.05 J0.0
G2 Y51.9333 Z0.0333 I0.025 J0.0433
G2 X326.7959 Y51.94 Z0.0 I0.025 J-0.0433
G2 X326.8392 Y51.865 I0.0 J-0.05
G2 X326.7526 I-0.0433 J0.025
G2 X326.7959 Y51.94 I0.0433 J0.025
G0 Z3.0
G0 X324.3059 Y51.89
G1 Z2.3
G2 X324.2309 Y51.8467 Z2.1667 I-0.05 J0.0
G2 Y51.9333 Z2.0333 I0.025 J0.0433
G2 X324.3059 Y51.89 Z1.9 I0.025 J-0.0433
G2 X324.2309 Y51.8467 Z1.7667 I-0.05 J0.0
G2 Y51.9333 Z1.6333 I0.025 J0.0433
G2 X324.3059 Y51.89 Z1.5 I0.025 J-0.0433
G2 X324.2309 Y51.8467 Z1.3667 I-0.05 J0.0
G2 Y51.9333 Z1.2333 I0.025 J0.0433
G2 X324.3059 Y51.89 Z1.1 I0.025 J-0.0433
G2 X324.2309 Y51.8467 Z0.9667 I-0.05 J0.0
G2 Y51.9333 Z0.8333 I0.025 J0.0433
G2 X324.3059 Y51.89 Z0.7 I0.025 J-0.0433
G2 X324.2309 Y51.8467 Z0.5667 I-0.05 J0.0
G2 Y51.9333 Z0.4333 I0.025 J0.0433
G2 X324.3059 Y51.89 Z0.3 I0.025 J-0.0433
G2 X324.2309 Y51.8467 Z0.1667 I-0.05 J0.0
G2 Y51.9333 Z0.0333 I0.025 J0.0433
G2 X324.2559 Y51.94 Z0.0 I0.025 J-0.0433
G2 X324.2992 Y51.865 I0.0 J-0.05
G2 X324.2126 I-0.0433 J0.025
G2 X324.2559 Y51.94 I0.0433 J0.025
G0 Z3.0
G0 X321.7659 Y51.89
G1 Z2.3
G2 X321.6909 Y51.8467 Z2.1667 I-0.05 J0.0
G2 Y51.9333 Z2.0333 I0.025 J0.0433
G2 X321.7659 Y51.89 Z1.9 I0.025 J-0.0433
G2 X321.6909 Y51.8467 Z1.7667 I-0.05 J0.0
G2 Y51.9333 Z1.6333 I0.025 J0.0433
G2 X321.7659 Y51.89 Z1.5 I0.025 J-0.0433
G2 X321.6909 Y51.8467 Z1.3667 I-0.05 J0.0
G2 Y51.9333 Z1.2333 I0.025 J0.0433
G2 X321.7659 Y51.89 Z1.1 I0.025 J-0.0433
G2 X321.6909 Y51.8467 Z0.9667 I-0.05 J0.0
G2 Y51.9333 Z0.8333 I0.025 J0.0433
G2 X321.7659 Y51.89 Z0.7 I0.025 J-0.0433
G2 X321.6909 Y51.8467 Z0.5667 I-0.05 J0.0
G2 Y51.9333 Z0.4333 I0.025 J0.0433
G2 X321.7659 Y51.89 Z0.3 I0.025 J-0.0433
G2 X321.6909 Y51.8467 Z0.1667 I-0.05 J0.0
G2 Y51.9333 Z0.0333 I0.025 J0.0433
G2 X321.7159 Y51.94 Z0.0 I0.025 J-0.0433
G2 X321.7592 Y51.865 I0.0 J-0.05
G2 X321.6726 I-0.0433 J0.025
G2 X321.7159 Y51.94 I0.0433 J0.025
G0 Z3.0
G0 X319.2259 Y51.89
G1 Z2.3
G2 X319.1509 Y51.8467 Z2.1667 I-0.05 J0.0
G2 Y51.9333 Z2.0333 I0.025 J0.0433
G2 X319.2259 Y51.89 Z1.9 I0.025 J-0.0433
G2 X319.1509 Y51.8467 Z1.7667 I-0.05 J0.0
G2 Y51.9333 Z1.6333 I0.025 J0.0433
G2 X319.2259 Y51.89 Z1.5 I0.025 J-0.0433
G2 X319.1509 Y51.8467 Z1.3667 I-0.05 J0.0
G2 Y51.9333 Z1.2333 I0.025 J0.0433
G2 X319.2259 Y51.89 Z1.1 I0.025 J-0.0433
G2 X319.1509 Y51.8467 Z0.9667 I-0.05 J0.0
G2 Y51.9333 Z0.8333 I0.025 J0.0433
G2 X319.2259 Y51.89 Z0.7 I0.025 J-0.0433
G2 X319.1509 Y51.8467 Z0.5667 I-0.05 J0.0
G2 Y51.9333 Z0.4333 I0.025 J0.0433
G2 X319.2259 Y51.89 Z0.3 I0.025 J-0.0433
G2 X319.1509 Y51.8467 Z0.1667 I-0.05 J0.0
G2 Y51.9333 Z0.0333 I0.025 J0.0433
G2 X319.1759 Y51.94 Z0.0 I0.025 J-0.0433
G2 X319.2192 Y51.865 I0.0 J-0.05
G2 X319.1326 I-0.0433 J0.025
G2 X319.1759 Y51.94 I0.0433 J0.025
G0 Z3.0
G0 X319.2259 Y36.65
G1 Z2.3
G2 X319.1509 Y36.6067 Z2.1667 I-0.05 J0.0
G2 Y36.6933 Z2.0333 I0.025 J0.0433
G2 X319.2259 Y36.65 Z1.9 I0.025 J-0.0433
G2 X319.1509 Y36.6067 Z1.7667 I-0.05 J0.0
G2 Y36.6933 Z1.6333 I0.025 J0.0433
G2 X319.2259 Y36.65 Z1.5 I0.025 J-0.0433
G2 X319.1509 Y36.6067 Z1.3667 I-0.05 J0.0
G2 Y36.6933 Z1.2333 I0.025 J0.0433
G2 X319.2259 Y36.65 Z1.1 I0.025 J-0.0433
G2 X319.1509 Y36.6067 Z0.9667 I-0.05 J0.0
G2 Y36.6933 Z0.8333 I0.025 J0.0433
G2 X319.2259 Y36.65 Z0.7 I0.025 J-0.0433
G2 X319.1509 Y36.6067 Z0.5667 I-0.05 J0.0
G2 Y36.6933 Z0.4333 I0.025 J0.0433
G2 X319.2259 Y36.65 Z0.3 I0.025 J-0.0433
G2 X319.1509 Y36.6067 Z0.1667 I-0.05 J0.0
G2 Y36.6933 Z0.0333 I0.025 J0.0433
G2 X319.1759 Y36.7 Z0.0 I0.025 J-0.0433
G2 X319.2192 Y36.625 I0.0 J-0.05
G2 X319.1326 I-0.0433 J0.025
G2 X319.1759 Y36.7 I0.0433 J0.025
G0 Z3.0
G0 X321.7659 Y36.65
G1 Z2.3
G2 X321.6909 Y36.6067 Z2.1667 I-0.05 J0.0
G2 Y36.6933 Z2.0333 I0.025 J0.0433
G2 X321.7659 Y36.65 Z1.9 I0.025 J-0.0433
G2 X321.6909 Y36.6067 Z1.7667 I-0.05 J0.0
G2 Y36.6933 Z1.6333 I0.025 J0.0433
G2 X321.7659 Y36.65 Z1.5 I0.025 J-0.0433
G2 X321.6909 Y36.6067 Z1.3667 I-0.05 J0.0
G2 Y36.6933 Z1.2333 I0.025 J0.0433
G2 X321.7659 Y36.65 Z1.1 I0.025 J-0.0433
G2 X321.6909 Y36.6067 Z0.9667 I-0.05 J0.0
G2 Y36.6933 Z0.8333 I0.025 J0.0433
G2 X321.7659 Y36.65 Z0.7 I0.025 J-0.0433
G2 X321.6909 Y36.6067 Z0.5667 I-0.05 J0.0
G2 Y36.6933 Z0.4333 I0.025 J0.0433
G2 X321.7659 Y36.65 Z0.3 I0.025 J-0.0433
G2 X321.6909 Y36.6067 Z0.1667 I-0.05 J0.0
G2 Y36.6933 Z0.0333 I0.025 J0.0433
G2 X321.7159 Y36.7 Z0.0 I0.025 J-0.0433
G2 X321.7592 Y36.625 I0.0 J-0.05
G2 X321.6726 I-0.0433 J0.025
G2 X321.7159 Y36.7 I0.0433 J0.025
G0 Z3.0
G0 X324.3059 Y36.65
G1 Z2.3
G2 X324.2309 Y36.6067 Z2.1667 I-0.05 J0.0
G2 Y36.6933 Z2.0333 I0.025 J0.0433
G2 X324.3059 Y36.65 Z1.9 I0.025 J-0.0433
G2 X324.2309 Y36.6067 Z1.7667 I-0.05 J0.0
G2 Y36.6933 Z1.6333 I0.025 J0.0433
G2 X324.3059 Y36.65 Z1.5 I0.025 J-0.0433
G2 X324.2309 Y36.6067 Z1.3667 I-0.05 J0.0
G2 Y36.6933 Z1.2333 I0.025 J0.0433
G2 X324.3059 Y36.65 Z1.1 I0.025 J-0.0433
G2 X324.2309 Y36.6067 Z0.9667 I-0.05 J0.0
G2 Y36.6933 Z0.8333 I0.025 J0.0433
G2 X324.3059 Y36.65 Z0.7 I0.025 J-0.0433
G2 X324.2309 Y36.6067 Z0.5667 I-0.05 J0.0
G2 Y36.6933 Z0.4333 I0.025 J0.0433
G2 X324.3059 Y36.65 Z0.3 I0.025 J-0.0433
G2 X324.2309 Y36.6067 Z0.1667 I-0.05 J0.0
G2 Y36.6933 Z0.0333 I0.025 J0.0433
G2 X324.2559 Y36.7 Z0.0 I0.025 J-0.0433
G2 X324.2992 Y36.625 I0.0 J-0.05
G2 X324.2126 I-0.0433 J0.025
G2 X324.2559 Y36.7 I0.0433 J0.025
G0 Z3.0
G0 X326.8459 Y36.65
G1 Z2.3
G2 X326.7709 Y36.6067 Z2.1667 I-0.05 J0.0
G2 Y36.6933 Z2.0333 I0.025 J0.0433
G2 X326.8459 Y36.65 Z1.9 I0.025 J-0.0433
G2 X326.7709 Y36.6067 Z1.7667 I-0.05 J0.0
G2 Y36.6933 Z1.6333 I0.025 J0.0433
G2 X326.8459 Y36.65 Z1.5 I0.025 J-0.0433
G2 X326.7709 Y36.6067 Z1.3667 I-0.05 J0.0
G2 Y36.6933 Z1.2333 I0.025 J0.0433
G2 X326.8459 Y36.65 Z1.1 I0.025 J-0.0433
G2 X326.7709 Y36.6067 Z0.9667 I-0.05 J0.0
G2 Y36.6933 Z0.8333 I0.025 J0.0433
G2 X326.8459 Y36.65 Z0.7 I0.025 J-0.0433
G2 X326.7709 Y36.6067 Z0.5667 I-0.05 J0.0
G2 Y36.6933 Z0.4333 I0.025 J0.0433
G2 X326.8459 Y36.65 Z0.3 I0.025 J-0.0433
G2 X326.7709 Y36.6067 Z0.1667 I-0.05 J0.0
G2 Y36.6933 Z0.0333 I0.025 J0.0433
G2 X326.7959 Y36.7 Z0.0 I0.025 J-0.0433
G2 X326.8392 Y36.625 I0.0 J-0.05
G2 X326.7526 I-0.0433 J0.025
G2 X326.7959 Y36.7 I0.0433 J0.025
G0 Z3.0
G0 X329.3859 Y36.65
G1 Z2.3
G2 X329.3109 Y36.6067 Z2.1667 I-0.05 J0.0
G2 Y36.6933 Z2.0333 I0.025 J0.0433
G2 X329.3859 Y36.65 Z1.9 I0.025 J-0.0433
G2 X329.3109 Y36.6067 Z1.7667 I-0.05 J0.0
G2 Y36.6933 Z1.6333 I0.025 J0.0433
G2 X329.3859 Y36.65 Z1.5 I0.025 J-0.0433
G2 X329.3109 Y36.6067 Z1.3667 I-0.05 J0.0
G2 Y36.6933 Z1.2333 I0.025 J0.0433
G2 X329.3859 Y36.65 Z1.1 I0.025 J-0.0433
G2 X329.3109 Y36.6067 Z0.9667 I-0.05 J0.0
G2 Y36.6933 Z0.8333 I0.025 J0.0433
G2 X329.3859 Y36.65 Z0.7 I0.025 J-0.0433
G2 X329.3109 Y36.6067 Z0.5667 I-0.05 J0.0
G2 Y36.6933 Z0.4333 I0.025 J0.0433
G2 X329.3859 Y36.65 Z0.3 I0.025 J-0.0433
G2 X329.3109 Y36.6067 Z0.1667 I-0.05 J0.0
G2 Y36.6933 Z0.0333 I0.025 J0.0433
G2 X329.3359 Y36.7 Z0.0 I0.025 J-0.0433
G2 X329.3792 Y36.625 I0.0 J-0.05
G2 X329.2926 I-0.0433 J0.025
G2 X329.3359 Y36.7 I0.0433 J0.025
G0 Z3.0
G0 X331.9259 Y36.65
G1 Z2.3
G2 X331.8509 Y36.6067 Z2.1667 I-0.05 J0.0
G2 Y36.6933 Z2.0333 I0.025 J0.0433
G2 X331.9259 Y36.65 Z1.9 I0.025 J-0.0433
G2 X331.8509 Y36.6067 Z1.7667 I-0.05 J0.0
G2 Y36.6933 Z1.6333 I0.025 J0.0433
G2 X331.9259 Y36.65 Z1.5 I0.025 J-0.0433
G2 X331.8509 Y36.6067 Z1.3667 I-0.05 J0.0
G2 Y36.6933 Z1.2333 I0.025 J0.0433
G2 X331.9259 Y36.65 Z1.1 I0.025 J-0.0433
G2 X331.8509 Y36.6067 Z0.9667 I-0.05 J0.0
G2 Y36.6933 Z0.8333 I0.025 J0.0433
G2 X331.9259 Y36.65 Z0.7 I0.025 J-0.0433
G2 X331.8509 Y36.6067 Z0.5667 I-0.05 J0.0
G2 Y36.6933 Z0.4333 I0.025 J0.0433
G2 X331.9259 Y36.65 Z0.3 I0.025 J-0.0433
G2 X331.8509 Y36.6067 Z0.1667 I-0.05 J0.0
G2 Y36.6933 Z0.0333 I0.025 J0.0433
G2 X331.8759 Y36.7 Z0.0 I0.025 J-0.0433
G2 X331.9192 Y36.625 I0.0 J-0.05
G2 X331.8326 I-0.0433 J0.025
G2 X331.8759 Y36.7 I0.0433 J0.025
G0 Z3.0
G0 X334.4659 Y36.65
G1 Z2.3
G2 X334.3909 Y36.6067 Z2.1667 I-0.05 J0.0
G2 Y36.6933 Z2.0333 I0.025 J0.0433
G2 X334.4659 Y36.65 Z1.9 I0.025 J-0.0433
G2 X334.3909 Y36.6067 Z1.7667 I-0.05 J0.0
G2 Y36.6933 Z1.6333 I0.025 J0.0433
G2 X334.4659 Y36.65 Z1.5 I0.025 J-0.0433
G2 X334.3909 Y36.6067 Z1.3667 I-0.05 J0.0
G2 Y36.6933 Z1.2333 I0.025 J0.0433
G2 X334.4659 Y36.65 Z1.1 I0.025 J-0.0433
G2 X334.3909 Y36.6067 Z0.9667 I-0.05 J0.0
G2 Y36.6933 Z0.8333 I0.025 J0.0433
G2 X334.4659 Y36.65 Z0.7 I0.025 J-0.0433
G2 X334.3909 Y36.6067 Z0.5667 I-0.05 J0.0
G2 Y36.6933 Z0.4333 I0.025 J0.0433
G2 X334.4659 Y36.65 Z0.3 I0.025 J-0.0433
G2 X334.3909 Y36.6067 Z0.1667 I-0.05 J0.0
G2 Y36.6933 Z0.0333 I0.025 J0.0433
G2 X334.4159 Y36.7 Z0.0 I0.025 J-0.0433
G2 X334.4592 Y36.625 I0.0 J-0.05
G2 X334.3726 I-0.0433 J0.025
G2 X334.4159 Y36.7 I0.0433 J0.025
G0 Z3.0
G0 X337.0059 Y36.65
G1 Z2.3
G2 X336.9309 Y36.6067 Z2.1667 I-0.05 J0.0
G2 Y36.6933 Z2.0333 I0.025 J0.0433
G2 X337.0059 Y36.65 Z1.9 I0.025 J-0.0433
G2 X336.9309 Y36.6067 Z1.7667 I-0.05 J0.0
G2 Y36.6933 Z1.6333 I0.025 J0.0433
G2 X337.0059 Y36.65 Z1.5 I0.025 J-0.0433
G2 X336.9309 Y36.6067 Z1.3667 I-0.05 J0.0
G2 Y36.6933 Z1.2333 I0.025 J0.0433
G2 X337.0059 Y36.65 Z1.1 I0.025 J-0.0433
G2 X336.9309 Y36.6067 Z0.9667 I-0.05 J0.0
G2 Y36.6933 Z0.8333 I0.025 J0.0433
G2 X337.0059 Y36.65 Z0.7 I0.025 J-0.0433
G2 X336.9309 Y36.6067 Z0.5667 I-0.05 J0.0
G2 Y36.6933 Z0.4333 I0.025 J0.0433
G2 X337.0059 Y36.65 Z0.3 I0.025 J-0.0433
G2 X336.9309 Y36.6067 Z0.1667 I-0.05 J0.0
G2 Y36.6933 Z0.0333 I0.025 J0.0433
G2 X336.9559 Y36.7 Z0.0 I0.025 J-0.0433
G2 X336.9992 Y36.625 I0.0 J-0.05
G2 X336.9126 I-0.0433 J0.025
G2 X336.9559 Y36.7 I0.0433 J0.025
G0 Z3.0
G0 X339.5459 Y36.65
G1 Z2.3
G2 X339.4709 Y36.6067 Z2.1667 I-0.05 J0.0
G2 Y36.6933 Z2.0333 I0.025 J0.0433
G2 X339.5459 Y36.65 Z1.9 I0.025 J-0.0433
G2 X339.4709 Y36.6067 Z1.7667 I-0.05 J0.0
G2 Y36.6933 Z1.6333 I0.025 J0.0433
G2 X339.5459 Y36.65 Z1.5 I0.025 J-0.0433
G2 X339.4709 Y36.6067 Z1.3667 I-0.05 J0.0
G2 Y36.6933 Z1.2333 I0.025 J0.0433
G2 X339.5459 Y36.65 Z1.1 I0.025 J-0.0433
G2 X339.4709 Y36.6067 Z0.9667 I-0.05 J0.0
G2 Y36.6933 Z0.8333 I0.025 J0.0433
G2 X339.5459 Y36.65 Z0.7 I0.025 J-0.0433
G2 X339.4709 Y36.6067 Z0.5667 I-0.05 J0.0
G2 Y36.6933 Z0.4333 I0.025 J0.0433
G2 X339.5459 Y36.65 Z0.3 I0.025 J-0.0433
G2 X339.4709 Y36.6067 Z0.1667 I-0.05 J0.0
G2 Y36.6933 Z0.0333 I0.025 J0.0433
G2 X339.4959 Y36.7 Z0.0 I0.025 J-0.0433
G2 X339.5392 Y36.625 I0.0 J-0.05
G2 X339.4526 I-0.0433 J0.025
G2 X339.4959 Y36.7 I0.0433 J0.025
G0 Z3.0
G0 X342.0859 Y36.65
G1 Z2.3
G2 X342.0109 Y36.6067 Z2.1667 I-0.05 J0.0
G2 Y36.6933 Z2.0333 I0.025 J0.0433
G2 X342.0859 Y36.65 Z1.9 I0.025 J-0.0433
G2 X342.0109 Y36.6067 Z1.7667 I-0.05 J0.0
G2 Y36.6933 Z1.6333 I0.025 J0.0433
G2 X342.0859 Y36.65 Z1.5 I0.025 J-0.0433
G2 X342.0109 Y36.6067 Z1.3667 I-0.05 J0.0
G2 Y36.6933 Z1.2333 I0.025 J0.0433
G2 X342.0859 Y36.65 Z1.1 I0.025 J-0.0433
G2 X342.0109 Y36.6067 Z0.9667 I-0.05 J0.0
G2 Y36.6933 Z0.8333 I0.025 J0.0433
G2 X342.0859 Y36.65 Z0.7 I0.025 J-0.0433
G2 X342.0109 Y36.6067 Z0.5667 I-0.05 J0.0
G2 Y36.6933 Z0.4333 I0.025 J0.0433
G2 X342.0859 Y36.65 Z0.3 I0.025 J-0.0433
G2 X342.0109 Y36.6067 Z0.1667 I-0.05 J0.0
G2 Y36.6933 Z0.0333 I0.025 J0.0433
G2 X342.0359 Y36.7 Z0.0 I0.025 J-0.0433
G2 X342.0792 Y36.625 I0.0 J-0.05
G2 X341.9926 I-0.0433 J0.025
G2 X342.0359 Y36.7 I0.0433 J0.025
G0 Z3.0
G0 X344.6259 Y36.65
G1 Z2.3
G2 X344.5509 Y36.6067 Z2.1667 I-0.05 J0.0
G2 Y36.6933 Z2.0333 I0.025 J0.0433
G2 X344.6259 Y36.65 Z1.9 I0.025 J-0.0433
G2 X344.5509 Y36.6067 Z1.7667 I-0.05 J0.0
G2 Y36.6933 Z1.6333 I0.025 J0.0433
G2 X344.6259 Y36.65 Z1.5 I0.025 J-0.0433
G2 X344.5509 Y36.6067 Z1.3667 I-0.05 J0.0
G2 Y36.6933 Z1.2333 I0.025 J0.0433
G2 X344.6259 Y36.65 Z1.1 I0.025 J-0.0433
G2 X344.5509 Y36.6067 Z0.9667 I-0.05 J0.0
G2 Y36.6933 Z0.8333 I0.025 J0.0433
G2 X344.6259 Y36.65 Z0.7 I0.025 J-0.0433
G2 X344.5509 Y36.6067 Z0.5667 I-0.05 J0.0
G2 Y36.6933 Z0.4333 I0.025 J0.0433
G2 X344.6259 Y36.65 Z0.3 I0.025 J-0.0433
G2 X344.5509 Y36.6067 Z0.1667 I-0.05 J0.0
G2 Y36.6933 Z0.0333 I0.025 J0.0433
G2 X344.5759 Y36.7 Z0.0 I0.025 J-0.0433
G2 X344.6192 Y36.625 I0.0 J-0.05
G2 X344.5326 I-0.0433 J0.025
G2 X344.5759 Y36.7 I0.0433 J0.025
G0 Z3.0
G0 X347.1659 Y36.65
G1 Z2.3
G2 X347.0909 Y36.6067 Z2.1667 I-0.05 J0.0
G2 Y36.6933 Z2.0333 I0.025 J0.0433
G2 X347.1659 Y36.65 Z1.9 I0.025 J-0.0433
G2 X347.0909 Y36.6067 Z1.7667 I-0.05 J0.0
G2 Y36.6933 Z1.6333 I0.025 J0.0433
G2 X347.1659 Y36.65 Z1.5 I0.025 J-0.0433
G2 X347.0909 Y36.6067 Z1.3667 I-0.05 J0.0
G2 Y36.6933 Z1.2333 I0.025 J0.0433
G2 X347.1659 Y36.65 Z1.1 I0.025 J-0.0433
G2 X347.0909 Y36.6067 Z0.9667 I-0.05 J0.0
G2 Y36.6933 Z0.8333 I0.025 J0.0433
G2 X347.1659 Y36.65 Z0.7 I0.025 J-0.0433
G2 X347.0909 Y36.6067 Z0.5667 I-0.05 J0.0
G2 Y36.6933 Z0.4333 I0.025 J0.0433
G2 X347.1659 Y36.65 Z0.3 I0.025 J-0.0433
G2 X347.0909 Y36.6067 Z0.1667 I-0.05 J0.0
G2 Y36.6933 Z0.0333 I0.025 J0.0433
G2 X347.1159 Y36.7 Z0.0 I0.025 J-0.0433
G2 X347.1592 Y36.625 I0.0 J-0.05
G2 X347.0726 I-0.0433 J0.025
G2 X347.1159 Y36.7 I0.0433 J0.025
G0 Z3.0
G0 X349.7059 Y37.92
G1 Z2.3
G2 X349.6309 Y37.8767 Z2.1667 I-0.05 J0.0
G2 Y37.9633 Z2.0333 I0.025 J0.0433
G2 X349.7059 Y37.92 Z1.9 I0.025 J-0.0433
G2 X349.6309 Y37.8767 Z1.7667 I-0.05 J0.0
G2 Y37.9633 Z1.6333 I0.025 J0.0433
G2 X349.7059 Y37.92 Z1.5 I0.025 J-0.0433
G2 X349.6309 Y37.8767 Z1.3667 I-0.05 J0.0
G2 Y37.9633 Z1.2333 I0.025 J0.0433
G2 X349.7059 Y37.92 Z1.1 I0.025 J-0.0433
G2 X349.6309 Y37.8767 Z0.9667 I-0.05 J0.0
G2 Y37.9633 Z0.8333 I0.025 J0.0433
G2 X349.7059 Y37.92 Z0.7 I0.025 J-0.0433
G2 X349.6309 Y37.8767 Z0.5667 I-0.05 J0.0
G2 Y37.9633 Z0.4333 I0.025 J0.0433
G2 X349.7059 Y37.92 Z0.3 I0.025 J-0.0433
G2 X349.6309 Y37.8767 Z0.1667 I-0.05 J0.0
G2 Y37.9633 Z0.0333 I0.025 J0.0433
G2 X349.6559 Y37.97 Z0.0 I0.025 J-0.0433
G2 X349.6992 Y37.895 I0.0 J-0.05
G2 X349.6126 I-0.0433 J0.025
G2 X349.6559 Y37.97 I0.0433 J0.025
G0 Z3.0
G0 X349.7059 Y40.46
G1 Z2.3
G2 X349.6309 Y40.4167 Z2.1667 I-0.05 J0.0
G2 Y40.5033 Z2.0333 I0.025 J0.0433
G2 X349.7059 Y40.46 Z1.9 I0.025 J-0.0433
G2 X349.6309 Y40.4167 Z1.7667 I-0.05 J0.0
G2 Y40.5033 Z1.6333 I0.025 J0.0433
G2 X349.7059 Y40.46 Z1.5 I0.025 J-0.0433
G2 X349.6309 Y40.4167 Z1.3667 I-0.05 J0.0
G2 Y40.5033 Z1.2333 I0.025 J0.0433
G2 X349.7059 Y40.46 Z1.1 I0.025 J-0.0433
G2 X349.6309 Y40.4167 Z0.9667 I-0.05 J0.0
G2 Y40.5033 Z0.8333 I0.025 J0.0433
G2 X349.7059 Y40.46 Z0.7 I0.025 J-0.0433
G2 X349.6309 Y40.4167 Z0.5667 I-0.05 J0.0
G2 Y40.5033 Z0.4333 I0.025 J0.0433
G2 X349.7059 Y40.46 Z0.3 I0.025 J-0.0433
G2 X349.6309 Y40.4167 Z0.1667 I-0.05 J0.0
G2 Y40.5033 Z0.0333 I0.025 J0.0433
G2 X349.6559 Y40.51 Z0.0 I0.025 J-0.0433
G2 X349.6992 Y40.435 I0.0 J-0.05
G2 X349.6126 I-0.0433 J0.025
G2 X349.6559 Y40.51 I0.0433 J0.025
G0 Z3.0
G0 X349.7059 Y43.0
G1 Z2.3
G2 X349.6309 Y42.9567 Z2.1667 I-0.05 J0.0
G2 Y43.0433 Z2.0333 I0.025 J0.0433
G2 X349.7059 Y43.0 Z1.9 I0.025 J-0.0433
G2 X349.6309 Y42.9567 Z1.7667 I-0.05 J0.0
G2 Y43.0433 Z1.6333 I0.025 J0.0433
G2 X349.7059 Y43.0 Z1.5 I0.025 J-0.0433
G2 X349.6309 Y42.9567 Z1.3667 I-0.05 J0.0
G2 Y43.0433 Z1.2333 I0.025 J0.0433
G2 X349.7059 Y43.0 Z1.1 I0.025 J-0.0433
G2 X349.6309 Y42.9567 Z0.9667 I-0.05 J0.0
G2 Y43.0433 Z0.8333 I0.025 J0.0433
G2 X349.7059 Y43.0 Z0.7 I0.025 J-0.0433
G2 X349.6309 Y42.9567 Z0.5667 I-0.05 J0.0
G2 Y43.0433 Z0.4333 I0.025 J0.0433
G2 X349.7059 Y43.0 Z0.3 I0.025 J-0.0433
G2 X349.6309 Y42.9567 Z0.1667 I-0.05 J0.0
G2 Y43.0433 Z0.0333 I0.025 J0.0433
G2 X349.6559 Y43.05 Z0.0 I0.025 J-0.0433
G2 X349.6992 Y42.975 I0.0 J-0.05
G2 X349.6126 I-0.0433 J0.025
G2 X349.6559 Y43.05 I0.0433 J0.025
G0 Z3.0
G0 X349.7059 Y45.54
G1 Z2.3
G2 X349.6309 Y45.4967 Z2.1667 I-0.05 J0.0
G2 Y45.5833 Z2.0333 I0.025 J0.0433
G2 X349.7059 Y45.54 Z1.9 I0.025 J-0.0433
G2 X349.6309 Y45.4967 Z1.7667 I-0.05 J0.0
G2 Y45.5833 Z1.6333 I0.025 J0.0433
G2 X349.7059 Y45.54 Z1.5 I0.025 J-0.0433
G2 X349.6309 Y45.4967 Z1.3667 I-0.05 J0.0
G2 Y45.5833 Z1.2333 I0.025 J0.0433
G2 X349.7059 Y45.54 Z1.1 I0.025 J-0.0433
G2 X349.6309 Y45.4967 Z0.9667 I-0.05 J0.0
G2 Y45.5833 Z0.8333 I0.025 J0.0433
G2 X349.7059 Y45.54 Z0.7 I0.025 J-0.0433
G2 X349.6309 Y45.4967 Z0.5667 I-0.05 J0.0
G2 Y45.5833 Z0.4333 I0.025 J0.0433
G2 X349.7059 Y45.54 Z0.3 I0.025 J-0.0433
G2 X349.6309 Y45.4967 Z0.1667 I-0.05 J0.0
G2 Y45.5833 Z0.0333 I0.025 J0.0433
G2 X349.6559 Y45.59 Z0.0 I0.025 J-0.0433
G2 X349.6992 Y45.515 I0.0 J-0.05
G2 X349.6126 I-0.0433 J0.025
G2 X349.6559 Y45.59 I0.0433 J0.025
G0 Z3.0
G0 X354.7858 Y43.0018
G1 Z2.3
G2 X354.7108 Y42.9585 Z2.1667 I-0.05 J0.0
G2 Y43.0451 Z2.0333 I0.025 J0.0433
G2 X354.7858 Y43.0018 Z1.9 I0.025 J-0.0433
G2 X354.7108 Y42.9585 Z1.7667 I-0.05 J0.0
G2 Y43.0451 Z1.6333 I0.025 J0.0433
G2 X354.7858 Y43.0018 Z1.5 I0.025 J-0.0433
G2 X354.7108 Y42.9585 Z1.3667 I-0.05 J0.0
G2 Y43.0451 Z1.2333 I0.025 J0.0433
G2 X354.7858 Y43.0018 Z1.1 I0.025 J-0.0433
G2 X354.7108 Y42.9585 Z0.9667 I-0.05 J0.0
G2 Y43.0451 Z0.8333 I0.025 J0.0433
G2 X354.7858 Y43.0018 Z0.7 I0.025 J-0.0433
G2 X354.7108 Y42.9585 Z0.5667 I-0.05 J0.0
G2 Y43.0451 Z0.4333 I0.025 J0.0433
G2 X354.7858 Y43.0018 Z0.3 I0.025 J-0.0433
G2 X354.7108 Y42.9585 Z0.1667 I-0.05 J0.0
G2 Y43.0451 Z0.0333 I0.025 J0.0433
G2 X354.7358 Y43.0518 Z0.0 I0.025 J-0.0433
G2 X354.7791 Y42.9768 I0.0 J-0.05
G2 X354.6925 I-0.0433 J0.025
G2 X354.7358 Y43.0518 I0.0433 J0.025
G0 Z3.0
G0 X347.0059 Y31.59
G1 Z2.3
G2 X346.9309 Y31.5467 Z2.1667 I-0.05 J0.0
G2 Y31.6333 Z2.0333 I0.025 J0.0433
G2 X347.0059 Y31.59 Z1.9 I0.025 J-0.0433
G2 X346.9309 Y31.5467 Z1.7667 I-0.05 J0.0
G2 Y31.6333 Z1.6333 I0.025 J0.0433
G2 X347.0059 Y31.59 Z1.5 I0.025 J-0.0433
G2 X346.9309 Y31.5467 Z1.3667 I-0.05 J0.0
G2 Y31.6333 Z1.2333 I0.025 J0.0433
G2 X347.0059 Y31.59 Z1.1 I0.025 J-0.0433
G2 X346.9309 Y31.5467 Z0.9667 I-0.05 J0.0
G2 Y31.6333 Z0.8333 I0.025 J0.0433
G2 X347.0059 Y31.59 Z0.7 I0.025 J-0.0433
G2 X346.9309 Y31.5467 Z0.5667 I-0.05 J0.0
G2 Y31.6333 Z0.4333 I0.025 J0.0433
G2 X347.0059 Y31.59 Z0.3 I0.025 J-0.0433
G2 X346.9309 Y31.5467 Z0.1667 I-0.05 J0.0
G2 Y31.6333 Z0.0333 I0.025 J0.0433
G2 X346.9559 Y31.64 Z0.0 I0.025 J-0.0433
G2 X346.9992 Y31.565 I0.0 J-0.05
G2 X346.9126 I-0.0433 J0.025
G2 X346.9559 Y31.64 I0.0433 J0.025
G0 Z3.0
G0 X347.0059 Y29.05
G1 Z2.3
G2 X346.9309 Y29.0067 Z2.1667 I-0.05 J0.0
G2 Y29.0933 Z2.0333 I0.025 J0.0433
G2 X347.0059 Y29.05 Z1.9 I0.025 J-0.0433
G2 X346.9309 Y29.0067 Z1.7667 I-0.05 J0.0
G2 Y29.0933 Z1.6333 I0.025 J0.0433
G2 X347.0059 Y29.05 Z1.5 I0.025 J-0.0433
G2 X346.9309 Y29.0067 Z1.3667 I-0.05 J0.0
G2 Y29.0933 Z1.2333 I0.025 J0.0433
G2 X347.0059 Y29.05 Z1.1 I0.025 J-0.0433
G2 X346.9309 Y29.0067 Z0.9667 I-0.05 J0.0
G2 Y29.0933 Z0.8333 I0.025 J0.0433
G2 X347.0059 Y29.05 Z0.7 I0.025 J-0.0433
G2 X346.9309 Y29.0067 Z0.5667 I-0.05 J0.0
G2 Y29.0933 Z0.4333 I0.025 J0.0433
G2 X347.0059 Y29.05 Z0.3 I0.025 J-0.0433
G2 X346.9309 Y29.0067 Z0.1667 I-0.05 J0.0
G2 Y29.0933 Z0.0333 I0.025 J0.0433
G2 X346.9559 Y29.1 Z0.0 I0.025 J-0.0433
G2 X346.9992 Y29.025 I0.0 J-0.05
G2 X346.9126 I-0.0433 J0.025
G2 X346.9559 Y29.1 I0.0433 J0.025
G0 Z3.0
G0 X347.0059 Y26.51
G1 Z2.3
G2 X346.9309 Y26.4667 Z2.1667 I-0.05 J0.0
G2 Y26.5533 Z2.0333 I0.025 J0.0433
G2 X347.0059 Y26.51 Z1.9 I0.025 J-0.0433
G2 X346.9309 Y26.4667 Z1.7667 I-0.05 J0.0
G2 Y26.5533 Z1.6333 I0.025 J0.0433
G2 X347.0059 Y26.51 Z1.5 I0.025 J-0.0433
G2 X346.9309 Y26.4667 Z1.3667 I-0.05 J0.0
G2 Y26.5533 Z1.2333 I0.025 J0.0433
G2 X347.0059 Y26.51 Z1.1 I0.025 J-0.0433
G2 X346.9309 Y26.4667 Z0.9667 I-0.05 J0.0
G2 Y26.5533 Z0.8333 I0.025 J0.0433
G2 X347.0059 Y26.51 Z0.7 I0.025 J-0.0433
G2 X346.9309 Y26.4667 Z0.5667 I-0.05 J0.0
G2 Y26.5533 Z0.4333 I0.025 J0.0433
G2 X347.0059 Y26.51 Z0.3 I0.025 J-0.0433
G2 X346.9309 Y26.4667 Z0.1667 I-0.05 J0.0
G2 Y26.5533 Z0.0333 I0.025 J0.0433
G2 X346.9559 Y26.56 Z0.0 I0.025 J-0.0433
G2 X346.9992 Y26.485 I0.0 J-0.05
G2 X346.9126 I-0.0433 J0.025
G2 X346.9559 Y26.56 I0.0433 J0.025
G0 Z3.0
G0 X347.0059 Y23.97
G1 Z2.3
G2 X346.9309 Y23.9267 Z2.1667 I-0.05 J0.0
G2 Y24.0133 Z2.0333 I0.025 J0.0433
G2 X347.0059 Y23.97 Z1.9 I0.025 J-0.0433
G2 X346.9309 Y23.9267 Z1.7667 I-0.05 J0.0
G2 Y24.0133 Z1.6333 I0.025 J0.0433
G2 X347.0059 Y23.97 Z1.5 I0.025 J-0.0433
G2 X346.9309 Y23.9267 Z1.3667 I-0.05 J0.0
G2 Y24.0133 Z1.2333 I0.025 J0.0433
G2 X347.0059 Y23.97 Z1.1 I0.025 J-0.0433
G2 X346.9309 Y23.9267 Z0.9667 I-0.05 J0.0
G2 Y24.0133 Z0.8333 I0.025 J0.0433
G2 X347.0059 Y23.97 Z0.7 I0.025 J-0.0433
G2 X346.9309 Y23.9267 Z0.5667 I-0.05 J0.0
G2 Y24.0133 Z0.4333 I0.025 J0.0433
G2 X347.0059 Y23.97 Z0.3 I0.025 J-0.0433
G2 X346.9309 Y23.9267 Z0.1667 I-0.05 J0.0
G2 Y24.0133 Z0.0333 I0.025 J0.0433
G2 X346.9559 Y24.02 Z0.0 I0.025 J-0.0433
G2 X346.9992 Y23.945 I0.0 J-0.05
G2 X346.9126 I-0.0433 J0.025
G2 X346.9559 Y24.02 I0.0433 J0.025
G0 Z3.0
G0 X347.0059 Y21.43
G1 Z2.3
G2 X346.9309 Y21.3867 Z2.1667 I-0.05 J0.0
G2 Y21.4733 Z2.0333 I0.025 J0.0433
G2 X347.0059 Y21.43 Z1.9 I0.025 J-0.0433
G2 X346.9309 Y21.3867 Z1.7667 I-0.05 J0.0
G2 Y21.4733 Z1.6333 I0.025 J0.0433
G2 X347.0059 Y21.43 Z1.5 I0.025 J-0.0433
G2 X346.9309 Y21.3867 Z1.3667 I-0.05 J0.0
G2 Y21.4733 Z1.2333 I0.025 J0.0433
G2 X347.0059 Y21.43 Z1.1 I0.025 J-0.0433
G2 X346.9309 Y21.3867 Z0.9667 I-0.05 J0.0
G2 Y21.4733 Z0.8333 I0.025 J0.0433
G2 X347.0059 Y21.43 Z0.7 I0.025 J-0.0433
G2 X346.9309 Y21.3867 Z0.5667 I-0.05 J0.0
G2 Y21.4733 Z0.4333 I0.025 J0.0433
G2 X347.0059 Y21.43 Z0.3 I0.025 J-0.0433
G2 X346.9309 Y21.3867 Z0.1667 I-0.05 J0.0
G2 Y21.4733 Z0.0333 I0.025 J0.0433
G2 X346.9559 Y21.48 Z0.0 I0.025 J-0.0433
G2 X346.9992 Y21.405 I0.0 J-0.05
G2 X346.9126 I-0.0433 J0.025
G2 X346.9559 Y21.48 I0.0433 J0.025
G0 Z3.0
G0 X347.0059 Y18.89
G1 Z2.3
G2 X346.9309 Y18.8467 Z2.1667 I-0.05 J0.0
G2 Y18.9333 Z2.0333 I0.025 J0.0433
G2 X347.0059 Y18.89 Z1.9 I0.025 J-0.0433
G2 X346.9309 Y18.8467 Z1.7667 I-0.05 J0.0
G2 Y18.9333 Z1.6333 I0.025 J0.0433
G2 X347.0059 Y18.89 Z1.5 I0.025 J-0.0433
G2 X346.9309 Y18.8467 Z1.3667 I-0.05 J0.0
G2 Y18.9333 Z1.2333 I0.025 J0.0433
G2 X347.0059 Y18.89 Z1.1 I0.025 J-0.0433
G2 X346.9309 Y18.8467 Z0.9667 I-0.05 J0.0
G2 Y18.9333 Z0.8333 I0.025 J0.0433
G2 X347.0059 Y18.89 Z0.7 I0.025 J-0.0433
G2 X346.9309 Y18.8467 Z0.5667 I-0.05 J0.0
G2 Y18.9333 Z0.4333 I0.025 J0.0433
G2 X347.0059 Y18.89 Z0.3 I0.025 J-0.0433
G2 X346.9309 Y18.8467 Z0.1667 I-0.05 J0.0
G2 Y18.9333 Z0.0333 I0.025 J0.0433
G2 X346.9559 Y18.94 Z0.0 I0.025 J-0.0433
G2 X346.9992 Y18.865 I0.0 J-0.05
G2 X346.9126 I-0.0433 J0.025
G2 X346.9559 Y18.94 I0.0433 J0.025
G0 Z3.0
G0 X347.0059 Y16.35
G1 Z2.3
G2 X346.9309 Y16.3067 Z2.1667 I-0.05 J0.0
G2 Y16.3933 Z2.0333 I0.025 J0.0433
G2 X347.0059 Y16.35 Z1.9 I0.025 J-0.0433
G2 X346.9309 Y16.3067 Z1.7667 I-0.05 J0.0
G2 Y16.3933 Z1.6333 I0.025 J0.0433
G2 X347.0059 Y16.35 Z1.5 I0.025 J-0.0433
G2 X346.9309 Y16.3067 Z1.3667 I-0.05 J0.0
G2 Y16.3933 Z1.2333 I0.025 J0.0433
G2 X347.0059 Y16.35 Z1.1 I0.025 J-0.0433
G2 X346.9309 Y16.3067 Z0.9667 I-0.05 J0.0
G2 Y16.3933 Z0.8333 I0.025 J0.0433
G2 X347.0059 Y16.35 Z0.7 I0.025 J-0.0433
G2 X346.9309 Y16.3067 Z0.5667 I-0.05 J0.0
G2 Y16.3933 Z0.4333 I0.025 J0.0433
G2 X347.0059 Y16.35 Z0.3 I0.025 J-0.0433
G2 X346.9309 Y16.3067 Z0.1667 I-0.05 J0.0
G2 Y16.3933 Z0.0333 I0.025 J0.0433
G2 X346.9559 Y16.4 Z0.0 I0.025 J-0.0433
G2 X346.9992 Y16.325 I0.0 J-0.05
G2 X346.9126 I-0.0433 J0.025
G2 X346.9559 Y16.4 I0.0433 J0.025
G0 Z3.0
G0 X346.0059 Y11.27
G1 Z2.3
G2 X345.9309 Y11.2267 Z2.1667 I-0.05 J0.0
G2 Y11.3133 Z2.0333 I0.025 J0.0433
G2 X346.0059 Y11.27 Z1.9 I0.025 J-0.0433
G2 X345.9309 Y11.2267 Z1.7667 I-0.05 J0.0
G2 Y11.3133 Z1.6333 I0.025 J0.0433
G2 X346.0059 Y11.27 Z1.5 I0.025 J-0.0433
G2 X345.9309 Y11.2267 Z1.3667 I-0.05 J0.0
G2 Y11.3133 Z1.2333 I0.025 J0.0433
G2 X346.0059 Y11.27 Z1.1 I0.025 J-0.0433
G2 X345.9309 Y11.2267 Z0.9667 I-0.05 J0.0
G2 Y11.3133 Z0.8333 I0.025 J0.0433
G2 X346.0059 Y11.27 Z0.7 I0.025 J-0.0433
G2 X345.9309 Y11.2267 Z0.5667 I-0.05 J0.0
G2 Y11.3133 Z0.4333 I0.025 J0.0433
G2 X346.0059 Y11.27 Z0.3 I0.025 J-0.0433
G2 X345.9309 Y11.2267 Z0.1667 I-0.05 J0.0
G2 Y11.3133 Z0.0333 I0.025 J0.0433
G2 X345.9559 Y11.32 Z0.0 I0.025 J-0.0433
G2 X345.9992 Y11.245 I0.0 J-0.05
G2 X345.9126 I-0.0433 J0.025
G2 X345.9559 Y11.32 I0.0433 J0.025
G0 Z3.0
G0 X346.0059 Y1.27
G1 Z2.3
G2 X345.9309 Y1.2267 Z2.1667 I-0.05 J0.0
G2 Y1.3133 Z2.0333 I0.025 J0.0433
G2 X346.0059 Y1.27 Z1.9 I0.025 J-0.0433
G2 X345.9309 Y1.2267 Z1.7667 I-0.05 J0.0
G2 Y1.3133 Z1.6333 I0.025 J0.0433
G2 X346.0059 Y1.27 Z1.5 I0.025 J-0.0433
G2 X345.9309 Y1.2267 Z1.3667 I-0.05 J0.0
G2 Y1.3133 Z1.2333 I0.025 J0.0433
G2 X346.0059 Y1.27 Z1.1 I0.025 J-0.0433
G2 X345.9309 Y1.2267 Z0.9667 I-0.05 J0.0
G2 Y1.3133 Z0.8333 I0.025 J0.0433
G2 X346.0059 Y1.27 Z0.7 I0.025 J-0.0433
G2 X345.9309 Y1.2267 Z0.5667 I-0.05 J0.0
G2 Y1.3133 Z0.4333 I0.025 J0.0433
G2 X346.0059 Y1.27 Z0.3 I0.025 J-0.0433
G2 X345.9309 Y1.2267 Z0.1667 I-0.05 J0.0
G2 Y1.3133 Z0.0333 I0.025 J0.0433
G2 X345.9559 Y1.32 Z0.0 I0.025 J-0.0433
G2 X345.9992 Y1.245 I0.0 J-0.05
G2 X345.9126 I-0.0433 J0.025
G2 X345.9559 Y1.32 I0.0433 J0.025
G0 Z3.0
G0 X343.4659 Y1.27
G1 Z2.3
G2 X343.3909 Y1.2267 Z2.1667 I-0.05 J0.0
G2 Y1.3133 Z2.0333 I0.025 J0.0433
G2 X343.4659 Y1.27 Z1.9 I0.025 J-0.0433
G2 X343.3909 Y1.2267 Z1.7667 I-0.05 J0.0
G2 Y1.3133 Z1.6333 I0.025 J0.0433
G2 X343.4659 Y1.27 Z1.5 I0.025 J-0.0433
G2 X343.3909 Y1.2267 Z1.3667 I-0.05 J0.0
G2 Y1.3133 Z1.2333 I0.025 J0.0433
G2 X343.4659 Y1.27 Z1.1 I0.025 J-0.0433
G2 X343.3909 Y1.2267 Z0.9667 I-0.05 J0.0
G2 Y1.3133 Z0.8333 I0.025 J0.0433
G2 X343.4659 Y1.27 Z0.7 I0.025 J-0.0433
G2 X343.3909 Y1.2267 Z0.5667 I-0.05 J0.0
G2 Y1.3133 Z0.4333 I0.025 J0.0433
G2 X343.4659 Y1.27 Z0.3 I0.025 J-0.0433
G2 X343.3909 Y1.2267 Z0.1667 I-0.05 J0.0
G2 Y1.3133 Z0.0333 I0.025 J0.0433
G2 X343.4159 Y1.32 Z0.0 I0.025 J-0.0433
G2 X343.4592 Y1.245 I0.0 J-0.05
G2 X343.3726 I-0.0433 J0.025
G2 X343.4159 Y1.32 I0.0433 J0.025
G0 Z3.0
G0 X348.5459 Y1.27
G1 Z2.3
G2 X348.4709 Y1.2267 Z2.1667 I-0.05 J0.0
G2 Y1.3133 Z2.0333 I0.025 J0.0433
G2 X348.5459 Y1.27 Z1.9 I0.025 J-0.0433
G2 X348.4709 Y1.2267 Z1.7667 I-0.05 J0.0
G2 Y1.3133 Z1.6333 I0.025 J0.0433
G2 X348.5459 Y1.27 Z1.5 I0.025 J-0.0433
G2 X348.4709 Y1.2267 Z1.3667 I-0.05 J0.0
G2 Y1.3133 Z1.2333 I0.025 J0.0433
G2 X348.5459 Y1.27 Z1.1 I0.025 J-0.0433
G2 X348.4709 Y1.2267 Z0.9667 I-0.05 J0.0
G2 Y1.3133 Z0.8333 I0.025 J0.0433
G2 X348.5459 Y1.27 Z0.7 I0.025 J-0.0433
G2 X348.4709 Y1.2267 Z0.5667 I-0.05 J0.0
G2 Y1.3133 Z0.4333 I0.025 J0.0433
G2 X348.5459 Y1.27 Z0.3 I0.025 J-0.0433
G2 X348.4709 Y1.2267 Z0.1667 I-0.05 J0.0
G2 Y1.3133 Z0.0333 I0.025 J0.0433
G2 X348.4959 Y1.32 Z0.0 I0.025 J-0.0433
G2 X348.5392 Y1.245 I0.0 J-0.05
G2 X348.4526 I-0.0433 J0.025
G2 X348.4959 Y1.32 I0.0433 J0.025
G0 Z3.0
G0 X337.0059 Y16.35
G1 Z2.3
G2 X336.9309 Y16.3067 Z2.1667 I-0.05 J0.0
G2 Y16.3933 Z2.0333 I0.025 J0.0433
G2 X337.0059 Y16.35 Z1.9 I0.025 J-0.0433
G2 X336.9309 Y16.3067 Z1.7667 I-0.05 J0.0
G2 Y16.3933 Z1.6333 I0.025 J0.0433
G2 X337.0059 Y16.35 Z1.5 I0.025 J-0.0433
G2 X336.9309 Y16.3067 Z1.3667 I-0.05 J0.0
G2 Y16.3933 Z1.2333 I0.025 J0.0433
G2 X337.0059 Y16.35 Z1.1 I0.025 J-0.0433
G2 X336.9309 Y16.3067 Z0.9667 I-0.05 J0.0
G2 Y16.3933 Z0.8333 I0.025 J0.0433
G2 X337.0059 Y16.35 Z0.7 I0.025 J-0.0433
G2 X336.9309 Y16.3067 Z0.5667 I-0.05 J0.0
G2 Y16.3933 Z0.4333 I0.025 J0.0433
G2 X337.0059 Y16.35 Z0.3 I0.025 J-0.0433
G2 X336.9309 Y16.3067 Z0.1667 I-0.05 J0.0
G2 Y16.3933 Z0.0333 I0.025 J0.0433
G2 X336.9559 Y16.4 Z0.0 I0.025 J-0.0433
G2 X336.9992 Y16.325 I0.0 J-0.05
G2 X336.9126 I-0.0433 J0.025
G2 X336.9559 Y16.4 I0.0433 J0.025
G0 Z3.0
G0 X334.4659 Y18.89
G1 Z2.3
G2 X334.3909 Y18.8467 Z2.1667 I-0.05 J0.0
G2 Y18.9333 Z2.0333 I0.025 J0.0433
G2 X334.4659 Y18.89 Z1.9 I0.025 J-0.0433
G2 X334.3909 Y18.8467 Z1.7667 I-0.05 J0.0
G2 Y18.9333 Z1.6333 I0.025 J0.0433
G2 X334.4659 Y18.89 Z1.5 I0.025 J-0.0433
G2 X334.3909 Y18.8467 Z1.3667 I-0.05 J0.0
G2 Y18.9333 Z1.2333 I0.025 J0.0433
G2 X334.4659 Y18.89 Z1.1 I0.025 J-0.0433
G2 X334.3909 Y18.8467 Z0.9667 I-0.05 J0.0
G2 Y18.9333 Z0.8333 I0.025 J0.0433
G2 X334.4659 Y18.89 Z0.7 I0.025 J-0.0433
G2 X334.3909 Y18.8467 Z0.5667 I-0.05 J0.0
G2 Y18.9333 Z0.4333 I0.025 J0.0433
G2 X334.4659 Y18.89 Z0.3 I0.025 J-0.0433
G2 X334.3909 Y18.8467 Z0.1667 I-0.05 J0.0
G2 Y18.9333 Z0.0333 I0.025 J0.0433
G2 X334.4159 Y18.94 Z0.0 I0.025 J-0.0433
G2 X334.4592 Y18.865 I0.0 J-0.05
G2 X334.3726 I-0.0433 J0.025
G2 X334.4159 Y18.94 I0.0433 J0.025
G0 Z3.0
G0 X331.9259 Y21.43
G1 Z2.3
G2 X331.8509 Y21.3867 Z2.1667 I-0.05 J0.0
G2 Y21.4733 Z2.0333 I0.025 J0.0433
G2 X331.9259 Y21.43 Z1.9 I0.025 J-0.0433
G2 X331.8509 Y21.3867 Z1.7667 I-0.05 J0.0
G2 Y21.4733 Z1.6333 I0.025 J0.0433
G2 X331.9259 Y21.43 Z1.5 I0.025 J-0.0433
G2 X331.8509 Y21.3867 Z1.3667 I-0.05 J0.0
G2 Y21.4733 Z1.2333 I0.025 J0.0433
G2 X331.9259 Y21.43 Z1.1 I0.025 J-0.0433
G2 X331.8509 Y21.3867 Z0.9667 I-0.05 J0.0
G2 Y21.4733 Z0.8333 I0.025 J0.0433
G2 X331.9259 Y21.43 Z0.7 I0.025 J-0.0433
G2 X331.8509 Y21.3867 Z0.5667 I-0.05 J0.0
G2 Y21.4733 Z0.4333 I0.025 J0.0433
G2 X331.9259 Y21.43 Z0.3 I0.025 J-0.0433
G2 X331.8509 Y21.3867 Z0.1667 I-0.05 J0.0
G2 Y21.4733 Z0.0333 I0.025 J0.0433
G2 X331.8759 Y21.48 Z0.0 I0.025 J-0.0433
G2 X331.9192 Y21.405 I0.0 J-0.05
G2 X331.8326 I-0.0433 J0.025
G2 X331.8759 Y21.48 I0.0433 J0.025
G0 Z3.0
G0 X329.3859 Y23.97
G1 Z2.3
G2 X329.3109 Y23.9267 Z2.1667 I-0.05 J0.0
G2 Y24.0133 Z2.0333 I0.025 J0.0433
G2 X329.3859 Y23.97 Z1.9 I0.025 J-0.0433
G2 X329.3109 Y23.9267 Z1.7667 I-0.05 J0.0
G2 Y24.0133 Z1.6333 I0.025 J0.0433
G2 X329.3859 Y23.97 Z1.5 I0.025 J-0.0433
G2 X329.3109 Y23.9267 Z1.3667 I-0.05 J0.0
G2 Y24.0133 Z1.2333 I0.025 J0.0433
G2 X329.3859 Y23.97 Z1.1 I0.025 J-0.0433
G2 X329.3109 Y23.9267 Z0.9667 I-0.05 J0.0
G2 Y24.0133 Z0.8333 I0.025 J0.0433
G2 X329.3859 Y23.97 Z0.7 I0.025 J-0.0433
G2 X329.3109 Y23.9267 Z0.5667 I-0.05 J0.0
G2 Y24.0133 Z0.4333 I0.025 J0.0433
G2 X329.3859 Y23.97 Z0.3 I0.025 J-0.0433
G2 X329.3109 Y23.9267 Z0.1667 I-0.05 J0.0
G2 Y24.0133 Z0.0333 I0.025 J0.0433
G2 X329.3359 Y24.02 Z0.0 I0.025 J-0.0433
G2 X329.3792 Y23.945 I0.0 J-0.05
G2 X329.2926 I-0.0433 J0.025
G2 X329.3359 Y24.02 I0.0433 J0.025
G0 Z3.0
G0 X326.8459 Y26.51
G1 Z2.3
G2 X326.7709 Y26.4667 Z2.1667 I-0.05 J0.0
G2 Y26.5533 Z2.0333 I0.025 J0.0433
G2 X326.8459 Y26.51 Z1.9 I0.025 J-0.0433
G2 X326.7709 Y26.4667 Z1.7667 I-0.05 J0.0
G2 Y26.5533 Z1.6333 I0.025 J0.0433
G2 X326.8459 Y26.51 Z1.5 I0.025 J-0.0433
G2 X326.7709 Y26.4667 Z1.3667 I-0.05 J0.0
G2 Y26.5533 Z1.2333 I0.025 J0.0433
G2 X326.8459 Y26.51 Z1.1 I0.025 J-0.0433
G2 X326.7709 Y26.4667 Z0.9667 I-0.05 J0.0
G2 Y26.5533 Z0.8333 I0.025 J0.0433
G2 X326.8459 Y26.51 Z0.7 I0.025 J-0.0433
G2 X326.7709 Y26.4667 Z0.5667 I-0.05 J0.0
G2 Y26.5533 Z0.4333 I0.025 J0.0433
G2 X326.8459 Y26.51 Z0.3 I0.025 J-0.0433
G2 X326.7709 Y26.4667 Z0.1667 I-0.05 J0.0
G2 Y26.5533 Z0.0333 I0.025 J0.0433
G2 X326.7959 Y26.56 Z0.0 I0.025 J-0.0433
G2 X326.8392 Y26.485 I0.0 J-0.05
G2 X326.7526 I-0.0433 J0.025
G2 X326.7959 Y26.56 I0.0433 J0.025
G0 Z3.0
G0 X324.3059 Y29.05
G1 Z2.3
G2 X324.2309 Y29.0067 Z2.1667 I-0.05 J0.0
G2 Y29.0933 Z2.0333 I0.025 J0.0433
G2 X324.3059 Y29.05 Z1.9 I0.025 J-0.0433
G2 X324.2309 Y29.0067 Z1.7667 I-0.05 J0.0
G2 Y29.0933 Z1.6333 I0.025 J0.0433
G2 X324.3059 Y29.05 Z1.5 I0.025 J-0.0433
G2 X324.2309 Y29.0067 Z1.3667 I-0.05 J0.0
G2 Y29.0933 Z1.2333 I0.025 J0.0433
G2 X324.3059 Y29.05 Z1.1 I0.025 J-0.0433
G2 X324.2309 Y29.0067 Z0.9667 I-0.05 J0.0
G2 Y29.0933 Z0.8333 I0.025 J0.0433
G2 X324.3059 Y29.05 Z0.7 I0.025 J-0.0433
G2 X324.2309 Y29.0067 Z0.5667 I-0.05 J0.0
G2 Y29.0933 Z0.4333 I0.025 J0.0433
G2 X324.3059 Y29.05 Z0.3 I0.025 J-0.0433
G2 X324.2309 Y29.0067 Z0.1667 I-0.05 J0.0
G2 Y29.0933 Z0.0333 I0.025 J0.0433
G2 X324.2559 Y29.1 Z0.0 I0.025 J-0.0433
G2 X324.2992 Y29.025 I0.0 J-0.05
G2 X324.2126 I-0.0433 J0.025
G2 X324.2559 Y29.1 I0.0433 J0.025
G0 Z3.0
G0 X321.7659 Y31.59
G1 Z2.3
G2 X321.6909 Y31.5467 Z2.1667 I-0.05 J0.0
G2 Y31.6333 Z2.0333 I0.025 J0.0433
G2 X321.7659 Y31.59 Z1.9 I0.025 J-0.0433
G2 X321.6909 Y31.5467 Z1.7667 I-0.05 J0.0
G2 Y31.6333 Z1.6333 I0.025 J0.0433
G2 X321.7659 Y31.59 Z1.5 I0.025 J-0.0433
G2 X321.6909 Y31.5467 Z1.3667 I-0.05 J0.0
G2 Y31.6333 Z1.2333 I0.025 J0.0433
G2 X321.7659 Y31.59 Z1.1 I0.025 J-0.0433
G2 X321.6909 Y31.5467 Z0.9667 I-0.05 J0.0
G2 Y31.6333 Z0.8333 I0.025 J0.0433
G2 X321.7659 Y31.59 Z0.7 I0.025 J-0.0433
G2 X321.6909 Y31.5467 Z0.5667 I-0.05 J0.0
G2 Y31.6333 Z0.4333 I0.025 J0.0433
G2 X321.7659 Y31.59 Z0.3 I0.025 J-0.0433
G2 X321.6909 Y31.5467 Z0.1667 I-0.05 J0.0
G2 Y31.6333 Z0.0333 I0.025 J0.0433
G2 X321.7159 Y31.64 Z0.0 I0.025 J-0.0433
G2 X321.7592 Y31.565 I0.0 J-0.05
G2 X321.6726 I-0.0433 J0.025
G2 X321.7159 Y31.64 I0.0433 J0.025
G0 Z3.0
G0 X316.4659 Y16.35
G1 Z2.3
G2 X316.3909 Y16.3067 Z2.1667 I-0.05 J0.0
G2 Y16.3933 Z2.0333 I0.025 J0.0433
G2 X316.4659 Y16.35 Z1.9 I0.025 J-0.0433
G2 X316.3909 Y16.3067 Z1.7667 I-0.05 J0.0
G2 Y16.3933 Z1.6333 I0.025 J0.0433
G2 X316.4659 Y16.35 Z1.5 I0.025 J-0.0433
G2 X316.3909 Y16.3067 Z1.3667 I-0.05 J0.0
G2 Y16.3933 Z1.2333 I0.025 J0.0433
G2 X316.4659 Y16.35 Z1.1 I0.025 J-0.0433
G2 X316.3909 Y16.3067 Z0.9667 I-0.05 J0.0
G2 Y16.3933 Z0.8333 I0.025 J0.0433
G2 X316.4659 Y16.35 Z0.7 I0.025 J-0.0433
G2 X316.3909 Y16.3067 Z0.5667 I-0.05 J0.0
G2 Y16.3933 Z0.4333 I0.025 J0.0433
G2 X316.4659 Y16.35 Z0.3 I0.025 J-0.0433
G2 X316.3909 Y16.3067 Z0.1667 I-0.05 J0.0
G2 Y16.3933 Z0.0333 I0.025 J0.0433
G2 X316.4159 Y16.4 Z0.0 I0.025 J-0.0433
G2 X316.4592 Y16.325 I0.0 J-0.05
G2 X316.3726 I-0.0433 J0.025
G2 X316.4159 Y16.4 I0.0433 J0.025
G0 Z3.0
G0 X316.4659 Y1.27
G1 Z2.3
G2 X316.3909 Y1.2267 Z2.1667 I-0.05 J0.0
G2 Y1.3133 Z2.0333 I0.025 J0.0433
G2 X316.4659 Y1.27 Z1.9 I0.025 J-0.0433
G2 X316.3909 Y1.2267 Z1.7667 I-0.05 J0.0
G2 Y1.3133 Z1.6333 I0.025 J0.0433
G2 X316.4659 Y1.27 Z1.5 I0.025 J-0.0433
G2 X316.3909 Y1.2267 Z1.3667 I-0.05 J0.0
G2 Y1.3133 Z1.2333 I0.025 J0.0433
G2 X316.4659 Y1.27 Z1.1 I0.025 J-0.0433
G2 X316.3909 Y1.2267 Z0.9667 I-0.05 J0.0
G2 Y1.3133 Z0.8333 I0.025 J0.0433
G2 X316.4659 Y1.27 Z0.7 I0.025 J-0.0433
G2 X316.3909 Y1.2267 Z0.5667 I-0.05 J0.0
G2 Y1.3133 Z0.4333 I0.025 J0.0433
G2 X316.4659 Y1.27 Z0.3 I0.025 J-0.0433
G2 X316.3909 Y1.2267 Z0.1667 I-0.05 J0.0
G2 Y1.3133 Z0.0333 I0.025 J0.0433
G2 X316.4159 Y1.32 Z0.0 I0.025 J-0.0433
G2 X316.4592 Y1.245 I0.0 J-0.05
G2 X316.3726 I-0.0433 J0.025
G2 X316.4159 Y1.32 I0.0433 J0.025
G0 Z3.0
G0 X314.4659 Y1.27
G1 Z2.3
G2 X314.3909 Y1.2267 Z2.1667 I-0.05 J0.0
G2 Y1.3133 Z2.0333 I0.025 J0.0433
G2 X314.4659 Y1.27 Z1.9 I0.025 J-0.0433
G2 X314.3909 Y1.2267 Z1.7667 I-0.05 J0.0
G2 Y1.3133 Z1.6333 I0.025 J0.0433
G2 X314.4659 Y1.27 Z1.5 I0.025 J-0.0433
G2 X314.3909 Y1.2267 Z1.3667 I-0.05 J0.0
G2 Y1.3133 Z1.2333 I0.025 J0.0433
G2 X314.4659 Y1.27 Z1.1 I0.025 J-0.0433
G2 X314.3909 Y1.2267 Z0.9667 I-0.05 J0.0
G2 Y1.3133 Z0.8333 I0.025 J0.0433
G2 X314.4659 Y1.27 Z0.7 I0.025 J-0.0433
G2 X314.3909 Y1.2267 Z0.5667 I-0.05 J0.0
G2 Y1.3133 Z0.4333 I0.025 J0.0433
G2 X314.4659 Y1.27 Z0.3 I0.025 J-0.0433
G2 X314.3909 Y1.2267 Z0.1667 I-0.05 J0.0
G2 Y1.3133 Z0.0333 I0.025 J0.0433
G2 X314.4159 Y1.32 Z0.0 I0.025 J-0.0433
G2 X314.4592 Y1.245 I0.0 J-0.05
G2 X314.3726 I-0.0433 J0.025
G2 X314.4159 Y1.32 I0.0433 J0.025
G0 Z3.0
G0 X318.4659 Y1.27
G1 Z2.3
G2 X318.3909 Y1.2267 Z2.1667 I-0.05 J0.0
G2 Y1.3133 Z2.0333 I0.025 J0.0433
G2 X318.4659 Y1.27 Z1.9 I0.025 J-0.0433
G2 X318.3909 Y1.2267 Z1.7667 I-0.05 J0.0
G2 Y1.3133 Z1.6333 I0.025 J0.0433
G2 X318.4659 Y1.27 Z1.5 I0.025 J-0.0433
G2 X318.3909 Y1.2267 Z1.3667 I-0.05 J0.0
G2 Y1.3133 Z1.2333 I0.025 J0.0433
G2 X318.4659 Y1.27 Z1.1 I0.025 J-0.0433
G2 X318.3909 Y1.2267 Z0.9667 I-0.05 J0.0
G2 Y1.3133 Z0.8333 I0.025 J0.0433
G2 X318.4659 Y1.27 Z0.7 I0.025 J-0.0433
G2 X318.3909 Y1.2267 Z0.5667 I-0.05 J0.0
G2 Y1.3133 Z0.4333 I0.025 J0.0433
G2 X318.4659 Y1.27 Z0.3 I0.025 J-0.0433
G2 X318.3909 Y1.2267 Z0.1667 I-0.05 J0.0
G2 Y1.3133 Z0.0333 I0.025 J0.0433
G2 X318.4159 Y1.32 Z0.0 I0.025 J-0.0433
G2 X318.4592 Y1.245 I0.0 J-0.05
G2 X318.3726 I-0.0433 J0.025
G2 X318.4159 Y1.32 I0.0433 J0.025
G0 Z3.0
G0 X289.4659 Y1.27
G1 Z2.3
G2 X289.3909 Y1.2267 Z2.1667 I-0.05 J0.0
G2 Y1.3133 Z2.0333 I0.025 J0.0433
G2 X289.4659 Y1.27 Z1.9 I0.025 J-0.0433
G2 X289.3909 Y1.2267 Z1.7667 I-0.05 J0.0
G2 Y1.3133 Z1.6333 I0.025 J0.0433
G2 X289.4659 Y1.27 Z1.5 I0.025 J-0.0433
G2 X289.3909 Y1.2267 Z1.3667 I-0.05 J0.0
G2 Y1.3133 Z1.2333 I0.025 J0.0433
G2 X289.4659 Y1.27 Z1.1 I0.025 J-0.0433
G2 X289.3909 Y1.2267 Z0.9667 I-0.05 J0.0
G2 Y1.3133 Z0.8333 I0.025 J0.0433
G2 X289.4659 Y1.27 Z0.7 I0.025 J-0.0433
G2 X289.3909 Y1.2267 Z0.5667 I-0.05 J0.0
G2 Y1.3133 Z0.4333 I0.025 J0.0433
G2 X289.4659 Y1.27 Z0.3 I0.025 J-0.0433
G2 X289.3909 Y1.2267 Z0.1667 I-0.05 J0.0
G2 Y1.3133 Z0.0333 I0.025 J0.0433
G2 X289.4159 Y1.32 Z0.0 I0.025 J-0.0433
G2 X289.4592 Y1.245 I0.0 J-0.05
G2 X289.3726 I-0.0433 J0.025
G2 X289.4159 Y1.32 I0.0433 J0.025
G0 Z3.0
G0 X286.9659 Y1.27
G1 Z2.3
G2 X286.8909 Y1.2267 Z2.1667 I-0.05 J0.0
G2 Y1.3133 Z2.0333 I0.025 J0.0433
G2 X286.9659 Y1.27 Z1.9 I0.025 J-0.0433
G2 X286.8909 Y1.2267 Z1.7667 I-0.05 J0.0
G2 Y1.3133 Z1.6333 I0.025 J0.0433
G2 X286.9659 Y1.27 Z1.5 I0.025 J-0.0433
G2 X286.8909 Y1.2267 Z1.3667 I-0.05 J0.0
G2 Y1.3133 Z1.2333 I0.025 J0.0433
G2 X286.9659 Y1.27 Z1.1 I0.025 J-0.0433
G2 X286.8909 Y1.2267 Z0.9667 I-0.05 J0.0
G2 Y1.3133 Z0.8333 I0.025 J0.0433
G2 X286.9659 Y1.27 Z0.7 I0.025 J-0.0433
G2 X286.8909 Y1.2267 Z0.5667 I-0.05 J0.0
G2 Y1.3133 Z0.4333 I0.025 J0.0433
G2 X286.9659 Y1.27 Z0.3 I0.025 J-0.0433
G2 X286.8909 Y1.2267 Z0.1667 I-0.05 J0.0
G2 Y1.3133 Z0.0333 I0.025 J0.0433
G2 X286.9159 Y1.32 Z0.0 I0.025 J-0.0433
G2 X286.9592 Y1.245 I0.0 J-0.05
G2 X286.8726 I-0.0433 J0.025
G2 X286.9159 Y1.32 I0.0433 J0.025
G0 Z3.0
G0 X284.4659 Y1.27
G1 Z2.3
G2 X284.3909 Y1.2267 Z2.1667 I-0.05 J0.0
G2 Y1.3133 Z2.0333 I0.025 J0.0433
G2 X284.4659 Y1.27 Z1.9 I0.025 J-0.0433
G2 X284.3909 Y1.2267 Z1.7667 I-0.05 J0.0
G2 Y1.3133 Z1.6333 I0.025 J0.0433
G2 X284.4659 Y1.27 Z1.5 I0.025 J-0.0433
G2 X284.3909 Y1.2267 Z1.3667 I-0.05 J0.0
G2 Y1.3133 Z1.2333 I0.025 J0.0433
G2 X284.4659 Y1.27 Z1.1 I0.025 J-0.0433
G2 X284.3909 Y1.2267 Z0.9667 I-0.05 J0.0
G2 Y1.3133 Z0.8333 I0.025 J0.0433
G2 X284.4659 Y1.27 Z0.7 I0.025 J-0.0433
G2 X284.3909 Y1.2267 Z0.5667 I-0.05 J0.0
G2 Y1.3133 Z0.4333 I0.025 J0.0433
G2 X284.4659 Y1.27 Z0.3 I0.025 J-0.0433
G2 X284.3909 Y1.2267 Z0.1667 I-0.05 J0.0
G2 Y1.3133 Z0.0333 I0.025 J0.0433
G2 X284.4159 Y1.32 Z0.0 I0.025 J-0.0433
G2 X284.4592 Y1.245 I0.0 J-0.05
G2 X284.3726 I-0.0433 J0.025
G2 X284.4159 Y1.32 I0.0433 J0.025
G0 Z3.0
G0 X286.9659 Y18.89
G1 Z2.3
G2 X286.8909 Y18.8467 Z2.1667 I-0.05 J0.0
G2 Y18.9333 Z2.0333 I0.025 J0.0433
G2 X286.9659 Y18.89 Z1.9 I0.025 J-0.0433
G2 X286.8909 Y18.8467 Z1.7667 I-0.05 J0.0
G2 Y18.9333 Z1.6333 I0.025 J0.0433
G2 X286.9659 Y18.89 Z1.5 I0.025 J-0.0433
G2 X286.8909 Y18.8467 Z1.3667 I-0.05 J0.0
G2 Y18.9333 Z1.2333 I0.025 J0.0433
G2 X286.9659 Y18.89 Z1.1 I0.025 J-0.0433
G2 X286.8909 Y18.8467 Z0.9667 I-0.05 J0.0
G2 Y18.9333 Z0.8333 I0.025 J0.0433
G2 X286.9659 Y18.89 Z0.7 I0.025 J-0.0433
G2 X286.8909 Y18.8467 Z0.5667 I-0.05 J0.0
G2 Y18.9333 Z0.4333 I0.025 J0.0433
G2 X286.9659 Y18.89 Z0.3 I0.025 J-0.0433
G2 X286.8909 Y18.8467 Z0.1667 I-0.05 J0.0
G2 Y18.9333 Z0.0333 I0.025 J0.0433
G2 X286.9159 Y18.94 Z0.0 I0.025 J-0.0433
G2 X286.9592 Y18.865 I0.0 J-0.05
G2 X286.8726 I-0.0433 J0.025
G2 X286.9159 Y18.94 I0.0433 J0.025
G0 Z3.0
G0 X256.9259 Y18.89
G1 Z2.3
G2 X256.8509 Y18.8467 Z2.1667 I-0.05 J0.0
G2 Y18.9333 Z2.0333 I0.025 J0.0433
G2 X256.9259 Y18.89 Z1.9 I0.025 J-0.0433
G2 X256.8509 Y18.8467 Z1.7667 I-0.05 J0.0
G2 Y18.9333 Z1.6333 I0.025 J0.0433
G2 X256.9259 Y18.89 Z1.5 I0.025 J-0.0433
G2 X256.8509 Y18.8467 Z1.3667 I-0.05 J0.0
G2 Y18.9333 Z1.2333 I0.025 J0.0433
G2 X256.9259 Y18.89 Z1.1 I0.025 J-0.0433
G2 X256.8509 Y18.8467 Z0.9667 I-0.05 J0.0
G2 Y18.9333 Z0.8333 I0.025 J0.0433
G2 X256.9259 Y18.89 Z0.7 I0.025 J-0.0433
G2 X256.8509 Y18.8467 Z0.5667 I-0.05 J0.0
G2 Y18.9333 Z0.4333 I0.025 J0.0433
G2 X256.9259 Y18.89 Z0.3 I0.025 J-0.0433
G2 X256.8509 Y18.8467 Z0.1667 I-0.05 J0.0
G2 Y18.9333 Z0.0333 I0.025 J0.0433
G2 X256.8759 Y18.94 Z0.0 I0.025 J-0.0433
G2 X256.9192 Y18.865 I0.0 J-0.05
G2 X256.8326 I-0.0433 J0.025
G2 X256.8759 Y18.94 I0.0433 J0.025
G0 Z3.0
G0 X256.9259 Y21.43
G1 Z2.3
G2 X256.8509 Y21.3867 Z2.1667 I-0.05 J0.0
G2 Y21.4733 Z2.0333 I0.025 J0.0433
G2 X256.9259 Y21.43 Z1.9 I0.025 J-0.0433
G2 X256.8509 Y21.3867 Z1.7667 I-0.05 J0.0
G2 Y21.4733 Z1.6333 I0.025 J0.0433
G2 X256.9259 Y21.43 Z1.5 I0.025 J-0.0433
G2 X256.8509 Y21.3867 Z1.3667 I-0.05 J0.0
G2 Y21.4733 Z1.2333 I0.025 J0.0433
G2 X256.9259 Y21.43 Z1.1 I0.025 J-0.0433
G2 X256.8509 Y21.3867 Z0.9667 I-0.05 J0.0
G2 Y21.4733 Z0.8333 I0.025 J0.0433
G2 X256.9259 Y21.43 Z0.7 I0.025 J-0.0433
G2 X256.8509 Y21.3867 Z0.5667 I-0.05 J0.0
G2 Y21.4733 Z0.4333 I0.025 J0.0433
G2 X256.9259 Y21.43 Z0.3 I0.025 J-0.0433
G2 X256.8509 Y21.3867 Z0.1667 I-0.05 J0.0
G2 Y21.4733 Z0.0333 I0.025 J0.0433
G2 X256.8759 Y21.48 Z0.0 I0.025 J-0.0433
G2 X256.9192 Y21.405 I0.0 J-0.05
G2 X256.8326 I-0.0433 J0.025
G2 X256.8759 Y21.48 I0.0433 J0.025
G0 Z3.0
G0 X256.9259 Y23.97
G1 Z2.3
G2 X256.8509 Y23.9267 Z2.1667 I-0.05 J0.0
G2 Y24.0133 Z2.0333 I0.025 J0.0433
G2 X256.9259 Y23.97 Z1.9 I0.025 J-0.0433
G2 X256.8509 Y23.9267 Z1.7667 I-0.05 J0.0
G2 Y24.0133 Z1.6333 I0.025 J0.0433
G2 X256.9259 Y23.97 Z1.5 I0.025 J-0.0433
G2 X256.8509 Y23.9267 Z1.3667 I-0.05 J0.0
G2 Y24.0133 Z1.2333 I0.025 J0.0433
G2 X256.9259 Y23.97 Z1.1 I0.025 J-0.0433
G2 X256.8509 Y23.9267 Z0.9667 I-0.05 J0.0
G2 Y24.0133 Z0.8333 I0.025 J0.0433
G2 X256.9259 Y23.97 Z0.7 I0.025 J-0.0433
G2 X256.8509 Y23.9267 Z0.5667 I-0.05 J0.0
G2 Y24.0133 Z0.4333 I0.025 J0.0433
G2 X256.9259 Y23.97 Z0.3 I0.025 J-0.0433
G2 X256.8509 Y23.9267 Z0.1667 I-0.05 J0.0
G2 Y24.0133 Z0.0333 I0.025 J0.0433
G2 X256.8759 Y24.02 Z0.0 I0.025 J-0.0433
G2 X256.9192 Y23.945 I0.0 J-0.05
G2 X256.8326 I-0.0433 J0.025
G2 X256.8759 Y24.02 I0.0433 J0.025
G0 Z3.0
G0 X256.9259 Y26.51
G1 Z2.3
G2 X256.8509 Y26.4667 Z2.1667 I-0.05 J0.0
G2 Y26.5533 Z2.0333 I0.025 J0.0433
G2 X256.9259 Y26.51 Z1.9 I0.025 J-0.0433
G2 X256.8509 Y26.4667 Z1.7667 I-0.05 J0.0
G2 Y26.5533 Z1.6333 I0.025 J0.0433
G2 X256.9259 Y26.51 Z1.5 I0.025 J-0.0433
G2 X256.8509 Y26.4667 Z1.3667 I-0.05 J0.0
G2 Y26.5533 Z1.2333 I0.025 J0.0433
G2 X256.9259 Y26.51 Z1.1 I0.025 J-0.0433
G2 X256.8509 Y26.4667 Z0.9667 I-0.05 J0.0
G2 Y26.5533 Z0.8333 I0.025 J0.0433
G2 X256.9259 Y26.51 Z0.7 I0.025 J-0.0433
G2 X256.8509 Y26.4667 Z0.5667 I-0.05 J0.0
G2 Y26.5533 Z0.4333 I0.025 J0.0433
G2 X256.9259 Y26.51 Z0.3 I0.025 J-0.0433
G2 X256.8509 Y26.4667 Z0.1667 I-0.05 J0.0
G2 Y26.5533 Z0.0333 I0.025 J0.0433
G2 X256.8759 Y26.56 Z0.0 I0.025 J-0.0433
G2 X256.9192 Y26.485 I0.0 J-0.05
G2 X256.8326 I-0.0433 J0.025
G2 X256.8759 Y26.56 I0.0433 J0.025
G0 Z3.0
G0 X256.9259 Y29.05
G1 Z2.3
G2 X256.8509 Y29.0067 Z2.1667 I-0.05 J0.0
G2 Y29.0933 Z2.0333 I0.025 J0.0433
G2 X256.9259 Y29.05 Z1.9 I0.025 J-0.0433
G2 X256.8509 Y29.0067 Z1.7667 I-0.05 J0.0
G2 Y29.0933 Z1.6333 I0.025 J0.0433
G2 X256.9259 Y29.05 Z1.5 I0.025 J-0.0433
G2 X256.8509 Y29.0067 Z1.3667 I-0.05 J0.0
G2 Y29.0933 Z1.2333 I0.025 J0.0433
G2 X256.9259 Y29.05 Z1.1 I0.025 J-0.0433
G2 X256.8509 Y29.0067 Z0.9667 I-0.05 J0.0
G2 Y29.0933 Z0.8333 I0.025 J0.0433
G2 X256.9259 Y29.05 Z0.7 I0.025 J-0.0433
G2 X256.8509 Y29.0067 Z0.5667 I-0.05 J0.0
G2 Y29.0933 Z0.4333 I0.025 J0.0433
G2 X256.9259 Y29.05 Z0.3 I0.025 J-0.0433
G2 X256.8509 Y29.0067 Z0.1667 I-0.05 J0.0
G2 Y29.0933 Z0.0333 I0.025 J0.0433
G2 X256.8759 Y29.1 Z0.0 I0.025 J-0.0433
G2 X256.9192 Y29.025 I0.0 J-0.05
G2 X256.8326 I-0.0433 J0.025
G2 X256.8759 Y29.1 I0.0433 J0.025
G0 Z3.0
G0 X256.9259 Y31.59
G1 Z2.3
G2 X256.8509 Y31.5467 Z2.1667 I-0.05 J0.0
G2 Y31.6333 Z2.0333 I0.025 J0.0433
G2 X256.9259 Y31.59 Z1.9 I0.025 J-0.0433
G2 X256.8509 Y31.5467 Z1.7667 I-0.05 J0.0
G2 Y31.6333 Z1.6333 I0.025 J0.0433
G2 X256.9259 Y31.59 Z1.5 I0.025 J-0.0433
G2 X256.8509 Y31.5467 Z1.3667 I-0.05 J0.0
G2 Y31.6333 Z1.2333 I0.025 J0.0433
G2 X256.9259 Y31.59 Z1.1 I0.025 J-0.0433
G2 X256.8509 Y31.5467 Z0.9667 I-0.05 J0.0
G2 Y31.6333 Z0.8333 I0.025 J0.0433
G2 X256.9259 Y31.59 Z0.7 I0.025 J-0.0433
G2 X256.8509 Y31.5467 Z0.5667 I-0.05 J0.0
G2 Y31.6333 Z0.4333 I0.025 J0.0433
G2 X256.9259 Y31.59 Z0.3 I0.025 J-0.0433
G2 X256.8509 Y31.5467 Z0.1667 I-0.05 J0.0
G2 Y31.6333 Z0.0333 I0.025 J0.0433
G2 X256.8759 Y31.64 Z0.0 I0.025 J-0.0433
G2 X256.9192 Y31.565 I0.0 J-0.05
G2 X256.8326 I-0.0433 J0.025
G2 X256.8759 Y31.64 I0.0433 J0.025
G0 Z3.0
G0 X256.9259 Y34.13
G1 Z2.3
G2 X256.8509 Y34.0867 Z2.1667 I-0.05 J0.0
G2 Y34.1733 Z2.0333 I0.025 J0.0433
G2 X256.9259 Y34.13 Z1.9 I0.025 J-0.0433
G2 X256.8509 Y34.0867 Z1.7667 I-0.05 J0.0
G2 Y34.1733 Z1.6333 I0.025 J0.0433
G2 X256.9259 Y34.13 Z1.5 I0.025 J-0.0433
G2 X256.8509 Y34.0867 Z1.3667 I-0.05 J0.0
G2 Y34.1733 Z1.2333 I0.025 J0.0433
G2 X256.9259 Y34.13 Z1.1 I0.025 J-0.0433
G2 X256.8509 Y34.0867 Z0.9667 I-0.05 J0.0
G2 Y34.1733 Z0.8333 I0.025 J0.0433
G2 X256.9259 Y34.13 Z0.7 I0.025 J-0.0433
G2 X256.8509 Y34.0867 Z0.5667 I-0.05 J0.0
G2 Y34.1733 Z0.4333 I0.025 J0.0433
G2 X256.9259 Y34.13 Z0.3 I0.025 J-0.0433
G2 X256.8509 Y34.0867 Z0.1667 I-0.05 J0.0
G2 Y34.1733 Z0.0333 I0.025 J0.0433
G2 X256.8759 Y34.18 Z0.0 I0.025 J-0.0433
G2 X256.9192 Y34.105 I0.0 J-0.05
G2 X256.8326 I-0.0433 J0.025
G2 X256.8759 Y34.18 I0.0433 J0.025
G0 Z3.0
G0 X256.9259 Y36.67
G1 Z2.3
G2 X256.8509 Y36.6267 Z2.1667 I-0.05 J0.0
G2 Y36.7133 Z2.0333 I0.025 J0.0433
G2 X256.9259 Y36.67 Z1.9 I0.025 J-0.0433
G2 X256.8509 Y36.6267 Z1.7667 I-0.05 J0.0
G2 Y36.7133 Z1.6333 I0.025 J0.0433
G2 X256.9259 Y36.67 Z1.5 I0.025 J-0.0433
G2 X256.8509 Y36.6267 Z1.3667 I-0.05 J0.0
G2 Y36.7133 Z1.2333 I0.025 J0.0433
G2 X256.9259 Y36.67 Z1.1 I0.025 J-0.0433
G2 X256.8509 Y36.6267 Z0.9667 I-0.05 J0.0
G2 Y36.7133 Z0.8333 I0.025 J0.0433
G2 X256.9259 Y36.67 Z0.7 I0.025 J-0.0433
G2 X256.8509 Y36.6267 Z0.5667 I-0.05 J0.0
G2 Y36.7133 Z0.4333 I0.025 J0.0433
G2 X256.9259 Y36.67 Z0.3 I0.025 J-0.0433
G2 X256.8509 Y36.6267 Z0.1667 I-0.05 J0.0
G2 Y36.7133 Z0.0333 I0.025 J0.0433
G2 X256.8759 Y36.72 Z0.0 I0.025 J-0.0433
G2 X256.9192 Y36.645 I0.0 J-0.05
G2 X256.8326 I-0.0433 J0.025
G2 X256.8759 Y36.72 I0.0433 J0.025
G0 Z3.0
G0 X256.9259 Y16.35
G1 Z2.3
G2 X256.8509 Y16.3067 Z2.1667 I-0.05 J0.0
G2 Y16.3933 Z2.0333 I0.025 J0.0433
G2 X256.9259 Y16.35 Z1.9 I0.025 J-0.0433
G2 X256.8509 Y16.3067 Z1.7667 I-0.05 J0.0
G2 Y16.3933 Z1.6333 I0.025 J0.0433
G2 X256.9259 Y16.35 Z1.5 I0.025 J-0.0433
G2 X256.8509 Y16.3067 Z1.3667 I-0.05 J0.0
G2 Y16.3933 Z1.2333 I0.025 J0.0433
G2 X256.9259 Y16.35 Z1.1 I0.025 J-0.0433
G2 X256.8509 Y16.3067 Z0.9667 I-0.05 J0.0
G2 Y16.3933 Z0.8333 I0.025 J0.0433
G2 X256.9259 Y16.35 Z0.7 I0.025 J-0.0433
G2 X256.8509 Y16.3067 Z0.5667 I-0.05 J0.0
G2 Y16.3933 Z0.4333 I0.025 J0.0433
G2 X256.9259 Y16.35 Z0.3 I0.025 J-0.0433
G2 X256.8509 Y16.3067 Z0.1667 I-0.05 J0.0
G2 Y16.3933 Z0.0333 I0.025 J0.0433
G2 X256.8759 Y16.4 Z0.0 I0.025 J-0.0433
G2 X256.9192 Y16.325 I0.0 J-0.05
G2 X256.8326 I-0.0433 J0.025
G2 X256.8759 Y16.4 I0.0433 J0.025
G0 Z3.0
G0 X256.9259 Y13.81
G1 Z2.3
G2 X256.8509 Y13.7667 Z2.1667 I-0.05 J0.0
G2 Y13.8533 Z2.0333 I0.025 J0.0433
G2 X256.9259 Y13.81 Z1.9 I0.025 J-0.0433
G2 X256.8509 Y13.7667 Z1.7667 I-0.05 J0.0
G2 Y13.8533 Z1.6333 I0.025 J0.0433
G2 X256.9259 Y13.81 Z1.5 I0.025 J-0.0433
G2 X256.8509 Y13.7667 Z1.3667 I-0.05 J0.0
G2 Y13.8533 Z1.2333 I0.025 J0.0433
G2 X256.9259 Y13.81 Z1.1 I0.025 J-0.0433
G2 X256.8509 Y13.7667 Z0.9667 I-0.05 J0.0
G2 Y13.8533 Z0.8333 I0.025 J0.0433
G2 X256.9259 Y13.81 Z0.7 I0.025 J-0.0433
G2 X256.8509 Y13.7667 Z0.5667 I-0.05 J0.0
G2 Y13.8533 Z0.4333 I0.025 J0.0433
G2 X256.9259 Y13.81 Z0.3 I0.025 J-0.0433
G2 X256.8509 Y13.7667 Z0.1667 I-0.05 J0.0
G2 Y13.8533 Z0.0333 I0.025 J0.0433
G2 X256.8759 Y13.86 Z0.0 I0.025 J-0.0433
G2 X256.9192 Y13.785 I0.0 J-0.05
G2 X256.8326 I-0.0433 J0.025
G2 X256.8759 Y13.86 I0.0433 J0.025
G0 Z3.0
G0 X256.9259 Y11.27
G1 Z2.3
G2 X256.8509 Y11.2267 Z2.1667 I-0.05 J0.0
G2 Y11.3133 Z2.0333 I0.025 J0.0433
G2 X256.9259 Y11.27 Z1.9 I0.025 J-0.0433
G2 X256.8509 Y11.2267 Z1.7667 I-0.05 J0.0
G2 Y11.3133 Z1.6333 I0.025 J0.0433
G2 X256.9259 Y11.27 Z1.5 I0.025 J-0.0433
G2 X256.8509 Y11.2267 Z1.3667 I-0.05 J0.0
G2 Y11.3133 Z1.2333 I0.025 J0.0433
G2 X256.9259 Y11.27 Z1.1 I0.025 J-0.0433
G2 X256.8509 Y11.2267 Z0.9667 I-0.05 J0.0
G2 Y11.3133 Z0.8333 I0.025 J0.0433
G2 X256.9259 Y11.27 Z0.7 I0.025 J-0.0433
G2 X256.8509 Y11.2267 Z0.5667 I-0.05 J0.0
G2 Y11.3133 Z0.4333 I0.025 J0.0433
G2 X256.9259 Y11.27 Z0.3 I0.025 J-0.0433
G2 X256.8509 Y11.2267 Z0.1667 I-0.05 J0.0
G2 Y11.3133 Z0.0333 I0.025 J0.0433
G2 X256.8759 Y11.32 Z0.0 I0.025 J-0.0433
G2 X256.9192 Y11.245 I0.0 J-0.05
G2 X256.8326 I-0.0433 J0.025
G2 X256.8759 Y11.32 I0.0433 J0.025
G0 Z3.0
G0 X259.4659 Y1.27
G1 Z2.3
G2 X259.3909 Y1.2267 Z2.1667 I-0.05 J0.0
G2 Y1.3133 Z2.0333 I0.025 J0.0433
G2 X259.4659 Y1.27 Z1.9 I0.025 J-0.0433
G2 X259.3909 Y1.2267 Z1.7667 I-0.05 J0.0
G2 Y1.3133 Z1.6333 I0.025 J0.0433
G2 X259.4659 Y1.27 Z1.5 I0.025 J-0.0433
G2 X259.3909 Y1.2267 Z1.3667 I-0.05 J0.0
G2 Y1.3133 Z1.2333 I0.025 J0.0433
G2 X259.4659 Y1.27 Z1.1 I0.025 J-0.0433
G2 X259.3909 Y1.2267 Z0.9667 I-0.05 J0.0
G2 Y1.3133 Z0.8333 I0.025 J0.0433
G2 X259.4659 Y1.27 Z0.7 I0.025 J-0.0433
G2 X259.3909 Y1.2267 Z0.5667 I-0.05 J0.0
G2 Y1.3133 Z0.4333 I0.025 J0.0433
G2 X259.4659 Y1.27 Z0.3 I0.025 J-0.0433
G2 X259.3909 Y1.2267 Z0.1667 I-0.05 J0.0
G2 Y1.3133 Z0.0333 I0.025 J0.0433
G2 X259.4159 Y1.32 Z0.0 I0.025 J-0.0433
G2 X259.4592 Y1.245 I0.0 J-0.05
G2 X259.3726 I-0.0433 J0.025
G2 X259.4159 Y1.32 I0.0433 J0.025
G0 Z3.0
G0 X227.0459 Y1.27
G1 Z2.3
G2 X226.9709 Y1.2267 Z2.1667 I-0.05 J0.0
G2 Y1.3133 Z2.0333 I0.025 J0.0433
G2 X227.0459 Y1.27 Z1.9 I0.025 J-0.0433
G2 X226.9709 Y1.2267 Z1.7667 I-0.05 J0.0
G2 Y1.3133 Z1.6333 I0.025 J0.0433
G2 X227.0459 Y1.27 Z1.5 I0.025 J-0.0433
G2 X226.9709 Y1.2267 Z1.3667 I-0.05 J0.0
G2 Y1.3133 Z1.2333 I0.025 J0.0433
G2 X227.0459 Y1.27 Z1.1 I0.025 J-0.0433
G2 X226.9709 Y1.2267 Z0.9667 I-0.05 J0.0
G2 Y1.3133 Z0.8333 I0.025 J0.0433
G2 X227.0459 Y1.27 Z0.7 I0.025 J-0.0433
G2 X226.9709 Y1.2267 Z0.5667 I-0.05 J0.0
G2 Y1.3133 Z0.4333 I0.025 J0.0433
G2 X227.0459 Y1.27 Z0.3 I0.025 J-0.0433
G2 X226.9709 Y1.2267 Z0.1667 I-0.05 J0.0
G2 Y1.3133 Z0.0333 I0.025 J0.0433
G2 X226.9959 Y1.32 Z0.0 I0.025 J-0.0433
G2 X227.0392 Y1.245 I0.0 J-0.05
G2 X226.9526 I-0.0433 J0.025
G2 X226.9959 Y1.32 I0.0433 J0.025
G0 Z3.0
G0 X224.5059 Y1.27
G1 Z2.3
G2 X224.4309 Y1.2267 Z2.1667 I-0.05 J0.0
G2 Y1.3133 Z2.0333 I0.025 J0.0433
G2 X224.5059 Y1.27 Z1.9 I0.025 J-0.0433
G2 X224.4309 Y1.2267 Z1.7667 I-0.05 J0.0
G2 Y1.3133 Z1.6333 I0.025 J0.0433
G2 X224.5059 Y1.27 Z1.5 I0.025 J-0.0433
G2 X224.4309 Y1.2267 Z1.3667 I-0.05 J0.0
G2 Y1.3133 Z1.2333 I0.025 J0.0433
G2 X224.5059 Y1.27 Z1.1 I0.025 J-0.0433
G2 X224.4309 Y1.2267 Z0.9667 I-0.05 J0.0
G2 Y1.3133 Z0.8333 I0.025 J0.0433
G2 X224.5059 Y1.27 Z0.7 I0.025 J-0.0433
G2 X224.4309 Y1.2267 Z0.5667 I-0.05 J0.0
G2 Y1.3133 Z0.4333 I0.025 J0.0433
G2 X224.5059 Y1.27 Z0.3 I0.025 J-0.0433
G2 X224.4309 Y1.2267 Z0.1667 I-0.05 J0.0
G2 Y1.3133 Z0.0333 I0.025 J0.0433
G2 X224.4559 Y1.32 Z0.0 I0.025 J-0.0433
G2 X224.4992 Y1.245 I0.0 J-0.05
G2 X224.4126 I-0.0433 J0.025
G2 X224.4559 Y1.32 I0.0433 J0.025
G0 Z3.0
G0 X221.9659 Y1.27
G1 Z2.3
G2 X221.8909 Y1.2267 Z2.1667 I-0.05 J0.0
G2 Y1.3133 Z2.0333 I0.025 J0.0433
G2 X221.9659 Y1.27 Z1.9 I0.025 J-0.0433
G2 X221.8909 Y1.2267 Z1.7667 I-0.05 J0.0
G2 Y1.3133 Z1.6333 I0.025 J0.0433
G2 X221.9659 Y1.27 Z1.5 I0.025 J-0.0433
G2 X221.8909 Y1.2267 Z1.3667 I-0.05 J0.0
G2 Y1.3133 Z1.2333 I0.025 J0.0433
G2 X221.9659 Y1.27 Z1.1 I0.025 J-0.0433
G2 X221.8909 Y1.2267 Z0.9667 I-0.05 J0.0
G2 Y1.3133 Z0.8333 I0.025 J0.0433
G2 X221.9659 Y1.27 Z0.7 I0.025 J-0.0433
G2 X221.8909 Y1.2267 Z0.5667 I-0.05 J0.0
G2 Y1.3133 Z0.4333 I0.025 J0.0433
G2 X221.9659 Y1.27 Z0.3 I0.025 J-0.0433
G2 X221.8909 Y1.2267 Z0.1667 I-0.05 J0.0
G2 Y1.3133 Z0.0333 I0.025 J0.0433
G2 X221.9159 Y1.32 Z0.0 I0.025 J-0.0433
G2 X221.9592 Y1.245 I0.0 J-0.05
G2 X221.8726 I-0.0433 J0.025
G2 X221.9159 Y1.32 I0.0433 J0.025
G0 Z3.0
G0 X227.0459 Y11.27
G1 Z2.3
G2 X226.9709 Y11.2267 Z2.1667 I-0.05 J0.0
G2 Y11.3133 Z2.0333 I0.025 J0.0433
G2 X227.0459 Y11.27 Z1.9 I0.025 J-0.0433
G2 X226.9709 Y11.2267 Z1.7667 I-0.05 J0.0
G2 Y11.3133 Z1.6333 I0.025 J0.0433
G2 X227.0459 Y11.27 Z1.5 I0.025 J-0.0433
G2 X226.9709 Y11.2267 Z1.3667 I-0.05 J0.0
G2 Y11.3133 Z1.2333 I0.025 J0.0433
G2 X227.0459 Y11.27 Z1.1 I0.025 J-0.0433
G2 X226.9709 Y11.2267 Z0.9667 I-0.05 J0.0
G2 Y11.3133 Z0.8333 I0.025 J0.0433
G2 X227.0459 Y11.27 Z0.7 I0.025 J-0.0433
G2 X226.9709 Y11.2267 Z0.5667 I-0.05 J0.0
G2 Y11.3133 Z0.4333 I0.025 J0.0433
G2 X227.0459 Y11.27 Z0.3 I0.025 J-0.0433
G2 X226.9709 Y11.2267 Z0.1667 I-0.05 J0.0
G2 Y11.3133 Z0.0333 I0.025 J0.0433
G2 X226.9959 Y11.32 Z0.0 I0.025 J-0.0433
G2 X227.0392 Y11.245 I0.0 J-0.05
G2 X226.9526 I-0.0433 J0.025
G2 X226.9959 Y11.32 I0.0433 J0.025
G0 Z3.0
G0 X227.0459 Y13.81
G1 Z2.3
G2 X226.9709 Y13.7667 Z2.1667 I-0.05 J0.0
G2 Y13.8533 Z2.0333 I0.025 J0.0433
G2 X227.0459 Y13.81 Z1.9 I0.025 J-0.0433
G2 X226.9709 Y13.7667 Z1.7667 I-0.05 J0.0
G2 Y13.8533 Z1.6333 I0.025 J0.0433
G2 X227.0459 Y13.81 Z1.5 I0.025 J-0.0433
G2 X226.9709 Y13.7667 Z1.3667 I-0.05 J0.0
G2 Y13.8533 Z1.2333 I0.025 J0.0433
G2 X227.0459 Y13.81 Z1.1 I0.025 J-0.0433
G2 X226.9709 Y13.7667 Z0.9667 I-0.05 J0.0
G2 Y13.8533 Z0.8333 I0.025 J0.0433
G2 X227.0459 Y13.81 Z0.7 I0.025 J-0.0433
G2 X226.9709 Y13.7667 Z0.5667 I-0.05 J0.0
G2 Y13.8533 Z0.4333 I0.025 J0.0433
G2 X227.0459 Y13.81 Z0.3 I0.025 J-0.0433
G2 X226.9709 Y13.7667 Z0.1667 I-0.05 J0.0
G2 Y13.8533 Z0.0333 I0.025 J0.0433
G2 X226.9959 Y13.86 Z0.0 I0.025 J-0.0433
G2 X227.0392 Y13.785 I0.0 J-0.05
G2 X226.9526 I-0.0433 J0.025
G2 X226.9959 Y13.86 I0.0433 J0.025
G0 Z3.0
G0 X227.0459 Y16.35
G1 Z2.3
G2 X226.9709 Y16.3067 Z2.1667 I-0.05 J0.0
G2 Y16.3933 Z2.0333 I0.025 J0.0433
G2 X227.0459 Y16.35 Z1.9 I0.025 J-0.0433
G2 X226.9709 Y16.3067 Z1.7667 I-0.05 J0.0
G2 Y16.3933 Z1.6333 I0.025 J0.0433
G2 X227.0459 Y16.35 Z1.5 I0.025 J-0.0433
G2 X226.9709 Y16.3067 Z1.3667 I-0.05 J0.0
G2 Y16.3933 Z1.2333 I0.025 J0.0433
G2 X227.0459 Y16.35 Z1.1 I0.025 J-0.0433
G2 X226.9709 Y16.3067 Z0.9667 I-0.05 J0.0
G2 Y16.3933 Z0.8333 I0.025 J0.0433
G2 X227.0459 Y16.35 Z0.7 I0.025 J-0.0433
G2 X226.9709 Y16.3067 Z0.5667 I-0.05 J0.0
G2 Y16.3933 Z0.4333 I0.025 J0.0433
G2 X227.0459 Y16.35 Z0.3 I0.025 J-0.0433
G2 X226.9709 Y16.3067 Z0.1667 I-0.05 J0.0
G2 Y16.3933 Z0.0333 I0.025 J0.0433
G2 X226.9959 Y16.4 Z0.0 I0.025 J-0.0433
G2 X227.0392 Y16.325 I0.0 J-0.05
G2 X226.9526 I-0.0433 J0.025
G2 X226.9959 Y16.4 I0.0433 J0.025
G0 Z3.0
G0 X227.0459 Y18.89
G1 Z2.3
G2 X226.9709 Y18.8467 Z2.1667 I-0.05 J0.0
G2 Y18.9333 Z2.0333 I0.025 J0.0433
G2 X227.0459 Y18.89 Z1.9 I0.025 J-0.0433
G2 X226.9709 Y18.8467 Z1.7667 I-0.05 J0.0
G2 Y18.9333 Z1.6333 I0.025 J0.0433
G2 X227.0459 Y18.89 Z1.5 I0.025 J-0.0433
G2 X226.9709 Y18.8467 Z1.3667 I-0.05 J0.0
G2 Y18.9333 Z1.2333 I0.025 J0.0433
G2 X227.0459 Y18.89 Z1.1 I0.025 J-0.0433
G2 X226.9709 Y18.8467 Z0.9667 I-0.05 J0.0
G2 Y18.9333 Z0.8333 I0.025 J0.0433
G2 X227.0459 Y18.89 Z0.7 I0.025 J-0.0433
G2 X226.9709 Y18.8467 Z0.5667 I-0.05 J0.0
G2 Y18.9333 Z0.4333 I0.025 J0.0433
G2 X227.0459 Y18.89 Z0.3 I0.025 J-0.0433
G2 X226.9709 Y18.8467 Z0.1667 I-0.05 J0.0
G2 Y18.9333 Z0.0333 I0.025 J0.0433
G2 X226.9959 Y18.94 Z0.0 I0.025 J-0.0433
G2 X227.0392 Y18.865 I0.0 J-0.05
G2 X226.9526 I-0.0433 J0.025
G2 X226.9959 Y18.94 I0.0433 J0.025
G0 Z3.0
G0 X227.0459 Y21.43
G1 Z2.3
G2 X226.9709 Y21.3867 Z2.1667 I-0.05 J0.0
G2 Y21.4733 Z2.0333 I0.025 J0.0433
G2 X227.0459 Y21.43 Z1.9 I0.025 J-0.0433
G2 X226.9709 Y21.3867 Z1.7667 I-0.05 J0.0
G2 Y21.4733 Z1.6333 I0.025 J0.0433
G2 X227.0459 Y21.43 Z1.5 I0.025 J-0.0433
G2 X226.9709 Y21.3867 Z1.3667 I-0.05 J0.0
G2 Y21.4733 Z1.2333 I0.025 J0.0433
G2 X227.0459 Y21.43 Z1.1 I0.025 J-0.0433
G2 X226.9709 Y21.3867 Z0.9667 I-0.05 J0.0
G2 Y21.4733 Z0.8333 I0.025 J0.0433
G2 X227.0459 Y21.43 Z0.7 I0.025 J-0.0433
G2 X226.9709 Y21.3867 Z0.5667 I-0.05 J0.0
G2 Y21.4733 Z0.4333 I0.025 J0.0433
G2 X227.0459 Y21.43 Z0.3 I0.025 J-0.0433
G2 X226.9709 Y21.3867 Z0.1667 I-0.05 J0.0
G2 Y21.4733 Z0.0333 I0.025 J0.0433
G2 X226.9959 Y21.48 Z0.0 I0.025 J-0.0433
G2 X227.0392 Y21.405 I0.0 J-0.05
G2 X226.9526 I-0.0433 J0.025
G2 X226.9959 Y21.48 I0.0433 J0.025
G0 Z3.0
G0 X224.5059 Y21.43
G1 Z2.3
G2 X224.4309 Y21.3867 Z2.1667 I-0.05 J0.0
G2 Y21.4733 Z2.0333 I0.025 J0.0433
G2 X224.5059 Y21.43 Z1.9 I0.025 J-0.0433
G2 X224.4309 Y21.3867 Z1.7667 I-0.05 J0.0
G2 Y21.4733 Z1.6333 I0.025 J0.0433
G2 X224.5059 Y21.43 Z1.5 I0.025 J-0.0433
G2 X224.4309 Y21.3867 Z1.3667 I-0.05 J0.0
G2 Y21.4733 Z1.2333 I0.025 J0.0433
G2 X224.5059 Y21.43 Z1.1 I0.025 J-0.0433
G2 X224.4309 Y21.3867 Z0.9667 I-0.05 J0.0
G2 Y21.4733 Z0.8333 I0.025 J0.0433
G2 X224.5059 Y21.43 Z0.7 I0.025 J-0.0433
G2 X224.4309 Y21.3867 Z0.5667 I-0.05 J0.0
G2 Y21.4733 Z0.4333 I0.025 J0.0433
G2 X224.5059 Y21.43 Z0.3 I0.025 J-0.0433
G2 X224.4309 Y21.3867 Z0.1667 I-0.05 J0.0
G2 Y21.4733 Z0.0333 I0.025 J0.0433
G2 X224.4559 Y21.48 Z0.0 I0.025 J-0.0433
G2 X224.4992 Y21.405 I0.0 J-0.05
G2 X224.4126 I-0.0433 J0.025
G2 X224.4559 Y21.48 I0.0433 J0.025
G0 Z3.0
G0 X227.0459 Y23.97
G1 Z2.3
G2 X226.9709 Y23.9267 Z2.1667 I-0.05 J0.0
G2 Y24.0133 Z2.0333 I0.025 J0.0433
G2 X227.0459 Y23.97 Z1.9 I0.025 J-0.0433
G2 X226.9709 Y23.9267 Z1.7667 I-0.05 J0.0
G2 Y24.0133 Z1.6333 I0.025 J0.0433
G2 X227.0459 Y23.97 Z1.5 I0.025 J-0.0433
G2 X226.9709 Y23.9267 Z1.3667 I-0.05 J0.0
G2 Y24.0133 Z1.2333 I0.025 J0.0433
G2 X227.0459 Y23.97 Z1.1 I0.025 J-0.0433
G2 X226.9709 Y23.9267 Z0.9667 I-0.05 J0.0
G2 Y24.0133 Z0.8333 I0.025 J0.0433
G2 X227.0459 Y23.97 Z0.7 I0.025 J-0.0433
G2 X226.9709 Y23.9267 Z0.5667 I-0.05 J0.0
G2 Y24.0133 Z0.4333 I0.025 J0.0433
G2 X227.0459 Y23.97 Z0.3 I0.025 J-0.0433
G2 X226.9709 Y23.9267 Z0.1667 I-0.05 J0.0
G2 Y24.0133 Z0.0333 I0.025 J0.0433
G2 X226.9959 Y24.02 Z0.0 I0.025 J-0.0433
G2 X227.0392 Y23.945 I0.0 J-0.05
G2 X226.9526 I-0.0433 J0.025
G2 X226.9959 Y24.02 I0.0433 J0.025
G0 Z3.0
G0 X227.0459 Y26.51
G1 Z2.3
G2 X226.9709 Y26.4667 Z2.1667 I-0.05 J0.0
G2 Y26.5533 Z2.0333 I0.025 J0.0433
G2 X227.0459 Y26.51 Z1.9 I0.025 J-0.0433
G2 X226.9709 Y26.4667 Z1.7667 I-0.05 J0.0
G2 Y26.5533 Z1.6333 I0.025 J0.0433
G2 X227.0459 Y26.51 Z1.5 I0.025 J-0.0433
G2 X226.9709 Y26.4667 Z1.3667 I-0.05 J0.0
G2 Y26.5533 Z1.2333 I0.025 J0.0433
G2 X227.0459 Y26.51 Z1.1 I0.025 J-0.0433
G2 X226.9709 Y26.4667 Z0.9667 I-0.05 J0.0
G2 Y26.5533 Z0.8333 I0.025 J0.0433
G2 X227.0459 Y26.51 Z0.7 I0.025 J-0.0433
G2 X226.9709 Y26.4667 Z0.5667 I-0.05 J0.0
G2 Y26.5533 Z0.4333 I0.025 J0.0433
G2 X227.0459 Y26.51 Z0.3 I0.025 J-0.0433
G2 X226.9709 Y26.4667 Z0.1667 I-0.05 J0.0
G2 Y26.5533 Z0.0333 I0.025 J0.0433
G2 X226.9959 Y26.56 Z0.0 I0.025 J-0.0433
G2 X227.0392 Y26.485 I0.0 J-0.05
G2 X226.9526 I-0.0433 J0.025
G2 X226.9959 Y26.56 I0.0433 J0.025
G0 Z3.0
G0 X227.0459 Y29.05
G1 Z2.3
G2 X226.9709 Y29.0067 Z2.1667 I-0.05 J0.0
G2 Y29.0933 Z2.0333 I0.025 J0.0433
G2 X227.0459 Y29.05 Z1.9 I0.025 J-0.0433
G2 X226.9709 Y29.0067 Z1.7667 I-0.05 J0.0
G2 Y29.0933 Z1.6333 I0.025 J0.0433
G2 X227.0459 Y29.05 Z1.5 I0.025 J-0.0433
G2 X226.9709 Y29.0067 Z1.3667 I-0.05 J0.0
G2 Y29.0933 Z1.2333 I0.025 J0.0433
G2 X227.0459 Y29.05 Z1.1 I0.025 J-0.0433
G2 X226.9709 Y29.0067 Z0.9667 I-0.05 J0.0
G2 Y29.0933 Z0.8333 I0.025 J0.0433
G2 X227.0459 Y29.05 Z0.7 I0.025 J-0.0433
G2 X226.9709 Y29.0067 Z0.5667 I-0.05 J0.0
G2 Y29.0933 Z0.4333 I0.025 J0.0433
G2 X227.0459 Y29.05 Z0.3 I0.025 J-0.0433
G2 X226.9709 Y29.0067 Z0.1667 I-0.05 J0.0
G2 Y29.0933 Z0.0333 I0.025 J0.0433
G2 X226.9959 Y29.1 Z0.0 I0.025 J-0.0433
G2 X227.0392 Y29.025 I0.0 J-0.05
G2 X226.9526 I-0.0433 J0.025
G2 X226.9959 Y29.1 I0.0433 J0.025
G0 Z3.0
G0 X227.0459 Y31.59
G1 Z2.3
G2 X226.9709 Y31.5467 Z2.1667 I-0.05 J0.0
G2 Y31.6333 Z2.0333 I0.025 J0.0433
G2 X227.0459 Y31.59 Z1.9 I0.025 J-0.0433
G2 X226.9709 Y31.5467 Z1.7667 I-0.05 J0.0
G2 Y31.6333 Z1.6333 I0.025 J0.0433
G2 X227.0459 Y31.59 Z1.5 I0.025 J-0.0433
G2 X226.9709 Y31.5467 Z1.3667 I-0.05 J0.0
G2 Y31.6333 Z1.2333 I0.025 J0.0433
G2 X227.0459 Y31.59 Z1.1 I0.025 J-0.0433
G2 X226.9709 Y31.5467 Z0.9667 I-0.05 J0.0
G2 Y31.6333 Z0.8333 I0.025 J0.0433
G2 X227.0459 Y31.59 Z0.7 I0.025 J-0.0433
G2 X226.9709 Y31.5467 Z0.5667 I-0.05 J0.0
G2 Y31.6333 Z0.4333 I0.025 J0.0433
G2 X227.0459 Y31.59 Z0.3 I0.025 J-0.0433
G2 X226.9709 Y31.5467 Z0.1667 I-0.05 J0.0
G2 Y31.6333 Z0.0333 I0.025 J0.0433
G2 X226.9959 Y31.64 Z0.0 I0.025 J-0.0433
G2 X227.0392 Y31.565 I0.0 J-0.05
G2 X226.9526 I-0.0433 J0.025
G2 X226.9959 Y31.64 I0.0433 J0.025
G0 Z3.0
G0 X227.0459 Y34.13
G1 Z2.3
G2 X226.9709 Y34.0867 Z2.1667 I-0.05 J0.0
G2 Y34.1733 Z2.0333 I0.025 J0.0433
G2 X227.0459 Y34.13 Z1.9 I0.025 J-0.0433
G2 X226.9709 Y34.0867 Z1.7667 I-0.05 J0.0
G2 Y34.1733 Z1.6333 I0.025 J0.0433
G2 X227.0459 Y34.13 Z1.5 I0.025 J-0.0433
G2 X226.9709 Y34.0867 Z1.3667 I-0.05 J0.0
G2 Y34.1733 Z1.2333 I0.025 J0.0433
G2 X227.0459 Y34.13 Z1.1 I0.025 J-0.0433
G2 X226.9709 Y34.0867 Z0.9667 I-0.05 J0.0
G2 Y34.1733 Z0.8333 I0.025 J0.0433
G2 X227.0459 Y34.13 Z0.7 I0.025 J-0.0433
G2 X226.9709 Y34.0867 Z0.5667 I-0.05 J0.0
G2 Y34.1733 Z0.4333 I0.025 J0.0433
G2 X227.0459 Y34.13 Z0.3 I0.025 J-0.0433
G2 X226.9709 Y34.0867 Z0.1667 I-0.05 J0.0
G2 Y34.1733 Z0.0333 I0.025 J0.0433
G2 X226.9959 Y34.18 Z0.0 I0.025 J-0.0433
G2 X227.0392 Y34.105 I0.0 J-0.05
G2 X226.9526 I-0.0433 J0.025
G2 X226.9959 Y34.18 I0.0433 J0.025
G0 Z3.0
G0 X227.0459 Y36.67
G1 Z2.3
G2 X226.9709 Y36.6267 Z2.1667 I-0.05 J0.0
G2 Y36.7133 Z2.0333 I0.025 J0.0433
G2 X227.0459 Y36.67 Z1.9 I0.025 J-0.0433
G2 X226.9709 Y36.6267 Z1.7667 I-0.05 J0.0
G2 Y36.7133 Z1.6333 I0.025 J0.0433
G2 X227.0459 Y36.67 Z1.5 I0.025 J-0.0433
G2 X226.9709 Y36.6267 Z1.3667 I-0.05 J0.0
G2 Y36.7133 Z1.2333 I0.025 J0.0433
G2 X227.0459 Y36.67 Z1.1 I0.025 J-0.0433
G2 X226.9709 Y36.6267 Z0.9667 I-0.05 J0.0
G2 Y36.7133 Z0.8333 I0.025 J0.0433
G2 X227.0459 Y36.67 Z0.7 I0.025 J-0.0433
G2 X226.9709 Y36.6267 Z0.5667 I-0.05 J0.0
G2 Y36.7133 Z0.4333 I0.025 J0.0433
G2 X227.0459 Y36.67 Z0.3 I0.025 J-0.0433
G2 X226.9709 Y36.6267 Z0.1667 I-0.05 J0.0
G2 Y36.7133 Z0.0333 I0.025 J0.0433
G2 X226.9959 Y36.72 Z0.0 I0.025 J-0.0433
G2 X227.0392 Y36.645 I0.0 J-0.05
G2 X226.9526 I-0.0433 J0.025
G2 X226.9959 Y36.72 I0.0433 J0.025
G0 Z3.0
G0 X226.97 Y42.27
G1 Z2.3
G2 X226.895 Y42.2267 Z2.1667 I-0.05 J0.0
G2 Y42.3133 Z2.0333 I0.025 J0.0433
G2 X226.97 Y42.27 Z1.9 I0.025 J-0.0433
G2 X226.895 Y42.2267 Z1.7667 I-0.05 J0.0
G2 Y42.3133 Z1.6333 I0.025 J0.0433
G2 X226.97 Y42.27 Z1.5 I0.025 J-0.0433
G2 X226.895 Y42.2267 Z1.3667 I-0.05 J0.0
G2 Y42.3133 Z1.2333 I0.025 J0.0433
G2 X226.97 Y42.27 Z1.1 I0.025 J-0.0433
G2 X226.895 Y42.2267 Z0.9667 I-0.05 J0.0
G2 Y42.3133 Z0.8333 I0.025 J0.0433
G2 X226.97 Y42.27 Z0.7 I0.025 J-0.0433
G2 X226.895 Y42.2267 Z0.5667 I-0.05 J0.0
G2 Y42.3133 Z0.4333 I0.025 J0.0433
G2 X226.97 Y42.27 Z0.3 I0.025 J-0.0433
G2 X226.895 Y42.2267 Z0.1667 I-0.05 J0.0
G2 Y42.3133 Z0.0333 I0.025 J0.0433
G2 X226.92 Y42.32 Z0.0 I0.025 J-0.0433
G2 X226.9633 Y42.245 I0.0 J-0.05
G2 X226.8767 I-0.0433 J0.025
G2 X226.92 Y42.32 I0.0433 J0.025
G0 Z3.0
G0 X224.43 Y42.27
G1 Z2.3
G2 X224.355 Y42.2267 Z2.1667 I-0.05 J0.0
G2 Y42.3133 Z2.0333 I0.025 J0.0433
G2 X224.43 Y42.27 Z1.9 I0.025 J-0.0433
G2 X224.355 Y42.2267 Z1.7667 I-0.05 J0.0
G2 Y42.3133 Z1.6333 I0.025 J0.0433
G2 X224.43 Y42.27 Z1.5 I0.025 J-0.0433
G2 X224.355 Y42.2267 Z1.3667 I-0.05 J0.0
G2 Y42.3133 Z1.2333 I0.025 J0.0433
G2 X224.43 Y42.27 Z1.1 I0.025 J-0.0433
G2 X224.355 Y42.2267 Z0.9667 I-0.05 J0.0
G2 Y42.3133 Z0.8333 I0.025 J0.0433
G2 X224.43 Y42.27 Z0.7 I0.025 J-0.0433
G2 X224.355 Y42.2267 Z0.5667 I-0.05 J0.0
G2 Y42.3133 Z0.4333 I0.025 J0.0433
G2 X224.43 Y42.27 Z0.3 I0.025 J-0.0433
G2 X224.355 Y42.2267 Z0.1667 I-0.05 J0.0
G2 Y42.3133 Z0.0333 I0.025 J0.0433
G2 X224.38 Y42.32 Z0.0 I0.025 J-0.0433
G2 X224.4233 Y42.245 I0.0 J-0.05
G2 X224.3367 I-0.0433 J0.025
G2 X224.38 Y42.32 I0.0433 J0.025
G0 Z3.0
G0 X221.89 Y42.27
G1 Z2.3
G2 X221.815 Y42.2267 Z2.1667 I-0.05 J0.0
G2 Y42.3133 Z2.0333 I0.025 J0.0433
G2 X221.89 Y42.27 Z1.9 I0.025 J-0.0433
G2 X221.815 Y42.2267 Z1.7667 I-0.05 J0.0
G2 Y42.3133 Z1.6333 I0.025 J0.0433
G2 X221.89 Y42.27 Z1.5 I0.025 J-0.0433
G2 X221.815 Y42.2267 Z1.3667 I-0.05 J0.0
G2 Y42.3133 Z1.2333 I0.025 J0.0433
G2 X221.89 Y42.27 Z1.1 I0.025 J-0.0433
G2 X221.815 Y42.2267 Z0.9667 I-0.05 J0.0
G2 Y42.3133 Z0.8333 I0.025 J0.0433
G2 X221.89 Y42.27 Z0.7 I0.025 J-0.0433
G2 X221.815 Y42.2267 Z0.5667 I-0.05 J0.0
G2 Y42.3133 Z0.4333 I0.025 J0.0433
G2 X221.89 Y42.27 Z0.3 I0.025 J-0.0433
G2 X221.815 Y42.2267 Z0.1667 I-0.05 J0.0
G2 Y42.3133 Z0.0333 I0.025 J0.0433
G2 X221.84 Y42.32 Z0.0 I0.025 J-0.0433
G2 X221.8833 Y42.245 I0.0 J-0.05
G2 X221.7967 I-0.0433 J0.025
G2 X221.84 Y42.32 I0.0433 J0.025
G0 Z3.0
G0 X226.97 Y52.27
G1 Z2.3
G2 X226.895 Y52.2267 Z2.1667 I-0.05 J0.0
G2 Y52.3133 Z2.0333 I0.025 J0.0433
G2 X226.97 Y52.27 Z1.9 I0.025 J-0.0433
G2 X226.895 Y52.2267 Z1.7667 I-0.05 J0.0
G2 Y52.3133 Z1.6333 I0.025 J0.0433
G2 X226.97 Y52.27 Z1.5 I0.025 J-0.0433
G2 X226.895 Y52.2267 Z1.3667 I-0.05 J0.0
G2 Y52.3133 Z1.2333 I0.025 J0.0433
G2 X226.97 Y52.27 Z1.1 I0.025 J-0.0433
G2 X226.895 Y52.2267 Z0.9667 I-0.05 J0.0
G2 Y52.3133 Z0.8333 I0.025 J0.0433
G2 X226.97 Y52.27 Z0.7 I0.025 J-0.0433
G2 X226.895 Y52.2267 Z0.5667 I-0.05 J0.0
G2 Y52.3133 Z0.4333 I0.025 J0.0433
G2 X226.97 Y52.27 Z0.3 I0.025 J-0.0433
G2 X226.895 Y52.2267 Z0.1667 I-0.05 J0.0
G2 Y52.3133 Z0.0333 I0.025 J0.0433
G2 X226.92 Y52.32 Z0.0 I0.025 J-0.0433
G2 X226.9633 Y52.245 I0.0 J-0.05
G2 X226.8767 I-0.0433 J0.025
G2 X226.92 Y52.32 I0.0433 J0.025
G0 Z3.0
G0 X226.97 Y54.81
G1 Z2.3
G2 X226.895 Y54.7667 Z2.1667 I-0.05 J0.0
G2 Y54.8533 Z2.0333 I0.025 J0.0433
G2 X226.97 Y54.81 Z1.9 I0.025 J-0.0433
G2 X226.895 Y54.7667 Z1.7667 I-0.05 J0.0
G2 Y54.8533 Z1.6333 I0.025 J0.0433
G2 X226.97 Y54.81 Z1.5 I0.025 J-0.0433
G2 X226.895 Y54.7667 Z1.3667 I-0.05 J0.0
G2 Y54.8533 Z1.2333 I0.025 J0.0433
G2 X226.97 Y54.81 Z1.1 I0.025 J-0.0433
G2 X226.895 Y54.7667 Z0.9667 I-0.05 J0.0
G2 Y54.8533 Z0.8333 I0.025 J0.0433
G2 X226.97 Y54.81 Z0.7 I0.025 J-0.0433
G2 X226.895 Y54.7667 Z0.5667 I-0.05 J0.0
G2 Y54.8533 Z0.4333 I0.025 J0.0433
G2 X226.97 Y54.81 Z0.3 I0.025 J-0.0433
G2 X226.895 Y54.7667 Z0.1667 I-0.05 J0.0
G2 Y54.8533 Z0.0333 I0.025 J0.0433
G2 X226.92 Y54.86 Z0.0 I0.025 J-0.0433
G2 X226.9633 Y54.785 I0.0 J-0.05
G2 X226.8767 I-0.0433 J0.025
G2 X226.92 Y54.86 I0.0433 J0.025
G0 Z3.0
G0 X226.97 Y57.35
G1 Z2.3
G2 X226.895 Y57.3067 Z2.1667 I-0.05 J0.0
G2 Y57.3933 Z2.0333 I0.025 J0.0433
G2 X226.97 Y57.35 Z1.9 I0.025 J-0.0433
G2 X226.895 Y57.3067 Z1.7667 I-0.05 J0.0
G2 Y57.3933 Z1.6333 I0.025 J0.0433
G2 X226.97 Y57.35 Z1.5 I0.025 J-0.0433
G2 X226.895 Y57.3067 Z1.3667 I-0.05 J0.0
G2 Y57.3933 Z1.2333 I0.025 J0.0433
G2 X226.97 Y57.35 Z1.1 I0.025 J-0.0433
G2 X226.895 Y57.3067 Z0.9667 I-0.05 J0.0
G2 Y57.3933 Z0.8333 I0.025 J0.0433
G2 X226.97 Y57.35 Z0.7 I0.025 J-0.0433
G2 X226.895 Y57.3067 Z0.5667 I-0.05 J0.0
G2 Y57.3933 Z0.4333 I0.025 J0.0433
G2 X226.97 Y57.35 Z0.3 I0.025 J-0.0433
G2 X226.895 Y57.3067 Z0.1667 I-0.05 J0.0
G2 Y57.3933 Z0.0333 I0.025 J0.0433
G2 X226.92 Y57.4 Z0.0 I0.025 J-0.0433
G2 X226.9633 Y57.325 I0.0 J-0.05
G2 X226.8767 I-0.0433 J0.025
G2 X226.92 Y57.4 I0.0433 J0.025
G0 Z3.0
G0 X226.97 Y59.89
G1 Z2.3
G2 X226.895 Y59.8467 Z2.1667 I-0.05 J0.0
G2 Y59.9333 Z2.0333 I0.025 J0.0433
G2 X226.97 Y59.89 Z1.9 I0.025 J-0.0433
G2 X226.895 Y59.8467 Z1.7667 I-0.05 J0.0
G2 Y59.9333 Z1.6333 I0.025 J0.0433
G2 X226.97 Y59.89 Z1.5 I0.025 J-0.0433
G2 X226.895 Y59.8467 Z1.3667 I-0.05 J0.0
G2 Y59.9333 Z1.2333 I0.025 J0.0433
G2 X226.97 Y59.89 Z1.1 I0.025 J-0.0433
G2 X226.895 Y59.8467 Z0.9667 I-0.05 J0.0
G2 Y59.9333 Z0.8333 I0.025 J0.0433
G2 X226.97 Y59.89 Z0.7 I0.025 J-0.0433
G2 X226.895 Y59.8467 Z0.5667 I-0.05 J0.0
G2 Y59.9333 Z0.4333 I0.025 J0.0433
G2 X226.97 Y59.89 Z0.3 I0.025 J-0.0433
G2 X226.895 Y59.8467 Z0.1667 I-0.05 J0.0
G2 Y59.9333 Z0.0333 I0.025 J0.0433
G2 X226.92 Y59.94 Z0.0 I0.025 J-0.0433
G2 X226.9633 Y59.865 I0.0 J-0.05
G2 X226.8767 I-0.0433 J0.025
G2 X226.92 Y59.94 I0.0433 J0.025
G0 Z3.0
G0 X226.97 Y62.43
G1 Z2.3
G2 X226.895 Y62.3867 Z2.1667 I-0.05 J0.0
G2 Y62.4733 Z2.0333 I0.025 J0.0433
G2 X226.97 Y62.43 Z1.9 I0.025 J-0.0433
G2 X226.895 Y62.3867 Z1.7667 I-0.05 J0.0
G2 Y62.4733 Z1.6333 I0.025 J0.0433
G2 X226.97 Y62.43 Z1.5 I0.025 J-0.0433
G2 X226.895 Y62.3867 Z1.3667 I-0.05 J0.0
G2 Y62.4733 Z1.2333 I0.025 J0.0433
G2 X226.97 Y62.43 Z1.1 I0.025 J-0.0433
G2 X226.895 Y62.3867 Z0.9667 I-0.05 J0.0
G2 Y62.4733 Z0.8333 I0.025 J0.0433
G2 X226.97 Y62.43 Z0.7 I0.025 J-0.0433
G2 X226.895 Y62.3867 Z0.5667 I-0.05 J0.0
G2 Y62.4733 Z0.4333 I0.025 J0.0433
G2 X226.97 Y62.43 Z0.3 I0.025 J-0.0433
G2 X226.895 Y62.3867 Z0.1667 I-0.05 J0.0
G2 Y62.4733 Z0.0333 I0.025 J0.0433
G2 X226.92 Y62.48 Z0.0 I0.025 J-0.0433
G2 X226.9633 Y62.405 I0.0 J-0.05
G2 X226.8767 I-0.0433 J0.025
G2 X226.92 Y62.48 I0.0433 J0.025
G0 Z3.0
G0 X226.97 Y64.97
G1 Z2.3
G2 X226.895 Y64.9267 Z2.1667 I-0.05 J0.0
G2 Y65.0133 Z2.0333 I0.025 J0.0433
G2 X226.97 Y64.97 Z1.9 I0.025 J-0.0433
G2 X226.895 Y64.9267 Z1.7667 I-0.05 J0.0
G2 Y65.0133 Z1.6333 I0.025 J0.0433
G2 X226.97 Y64.97 Z1.5 I0.025 J-0.0433
G2 X226.895 Y64.9267 Z1.3667 I-0.05 J0.0
G2 Y65.0133 Z1.2333 I0.025 J0.0433
G2 X226.97 Y64.97 Z1.1 I0.025 J-0.0433
G2 X226.895 Y64.9267 Z0.9667 I-0.05 J0.0
G2 Y65.0133 Z0.8333 I0.025 J0.0433
G2 X226.97 Y64.97 Z0.7 I0.025 J-0.0433
G2 X226.895 Y64.9267 Z0.5667 I-0.05 J0.0
G2 Y65.0133 Z0.4333 I0.025 J0.0433
G2 X226.97 Y64.97 Z0.3 I0.025 J-0.0433
G2 X226.895 Y64.9267 Z0.1667 I-0.05 J0.0
G2 Y65.0133 Z0.0333 I0.025 J0.0433
G2 X226.92 Y65.02 Z0.0 I0.025 J-0.0433
G2 X226.9633 Y64.945 I0.0 J-0.05
G2 X226.8767 I-0.0433 J0.025
G2 X226.92 Y65.02 I0.0433 J0.025
G0 Z3.0
G0 X226.97 Y67.51
G1 Z2.3
G2 X226.895 Y67.4667 Z2.1667 I-0.05 J0.0
G2 Y67.5533 Z2.0333 I0.025 J0.0433
G2 X226.97 Y67.51 Z1.9 I0.025 J-0.0433
G2 X226.895 Y67.4667 Z1.7667 I-0.05 J0.0
G2 Y67.5533 Z1.6333 I0.025 J0.0433
G2 X226.97 Y67.51 Z1.5 I0.025 J-0.0433
G2 X226.895 Y67.4667 Z1.3667 I-0.05 J0.0
G2 Y67.5533 Z1.2333 I0.025 J0.0433
G2 X226.97 Y67.51 Z1.1 I0.025 J-0.0433
G2 X226.895 Y67.4667 Z0.9667 I-0.05 J0.0
G2 Y67.5533 Z0.8333 I0.025 J0.0433
G2 X226.97 Y67.51 Z0.7 I0.025 J-0.0433
G2 X226.895 Y67.4667 Z0.5667 I-0.05 J0.0
G2 Y67.5533 Z0.4333 I0.025 J0.0433
G2 X226.97 Y67.51 Z0.3 I0.025 J-0.0433
G2 X226.895 Y67.4667 Z0.1667 I-0.05 J0.0
G2 Y67.5533 Z0.0333 I0.025 J0.0433
G2 X226.92 Y67.56 Z0.0 I0.025 J-0.0433
G2 X226.9633 Y67.485 I0.0 J-0.05
G2 X226.8767 I-0.0433 J0.025
G2 X226.92 Y67.56 I0.0433 J0.025
G0 Z3.0
G0 X226.97 Y70.05
G1 Z2.3
G2 X226.895 Y70.0067 Z2.1667 I-0.05 J0.0
G2 Y70.0933 Z2.0333 I0.025 J0.0433
G2 X226.97 Y70.05 Z1.9 I0.025 J-0.0433
G2 X226.895 Y70.0067 Z1.7667 I-0.05 J0.0
G2 Y70.0933 Z1.6333 I0.025 J0.0433
G2 X226.97 Y70.05 Z1.5 I0.025 J-0.0433
G2 X226.895 Y70.0067 Z1.3667 I-0.05 J0.0
G2 Y70.0933 Z1.2333 I0.025 J0.0433
G2 X226.97 Y70.05 Z1.1 I0.025 J-0.0433
G2 X226.895 Y70.0067 Z0.9667 I-0.05 J0.0
G2 Y70.0933 Z0.8333 I0.025 J0.0433
G2 X226.97 Y70.05 Z0.7 I0.025 J-0.0433
G2 X226.895 Y70.0067 Z0.5667 I-0.05 J0.0
G2 Y70.0933 Z0.4333 I0.025 J0.0433
G2 X226.97 Y70.05 Z0.3 I0.025 J-0.0433
G2 X226.895 Y70.0067 Z0.1667 I-0.05 J0.0
G2 Y70.0933 Z0.0333 I0.025 J0.0433
G2 X226.92 Y70.1 Z0.0 I0.025 J-0.0433
G2 X226.9633 Y70.025 I0.0 J-0.05
G2 X226.8767 I-0.0433 J0.025
G2 X226.92 Y70.1 I0.0433 J0.025
G0 Z3.0
G0 X226.97 Y72.59
G1 Z2.3
G2 X226.895 Y72.5467 Z2.1667 I-0.05 J0.0
G2 Y72.6333 Z2.0333 I0.025 J0.0433
G2 X226.97 Y72.59 Z1.9 I0.025 J-0.0433
G2 X226.895 Y72.5467 Z1.7667 I-0.05 J0.0
G2 Y72.6333 Z1.6333 I0.025 J0.0433
G2 X226.97 Y72.59 Z1.5 I0.025 J-0.0433
G2 X226.895 Y72.5467 Z1.3667 I-0.05 J0.0
G2 Y72.6333 Z1.2333 I0.025 J0.0433
G2 X226.97 Y72.59 Z1.1 I0.025 J-0.0433
G2 X226.895 Y72.5467 Z0.9667 I-0.05 J0.0
G2 Y72.6333 Z0.8333 I0.025 J0.0433
G2 X226.97 Y72.59 Z0.7 I0.025 J-0.0433
G2 X226.895 Y72.5467 Z0.5667 I-0.05 J0.0
G2 Y72.6333 Z0.4333 I0.025 J0.0433
G2 X226.97 Y72.59 Z0.3 I0.025 J-0.0433
G2 X226.895 Y72.5467 Z0.1667 I-0.05 J0.0
G2 Y72.6333 Z0.0333 I0.025 J0.0433
G2 X226.92 Y72.64 Z0.0 I0.025 J-0.0433
G2 X226.9633 Y72.565 I0.0 J-0.05
G2 X226.8767 I-0.0433 J0.025
G2 X226.92 Y72.64 I0.0433 J0.025
G0 Z3.0
G0 X226.97 Y75.13
G1 Z2.3
G2 X226.895 Y75.0867 Z2.1667 I-0.05 J0.0
G2 Y75.1733 Z2.0333 I0.025 J0.0433
G2 X226.97 Y75.13 Z1.9 I0.025 J-0.0433
G2 X226.895 Y75.0867 Z1.7667 I-0.05 J0.0
G2 Y75.1733 Z1.6333 I0.025 J0.0433
G2 X226.97 Y75.13 Z1.5 I0.025 J-0.0433
G2 X226.895 Y75.0867 Z1.3667 I-0.05 J0.0
G2 Y75.1733 Z1.2333 I0.025 J0.0433
G2 X226.97 Y75.13 Z1.1 I0.025 J-0.0433
G2 X226.895 Y75.0867 Z0.9667 I-0.05 J0.0
G2 Y75.1733 Z0.8333 I0.025 J0.0433
G2 X226.97 Y75.13 Z0.7 I0.025 J-0.0433
G2 X226.895 Y75.0867 Z0.5667 I-0.05 J0.0
G2 Y75.1733 Z0.4333 I0.025 J0.0433
G2 X226.97 Y75.13 Z0.3 I0.025 J-0.0433
G2 X226.895 Y75.0867 Z0.1667 I-0.05 J0.0
G2 Y75.1733 Z0.0333 I0.025 J0.0433
G2 X226.92 Y75.18 Z0.0 I0.025 J-0.0433
G2 X226.9633 Y75.105 I0.0 J-0.05
G2 X226.8767 I-0.0433 J0.025
G2 X226.92 Y75.18 I0.0433 J0.025
G0 Z3.0
G0 X226.39 Y81.27
G1 Z2.3
G2 X226.315 Y81.2267 Z2.1667 I-0.05 J0.0
G2 Y81.3133 Z2.0333 I0.025 J0.0433
G2 X226.39 Y81.27 Z1.9 I0.025 J-0.0433
G2 X226.315 Y81.2267 Z1.7667 I-0.05 J0.0
G2 Y81.3133 Z1.6333 I0.025 J0.0433
G2 X226.39 Y81.27 Z1.5 I0.025 J-0.0433
G2 X226.315 Y81.2267 Z1.3667 I-0.05 J0.0
G2 Y81.3133 Z1.2333 I0.025 J0.0433
G2 X226.39 Y81.27 Z1.1 I0.025 J-0.0433
G2 X226.315 Y81.2267 Z0.9667 I-0.05 J0.0
G2 Y81.3133 Z0.8333 I0.025 J0.0433
G2 X226.39 Y81.27 Z0.7 I0.025 J-0.0433
G2 X226.315 Y81.2267 Z0.5667 I-0.05 J0.0
G2 Y81.3133 Z0.4333 I0.025 J0.0433
G2 X226.39 Y81.27 Z0.3 I0.025 J-0.0433
G2 X226.315 Y81.2267 Z0.1667 I-0.05 J0.0
G2 Y81.3133 Z0.0333 I0.025 J0.0433
G2 X226.34 Y81.32 Z0.0 I0.025 J-0.0433
G2 X226.3833 Y81.245 I0.0 J-0.05
G2 X226.2967 I-0.0433 J0.025
G2 X226.34 Y81.32 I0.0433 J0.025
G0 Z3.0
G0 X223.89 Y81.27
G1 Z2.3
G2 X223.815 Y81.2267 Z2.1667 I-0.05 J0.0
G2 Y81.3133 Z2.0333 I0.025 J0.0433
G2 X223.89 Y81.27 Z1.9 I0.025 J-0.0433
G2 X223.815 Y81.2267 Z1.7667 I-0.05 J0.0
G2 Y81.3133 Z1.6333 I0.025 J0.0433
G2 X223.89 Y81.27 Z1.5 I0.025 J-0.0433
G2 X223.815 Y81.2267 Z1.3667 I-0.05 J0.0
G2 Y81.3133 Z1.2333 I0.025 J0.0433
G2 X223.89 Y81.27 Z1.1 I0.025 J-0.0433
G2 X223.815 Y81.2267 Z0.9667 I-0.05 J0.0
G2 Y81.3133 Z0.8333 I0.025 J0.0433
G2 X223.89 Y81.27 Z0.7 I0.025 J-0.0433
G2 X223.815 Y81.2267 Z0.5667 I-0.05 J0.0
G2 Y81.3133 Z0.4333 I0.025 J0.0433
G2 X223.89 Y81.27 Z0.3 I0.025 J-0.0433
G2 X223.815 Y81.2267 Z0.1667 I-0.05 J0.0
G2 Y81.3133 Z0.0333 I0.025 J0.0433
G2 X223.84 Y81.32 Z0.0 I0.025 J-0.0433
G2 X223.8833 Y81.245 I0.0 J-0.05
G2 X223.7967 I-0.0433 J0.025
G2 X223.84 Y81.32 I0.0433 J0.025
G0 Z3.0
G0 X221.39 Y81.27
G1 Z2.3
G2 X221.315 Y81.2267 Z2.1667 I-0.05 J0.0
G2 Y81.3133 Z2.0333 I0.025 J0.0433
G2 X221.39 Y81.27 Z1.9 I0.025 J-0.0433
G2 X221.315 Y81.2267 Z1.7667 I-0.05 J0.0
G2 Y81.3133 Z1.6333 I0.025 J0.0433
G2 X221.39 Y81.27 Z1.5 I0.025 J-0.0433
G2 X221.315 Y81.2267 Z1.3667 I-0.05 J0.0
G2 Y81.3133 Z1.2333 I0.025 J0.0433
G2 X221.39 Y81.27 Z1.1 I0.025 J-0.0433
G2 X221.315 Y81.2267 Z0.9667 I-0.05 J0.0
G2 Y81.3133 Z0.8333 I0.025 J0.0433
G2 X221.39 Y81.27 Z0.7 I0.025 J-0.0433
G2 X221.315 Y81.2267 Z0.5667 I-0.05 J0.0
G2 Y81.3133 Z0.4333 I0.025 J0.0433
G2 X221.39 Y81.27 Z0.3 I0.025 J-0.0433
G2 X221.315 Y81.2267 Z0.1667 I-0.05 J0.0
G2 Y81.3133 Z0.0333 I0.025 J0.0433
G2 X221.34 Y81.32 Z0.0 I0.025 J-0.0433
G2 X221.3833 Y81.245 I0.0 J-0.05
G2 X221.2967 I-0.0433 J0.025
G2 X221.34 Y81.32 I0.0433 J0.025
G0 Z3.0
G0 X224.43 Y62.43
G1 Z2.3
G2 X224.355 Y62.3867 Z2.1667 I-0.05 J0.0
G2 Y62.4733 Z2.0333 I0.025 J0.0433
G2 X224.43 Y62.43 Z1.9 I0.025 J-0.0433
G2 X224.355 Y62.3867 Z1.7667 I-0.05 J0.0
G2 Y62.4733 Z1.6333 I0.025 J0.0433
G2 X224.43 Y62.43 Z1.5 I0.025 J-0.0433
G2 X224.355 Y62.3867 Z1.3667 I-0.05 J0.0
G2 Y62.4733 Z1.2333 I0.025 J0.0433
G2 X224.43 Y62.43 Z1.1 I0.025 J-0.0433
G2 X224.355 Y62.3867 Z0.9667 I-0.05 J0.0
G2 Y62.4733 Z0.8333 I0.025 J0.0433
G2 X224.43 Y62.43 Z0.7 I0.025 J-0.0433
G2 X224.355 Y62.3867 Z0.5667 I-0.05 J0.0
G2 Y62.4733 Z0.4333 I0.025 J0.0433
G2 X224.43 Y62.43 Z0.3 I0.025 J-0.0433
G2 X224.355 Y62.3867 Z0.1667 I-0.05 J0.0
G2 Y62.4733 Z0.0333 I0.025 J0.0433
G2 X224.38 Y62.48 Z0.0 I0.025 J-0.0433
G2 X224.4233 Y62.405 I0.0 J-0.05
G2 X224.3367 I-0.0433 J0.025
G2 X224.38 Y62.48 I0.0433 J0.025
G0 Z3.0
G0 X194.39 Y64.97
G1 Z2.3
G2 X194.315 Y64.9267 Z2.1667 I-0.05 J0.0
G2 Y65.0133 Z2.0333 I0.025 J0.0433
G2 X194.39 Y64.97 Z1.9 I0.025 J-0.0433
G2 X194.315 Y64.9267 Z1.7667 I-0.05 J0.0
G2 Y65.0133 Z1.6333 I0.025 J0.0433
G2 X194.39 Y64.97 Z1.5 I0.025 J-0.0433
G2 X194.315 Y64.9267 Z1.3667 I-0.05 J0.0
G2 Y65.0133 Z1.2333 I0.025 J0.0433
G2 X194.39 Y64.97 Z1.1 I0.025 J-0.0433
G2 X194.315 Y64.9267 Z0.9667 I-0.05 J0.0
G2 Y65.0133 Z0.8333 I0.025 J0.0433
G2 X194.39 Y64.97 Z0.7 I0.025 J-0.0433
G2 X194.315 Y64.9267 Z0.5667 I-0.05 J0.0
G2 Y65.0133 Z0.4333 I0.025 J0.0433
G2 X194.39 Y64.97 Z0.3 I0.025 J-0.0433
G2 X194.315 Y64.9267 Z0.1667 I-0.05 J0.0
G2 Y65.0133 Z0.0333 I0.025 J0.0433
G2 X194.34 Y65.02 Z0.0 I0.025 J-0.0433
G2 X194.3833 Y64.945 I0.0 J-0.05
G2 X194.2967 I-0.0433 J0.025
G2 X194.34 Y65.02 I0.0433 J0.025
G0 Z3.0
G0 X193.64 Y81.27
G1 Z2.3
G2 X193.565 Y81.2267 Z2.1667 I-0.05 J0.0
G2 Y81.3133 Z2.0333 I0.025 J0.0433
G2 X193.64 Y81.27 Z1.9 I0.025 J-0.0433
G2 X193.565 Y81.2267 Z1.7667 I-0.05 J0.0
G2 Y81.3133 Z1.6333 I0.025 J0.0433
G2 X193.64 Y81.27 Z1.5 I0.025 J-0.0433
G2 X193.565 Y81.2267 Z1.3667 I-0.05 J0.0
G2 Y81.3133 Z1.2333 I0.025 J0.0433
G2 X193.64 Y81.27 Z1.1 I0.025 J-0.0433
G2 X193.565 Y81.2267 Z0.9667 I-0.05 J0.0
G2 Y81.3133 Z0.8333 I0.025 J0.0433
G2 X193.64 Y81.27 Z0.7 I0.025 J-0.0433
G2 X193.565 Y81.2267 Z0.5667 I-0.05 J0.0
G2 Y81.3133 Z0.4333 I0.025 J0.0433
G2 X193.64 Y81.27 Z0.3 I0.025 J-0.0433
G2 X193.565 Y81.2267 Z0.1667 I-0.05 J0.0
G2 Y81.3133 Z0.0333 I0.025 J0.0433
G2 X193.59 Y81.32 Z0.0 I0.025 J-0.0433
G2 X193.6333 Y81.245 I0.0 J-0.05
G2 X193.5467 I-0.0433 J0.025
G2 X193.59 Y81.32 I0.0433 J0.025
G0 Z3.0
G0 X196.39 Y81.27
G1 Z2.3
G2 X196.315 Y81.2267 Z2.1667 I-0.05 J0.0
G2 Y81.3133 Z2.0333 I0.025 J0.0433
G2 X196.39 Y81.27 Z1.9 I0.025 J-0.0433
G2 X196.315 Y81.2267 Z1.7667 I-0.05 J0.0
G2 Y81.3133 Z1.6333 I0.025 J0.0433
G2 X196.39 Y81.27 Z1.5 I0.025 J-0.0433
G2 X196.315 Y81.2267 Z1.3667 I-0.05 J0.0
G2 Y81.3133 Z1.2333 I0.025 J0.0433
G2 X196.39 Y81.27 Z1.1 I0.025 J-0.0433
G2 X196.315 Y81.2267 Z0.9667 I-0.05 J0.0
G2 Y81.3133 Z0.8333 I0.025 J0.0433
G2 X196.39 Y81.27 Z0.7 I0.025 J-0.0433
G2 X196.315 Y81.2267 Z0.5667 I-0.05 J0.0
G2 Y81.3133 Z0.4333 I0.025 J0.0433
G2 X196.39 Y81.27 Z0.3 I0.025 J-0.0433
G2 X196.315 Y81.2267 Z0.1667 I-0.05 J0.0
G2 Y81.3133 Z0.0333 I0.025 J0.0433
G2 X196.34 Y81.32 Z0.0 I0.025 J-0.0433
G2 X196.3833 Y81.245 I0.0 J-0.05
G2 X196.2967 I-0.0433 J0.025
G2 X196.34 Y81.32 I0.0433 J0.025
G0 Z3.0
G0 X190.89 Y81.27
G1 Z2.3
G2 X190.815 Y81.2267 Z2.1667 I-0.05 J0.0
G2 Y81.3133 Z2.0333 I0.025 J0.0433
G2 X190.89 Y81.27 Z1.9 I0.025 J-0.0433
G2 X190.815 Y81.2267 Z1.7667 I-0.05 J0.0
G2 Y81.3133 Z1.6333 I0.025 J0.0433
G2 X190.89 Y81.27 Z1.5 I0.025 J-0.0433
G2 X190.815 Y81.2267 Z1.3667 I-0.05 J0.0
G2 Y81.3133 Z1.2333 I0.025 J0.0433
G2 X190.89 Y81.27 Z1.1 I0.025 J-0.0433
G2 X190.815 Y81.2267 Z0.9667 I-0.05 J0.0
G2 Y81.3133 Z0.8333 I0.025 J0.0433
G2 X190.89 Y81.27 Z0.7 I0.025 J-0.0433
G2 X190.815 Y81.2267 Z0.5667 I-0.05 J0.0
G2 Y81.3133 Z0.4333 I0.025 J0.0433
G2 X190.89 Y81.27 Z0.3 I0.025 J-0.0433
G2 X190.815 Y81.2267 Z0.1667 I-0.05 J0.0
G2 Y81.3133 Z0.0333 I0.025 J0.0433
G2 X190.84 Y81.32 Z0.0 I0.025 J-0.0433
G2 X190.8833 Y81.245 I0.0 J-0.05
G2 X190.7967 I-0.0433 J0.025
G2 X190.84 Y81.32 I0.0433 J0.025
G0 Z3.0
G0 X193.64 Y91.27
G1 Z2.3
G2 X193.565 Y91.2267 Z2.1667 I-0.05 J0.0
G2 Y91.3133 Z2.0333 I0.025 J0.0433
G2 X193.64 Y91.27 Z1.9 I0.025 J-0.0433
G2 X193.565 Y91.2267 Z1.7667 I-0.05 J0.0
G2 Y91.3133 Z1.6333 I0.025 J0.0433
G2 X193.64 Y91.27 Z1.5 I0.025 J-0.0433
G2 X193.565 Y91.2267 Z1.3667 I-0.05 J0.0
G2 Y91.3133 Z1.2333 I0.025 J0.0433
G2 X193.64 Y91.27 Z1.1 I0.025 J-0.0433
G2 X193.565 Y91.2267 Z0.9667 I-0.05 J0.0
G2 Y91.3133 Z0.8333 I0.025 J0.0433
G2 X193.64 Y91.27 Z0.7 I0.025 J-0.0433
G2 X193.565 Y91.2267 Z0.5667 I-0.05 J0.0
G2 Y91.3133 Z0.4333 I0.025 J0.0433
G2 X193.64 Y91.27 Z0.3 I0.025 J-0.0433
G2 X193.565 Y91.2267 Z0.1667 I-0.05 J0.0
G2 Y91.3133 Z0.0333 I0.025 J0.0433
G2 X193.59 Y91.32 Z0.0 I0.025 J-0.0433
G2 X193.6333 Y91.245 I0.0 J-0.05
G2 X193.5467 I-0.0433 J0.025
G2 X193.59 Y91.32 I0.0433 J0.025
G0 Z3.0
G0 X201.47 Y118.27
G1 Z2.3
G2 X201.395 Y118.2267 Z2.1667 I-0.05 J0.0
G2 Y118.3133 Z2.0333 I0.025 J0.0433
G2 X201.47 Y118.27 Z1.9 I0.025 J-0.0433
G2 X201.395 Y118.2267 Z1.7667 I-0.05 J0.0
G2 Y118.3133 Z1.6333 I0.025 J0.0433
G2 X201.47 Y118.27 Z1.5 I0.025 J-0.0433
G2 X201.395 Y118.2267 Z1.3667 I-0.05 J0.0
G2 Y118.3133 Z1.2333 I0.025 J0.0433
G2 X201.47 Y118.27 Z1.1 I0.025 J-0.0433
G2 X201.395 Y118.2267 Z0.9667 I-0.05 J0.0
G2 Y118.3133 Z0.8333 I0.025 J0.0433
G2 X201.47 Y118.27 Z0.7 I0.025 J-0.0433
G2 X201.395 Y118.2267 Z0.5667 I-0.05 J0.0
G2 Y118.3133 Z0.4333 I0.025 J0.0433
G2 X201.47 Y118.27 Z0.3 I0.025 J-0.0433
G2 X201.395 Y118.2267 Z0.1667 I-0.05 J0.0
G2 Y118.3133 Z0.0333 I0.025 J0.0433
G2 X201.42 Y118.32 Z0.0 I0.025 J-0.0433
G2 X201.4633 Y118.245 I0.0 J-0.05
G2 X201.3767 I-0.0433 J0.025
G2 X201.42 Y118.32 I0.0433 J0.025
G0 Z3.0
G0 X226.47 Y118.27
G1 Z2.3
G2 X226.395 Y118.2267 Z2.1667 I-0.05 J0.0
G2 Y118.3133 Z2.0333 I0.025 J0.0433
G2 X226.47 Y118.27 Z1.9 I0.025 J-0.0433
G2 X226.395 Y118.2267 Z1.7667 I-0.05 J0.0
G2 Y118.3133 Z1.6333 I0.025 J0.0433
G2 X226.47 Y118.27 Z1.5 I0.025 J-0.0433
G2 X226.395 Y118.2267 Z1.3667 I-0.05 J0.0
G2 Y118.3133 Z1.2333 I0.025 J0.0433
G2 X226.47 Y118.27 Z1.1 I0.025 J-0.0433
G2 X226.395 Y118.2267 Z0.9667 I-0.05 J0.0
G2 Y118.3133 Z0.8333 I0.025 J0.0433
G2 X226.47 Y118.27 Z0.7 I0.025 J-0.0433
G2 X226.395 Y118.2267 Z0.5667 I-0.05 J0.0
G2 Y118.3133 Z0.4333 I0.025 J0.0433
G2 X226.47 Y118.27 Z0.3 I0.025 J-0.0433
G2 X226.395 Y118.2267 Z0.1667 I-0.05 J0.0
G2 Y118.3133 Z0.0333 I0.025 J0.0433
G2 X226.42 Y118.32 Z0.0 I0.025 J-0.0433
G2 X226.4633 Y118.245 I0.0 J-0.05
G2 X226.3767 I-0.0433 J0.025
G2 X226.42 Y118.32 I0.0433 J0.025
G0 Z3.0
G0 X228.47 Y118.27
G1 Z2.3
G2 X228.395 Y118.2267 Z2.1667 I-0.05 J0.0
G2 Y118.3133 Z2.0333 I0.025 J0.0433
G2 X228.47 Y118.27 Z1.9 I0.025 J-0.0433
G2 X228.395 Y118.2267 Z1.7667 I-0.05 J0.0
