( Made using CamBam - http://www.cambam.co.uk )
( midipedal_rez 2/15/2016 6:44:06 PM )
( T0 : 1.0 )
G21 G90 G64 G40
G0 Z3.0
( T0 : 1.0 )
T0 M6
( Drill2 )
G17
M3 S1000
G0 X321.4159 Y62.27
G0 Z3.0
G0 X322.2159 Y62.27
G1 F170.0 Z2.3
G2 F150.0 X321.0159 Y61.5772 Z2.1667 I-0.8 J0.0
G2 Y62.9628 Z2.0333 I0.4 J0.6928
G2 X322.2159 Y62.27 Z1.9 I0.4 J-0.6928
G2 X321.0159 Y61.5772 Z1.7667 I-0.8 J0.0
G2 Y62.9628 Z1.6333 I0.4 J0.6928
G2 X322.2159 Y62.27 Z1.5 I0.4 J-0.6928
G2 X321.0159 Y61.5772 Z1.3667 I-0.8 J0.0
G2 Y62.9628 Z1.2333 I0.4 J0.6928
G2 X322.2159 Y62.27 Z1.1 I0.4 J-0.6928
G2 X321.0159 Y61.5772 Z0.9667 I-0.8 J0.0
G2 Y62.9628 Z0.8333 I0.4 J0.6928
G2 X322.2159 Y62.27 Z0.7 I0.4 J-0.6928
G2 X321.0159 Y61.5772 Z0.5667 I-0.8 J0.0
G2 Y62.9628 Z0.4333 I0.4 J0.6928
G2 X322.2159 Y62.27 Z0.3 I0.4 J-0.6928
G2 X321.0159 Y61.5772 Z0.1667 I-0.8 J0.0
G2 Y62.9628 Z0.0333 I0.4 J0.6928
G2 X321.4159 Y63.07 Z0.0 I0.4 J-0.6928
G2 X322.1087 Y61.87 I0.0 J-0.8
G2 X320.723 I-0.6928 J0.4
G2 X321.4159 Y63.07 I0.6928 J0.4
G0 Z3.0
G0 X326.7159 Y65.27
G1 F170.0 Z2.3
G2 F150.0 X325.5159 Y64.5772 Z2.1667 I-0.8 J0.0
G2 Y65.9628 Z2.0333 I0.4 J0.6928
G2 X326.7159 Y65.27 Z1.9 I0.4 J-0.6928
G2 X325.5159 Y64.5772 Z1.7667 I-0.8 J0.0
G2 Y65.9628 Z1.6333 I0.4 J0.6928
G2 X326.7159 Y65.27 Z1.5 I0.4 J-0.6928
G2 X325.5159 Y64.5772 Z1.3667 I-0.8 J0.0
G2 Y65.9628 Z1.2333 I0.4 J0.6928
G2 X326.7159 Y65.27 Z1.1 I0.4 J-0.6928
G2 X325.5159 Y64.5772 Z0.9667 I-0.8 J0.0
G2 Y65.9628 Z0.8333 I0.4 J0.6928
G2 X326.7159 Y65.27 Z0.7 I0.4 J-0.6928
G2 X325.5159 Y64.5772 Z0.5667 I-0.8 J0.0
G2 Y65.9628 Z0.4333 I0.4 J0.6928
G2 X326.7159 Y65.27 Z0.3 I0.4 J-0.6928
G2 X325.5159 Y64.5772 Z0.1667 I-0.8 J0.0
G2 Y65.9628 Z0.0333 I0.4 J0.6928
G2 X325.9159 Y66.07 Z0.0 I0.4 J-0.6928
G2 X326.6087 Y64.87 I0.0 J-0.8
G2 X325.223 I-0.6928 J0.4
G2 X325.9159 Y66.07 I0.6928 J0.4
G0 Z3.0
G0 X322.2159 Y68.27
G1 F170.0 Z2.3
G2 F150.0 X321.0159 Y67.5772 Z2.1667 I-0.8 J0.0
G2 Y68.9628 Z2.0333 I0.4 J0.6928
G2 X322.2159 Y68.27 Z1.9 I0.4 J-0.6928
G2 X321.0159 Y67.5772 Z1.7667 I-0.8 J0.0
G2 Y68.9628 Z1.6333 I0.4 J0.6928
G2 X322.2159 Y68.27 Z1.5 I0.4 J-0.6928
G2 X321.0159 Y67.5772 Z1.3667 I-0.8 J0.0
G2 Y68.9628 Z1.2333 I0.4 J0.6928
G2 X322.2159 Y68.27 Z1.1 I0.4 J-0.6928
G2 X321.0159 Y67.5772 Z0.9667 I-0.8 J0.0
G2 Y68.9628 Z0.8333 I0.4 J0.6928
G2 X322.2159 Y68.27 Z0.7 I0.4 J-0.6928
G2 X321.0159 Y67.5772 Z0.5667 I-0.8 J0.0
G2 Y68.9628 Z0.4333 I0.4 J0.6928
G2 X322.2159 Y68.27 Z0.3 I0.4 J-0.6928
G2 X321.0159 Y67.5772 Z0.1667 I-0.8 J0.0
G2 Y68.9628 Z0.0333 I0.4 J0.6928
G2 X321.4159 Y69.07 Z0.0 I0.4 J-0.6928
G2 X322.1087 Y67.87 I0.0 J-0.8
G2 X320.723 I-0.6928 J0.4
G2 X321.4159 Y69.07 I0.6928 J0.4
G0 Z3.0
M5
M30
