( Made using CamBam - http://www.cambam.co.uk )
( midipedal_rez 2/15/2016 5:38:14 PM )
( T0 : 0.6 )
G21 G90 G64 G40
G0 Z3.0
( T0 : 0.6 )
T0 M6
( Engrave1 )
G17
M3 S1000
G0 X353.46 Y127.0
G0 Z1.275
G1 F300.0 Z-0.125
G1 F400.0 X347.11
G1 Y134.62
G0 Z3.0
G0 Y132.08
G0 Z1.275
G1 F300.0 Z-0.125
G1 F400.0 X353.46
G1 Y129.54
G1 X347.11
G0 Z3.0
G0 X353.46
G0 Z0.875
G1 F300.0 Z-0.125
G1 F400.0 Y127.0
G1 Y122.08
G1 X198.88
G1 Y117.0
G1 X202.69
G1 Y119.54
G1 X229.42
G1 Y117.0
G1 X231.69
G1 Y119.54
G1 X259.92
G1 Y117.0
G1 X262.69
G1 Y119.54
G1 X290.545
G1 Y117.0
G1 X293.19
G1 Y119.54
G1 X319.92
G1 Y117.0
G1 X322.19
G1 Y119.54
G1 X349.69
G1 Y117.0
G1 X356.0
G1 Y147.32
G1 X349.65
G1 Y146.05
G1 Y144.78
G0 Z3.0
G0 X348.38
G0 Z1.275
G1 F300.0 Z-0.125
G1 F400.0 X353.46
G1 Y139.7
G1 Y137.16
G1 Y134.62
G1 Y132.08
G0 Z3.0
G0 Y134.62
G0 Z0.875
G1 F300.0 Z-0.125
G1 F400.0 X316.38
G1 Y137.16
G0 Z3.0
G0 X319.92 Y117.0
G0 Z0.875
G1 F300.0 Z-0.125
G1 F400.0 X293.19
G0 Z3.0
G0 X290.545
G0 Z0.875
G1 F300.0 Z-0.125
G1 F400.0 X262.69
G0 Z3.0
G0 X259.92
G0 Z0.875
G1 F300.0 Z-0.125
G1 F400.0 X231.69
G0 Z3.0
G0 X229.42
G0 Z0.875
G1 F300.0 Z-0.125
G1 F400.0 X202.69
G0 Z3.0
G0 X194.965 Y85.08
G0 Z1.275
G1 F300.0 Z-0.125
G1 F400.0 Y82.54
G1 Y81.27
G1 Y80.0
G0 Z3.0
G0 Y82.54
G0 Z0.875
G1 F300.0 Z-0.125
G1 F400.0 X168.34
G1 Y81.27
G1 Y80.0
G0 Z3.0
G0 X164.465
G0 Z1.275
G1 F300.0 Z-0.125
G1 F400.0 Y81.27
G1 Y82.54
G1 Y81.27
G0 Z3.0
G0 Y82.54
G0 Z0.875
G1 F300.0 Z-0.125
G1 F400.0 X137.84
G1 Y81.27
G1 Y80.0
G0 Z3.0
G0 X132.8
G0 Z1.275
G1 F300.0 Z-0.125
G1 F400.0 X353.46
G1 X356.0
G1 Y110.32
G1 X353.46
G1 X349.65
G1 Y109.05
G1 Y107.78
G0 Z3.0
G0 X347.11 Y110.32
G0 Z1.275
G1 F300.0 Z-0.125
G1 F400.0 X130.26
G1 Y80.0
G1 X132.8
G0 Z3.0
G0 Y85.08
G0 Z1.275
G1 F300.0 Z-0.125
G1 F400.0 X353.46
G1 Y90.0
G1 Y107.78
G1 X132.8
G1 Y90.0
G1 X353.46
G0 Z3.0
G0 Y92.54
G0 Z1.275
G1 F300.0 Z-0.125
G1 F400.0 X132.8
G0 Z3.0
G0 Y95.08
G0 Z1.275
G1 F300.0 Z-0.125
G1 F400.0 X353.46
G0 Z3.0
G0 Y97.62
G0 Z1.275
G1 F300.0 Z-0.125
G1 F400.0 X132.8
G0 Z3.0
G0 Y100.16
G0 Z1.275
G1 F300.0 Z-0.125
G1 F400.0 X353.46
G0 Z3.0
G0 Y102.7
G0 Z1.275
G1 F300.0 Z-0.125
G1 F400.0 X132.8
G0 Z3.0
G0 Y105.24
G0 Z1.275
G1 F300.0 Z-0.125
G1 F400.0 X353.46
G0 Z3.0
G0 Y110.32
G0 Z0.875
G1 F300.0 Z-0.125
G1 F400.0 Y112.86
G1 X347.11
G1 Y110.32
G0 Z3.0
G0 X349.69 Y117.0
G0 Z0.875
G1 F300.0 Z-0.125
G1 F400.0 X322.19
G0 Z3.0
G0 X323.34 Y82.54
G0 Z1.275
G1 F300.0 Z-0.125
G1 F400.0 Y81.27
G1 Y82.54
G1 Y80.0
G1 Y81.27
G0 Z3.0
G0 Y82.54
G0 Z0.875
G1 F300.0 Z-0.125
G1 F400.0 X349.65
G1 Y81.27
G1 Y80.0
G1 Y81.27
G0 Z3.0
G0 X346.9187 Y74.9362
G0 Z1.275
G1 F300.0 Z-0.125
G3 F400.0 X345.7809 Y74.8699 I-0.5029 J-1.1662
G3 Y72.6701 I0.635 J-1.0999
G3 X347.6859 Y73.77 I0.635 J1.0999
G3 X346.9187 Y74.9362 I-1.27 J0.0
G0 Z3.0
G0 X341.6659 Y73.9942
G0 Z1.275
G1 F300.0 Z-0.125
G3 F400.0 X339.7809 Y74.8699 I-1.2501 J-0.2242
G3 Y72.6701 I0.635 J-1.0999
G3 X341.6859 Y73.77 I0.635 J1.0999
G3 X341.6659 Y73.9942 I-1.27 J0.0
G0 Z3.0
G0 X344.6859 Y69.54
G0 Z1.275
G1 F300.0 Z-0.125
G1 F400.0 Y62.5
G1 X342.1459
G1 Y67.0
G1 X327.9159
G1 Y65.27
G2 X323.9159 I-2.0 J0.0
G1 Y67.0
G1 X322.9609
G2 X319.8708 I-1.545 J1.27
G1 X317.9159
G1 Y55.27
G1 X320.1459
G1 Y60.77
G2 X322.6859 Y60.725 I1.2974 J1.5225
G1 F300.0 Y60.7294
G1 F400.0 Y57.27
G1 X348.3859
G1 Y53.16
G1 Y51.89
G1 Y41.73
G1 X345.8459
G1 Y50.62
G1 X348.3859
G0 Z3.0
G0 Y51.89
G0 Z0.875
G1 F300.0 Z-0.125
G1 F400.0 X350.9159
G1 Y49.35
G1 X348.3859
G0 Z3.0
G0 X350.9159
G0 Z0.875
G1 F300.0 Z-0.125
G1 F400.0 X353.4559
G1 X353.4659 Y46.81
G1 X352.1959
G1 X349.6559
G1 X348.3859
G0 Z3.0
G0 Y44.27
G0 Z1.275
G1 F300.0 Z-0.125
G1 F400.0 X353.467 Y44.2722
G1 X353.4659 Y46.81
G0 Z3.0
G0 X353.467 Y44.2722
G0 Z0.875
G1 F300.0 Z-0.125
G1 F400.0 X356.0032 Y44.2736
G1 X356.0045 Y41.7313
G1 X348.3859 Y41.73
G0 Z3.0
G0 Y39.19
G0 Z1.275
G1 F300.0 Z-0.125
G1 F400.0 X343.3059
G1 Y50.62
G1 Y53.16
G1 X317.9159
G1 Y45.54
G1 X310.2959
G1 Y37.92
G1 X251.7959
G1 Y30.32
G1 Y10.0
G1 Y0.0
G1 X256.8759
G1 X351.0359
G1 Y5.08
G1 X256.8759
G1 X254.3359
G1 Y10.0
G1 X338.2259
G1 X348.3859
G1 Y12.54
G1 X338.2259
G1 Y15.08
G1 Y36.65
G1 Y37.92
G1 X336.9559
G1 X321.7159
G1 X320.4459
G1 Y36.65
G1 Y27.78
G1 X254.3359
G1 Y10.0
G0 Z3.0
G0 Y12.54
G0 Z1.275
G1 F300.0 Z-0.125
G1 F400.0 X335.6859
G1 Y36.65
G1 Y37.92
G0 Z3.0
G0 X333.1459
G0 Z1.275
G1 F300.0 Z-0.125
G1 F400.0 Y36.65
G1 Y15.08
G1 X254.3359
G0 Z3.0
G0 Y17.62
G0 Z1.275
G1 F300.0 Z-0.125
G1 F400.0 X330.6059
G1 Y36.65
G1 Y37.92
G0 Z3.0
G0 X328.0659
G0 Z1.275
G1 F300.0 Z-0.125
G1 F400.0 Y36.65
G1 Y20.16
G1 X254.3359
G1 Y17.62
G0 Z3.0
G0 Y22.7
G0 Z1.275
G1 F300.0 Z-0.125
G1 F400.0 X325.5259
G1 Y36.65
G1 Y37.92
G1 Y53.16
G0 Z3.0
G0 X328.0659
G0 Z1.275
G1 F300.0 Z-0.125
G1 F400.0 Y50.62
G0 Z3.0
G0 X325.5259
G0 Z1.275
G1 F300.0 Z-0.125
G1 F400.0 X343.3059
G0 Z3.0
G0 X345.8459
G0 Z0.875
G1 F300.0 Z-0.125
G1 F400.0 Y53.16
G1 Y55.27
G1 X320.1459
G0 Z3.0
G0 X320.4459 Y53.16
G0 Z1.275
G1 F300.0 Z-0.125
G1 F400.0 Y43.0
G1 X317.9159
G1 X312.8359
G1 Y35.38
G1 X251.7959
G0 Z3.0
G0 Y32.84
G0 Z1.275
G1 F300.0 Z-0.125
G1 F400.0 X315.3759
G1 Y40.46
G1 X317.9159
G1 X322.9859
G1 Y53.16
G0 Z3.0
G0 X317.9159
G0 Z0.875
G1 F300.0 Z-0.125
G1 F400.0 X315.3759
G1 Y69.54
G1 X317.9159
G1 X319.8708
G2 X322.9609 I1.545 J-1.27
G1 X344.6859
G0 Z3.0
G0 X349.9841 Y64.633
G0 Z1.275
G1 F300.0 Z-0.125
G3 F400.0 X350.2809 Y62.6701 I0.9318 J-0.863
G3 X352.1859 Y63.77 I0.635 J1.0999
G3 X350.2809 Y64.8699 I-1.27 J0.0
G3 X349.9841 Y64.633 I0.635 J-1.0999
G0 Z3.0
G0 X347.1459 Y62.54
G0 Z1.275
G1 F300.0 Z-0.125
G1 F400.0 X353.4659
G1 Y56.81
G1 X350.9259
G1 Y60.0
G1 Y56.81
G0 Z3.0
G0 X353.4659
G0 Z0.875
G1 F300.0 Z-0.125
G1 F400.0 X355.9966 Y56.8113
G1 X355.9992 Y51.8927
G1 X350.9159 Y51.89
G0 Z3.0
G0 X350.9259 Y60.0
G0 Z0.875
G1 F300.0 Z-0.125
G1 F400.0 X347.1459
G1 Y62.54
G0 Z3.0
G0 Y60.0
G0 Z0.875
G1 F300.0 Z-0.125
G1 F400.0 X339.6859
G1 Y62.54
G1 X337.1459
G1 Y60.0
G1 Y57.27
G0 Z3.0
G0 X338.2259 Y53.16
G0 Z1.275
G1 F300.0 Z-0.125
G1 F400.0 Y50.62
G0 Z3.0
G0 X340.7659
G0 Z1.275
G1 F300.0 Z-0.125
G1 F400.0 Y53.16
G0 Z3.0
G0 X335.6859
G0 Z1.275
G1 F300.0 Z-0.125
G1 F400.0 Y50.62
G0 Z3.0
G0 X333.1459
G0 Z1.275
G1 F300.0 Z-0.125
G1 F400.0 Y53.16
G0 Z3.0
G0 X330.6059
G0 Z1.275
G1 F300.0 Z-0.125
G1 F400.0 Y50.62
G0 Z3.0
G0 X335.4403 Y62.5924
G0 Z1.275
G1 F300.0 Z-0.125
G3 F400.0 X337.1859 Y63.77 I0.4755 J1.1776
G3 X335.2809 Y64.8699 I-1.27 J0.0
G3 Y62.6701 I0.635 J-1.0999
G3 X335.4403 Y62.5924 I0.635 J1.0999
G0 Z3.0
G0 X318.965 Y80.0
G0 Z1.275
G1 F300.0 Z-0.125
G1 F400.0 Y81.27
G1 Y82.54
G1 X290.88
G1 Y81.27
G1 Y80.0
G0 Z3.0
G0 X286.34
G0 Z1.275
G1 F300.0 Z-0.125
G1 F400.0 Y81.27
G1 Y82.54
G1 X257.88
G1 Y81.27
G1 Y80.0
G0 Z3.0
G0 X254.34
G0 Z1.275
G1 F300.0 Z-0.125
G1 F400.0 Y81.27
G1 Y82.54
G1 X228.88
G1 Y81.27
G1 Y80.0
G0 Z3.0
G0 X229.46 Y76.4
G0 Z1.275
G1 F300.0 Z-0.125
G1 F400.0 X220.57
G1 Y73.86
G1 X70.26
G1 Y71.32
G0 Z3.0
G0 Y68.78
G0 Z1.275
G1 F300.0 Z-0.125
G1 F400.0 X229.46
G1 Y51.0
G1 X70.26
G1 Y68.78
G0 Z3.0
G0 Y66.24
G0 Z1.275
G1 F300.0 Z-0.125
G1 F400.0 X229.46
G0 Z3.0
G0 Y63.7
G0 Z1.275
G1 F300.0 Z-0.125
G1 F400.0 X70.26
G0 Z3.0
G0 Y61.16
G0 Z1.275
G1 F300.0 Z-0.125
G1 F400.0 X229.46
G0 Z3.0
G0 Y58.62
G0 Z1.275
G1 F300.0 Z-0.125
G1 F400.0 X70.26
G0 Z3.0
G0 Y56.08
G0 Z1.275
G1 F300.0 Z-0.125
G1 F400.0 X229.46
G0 Z3.0
G0 Y53.54
G0 Z1.275
G1 F300.0 Z-0.125
G1 F400.0 X70.26
G0 Z3.0
G0 X72.8 Y51.0
G0 Z1.275
G1 F300.0 Z-0.125
G1 F400.0 Y46.08
G1 X229.46
G1 Y51.0
G0 Z3.0
G0 X232.0
G0 Z1.275
G1 F300.0 Z-0.125
G1 F400.0 Y68.78
G1 Y71.32
G1 X229.46
G1 X225.65
G1 Y70.05
G1 Y68.78
G0 Z3.0
G0 X223.11 Y71.32
G0 Z1.275
G1 F300.0 Z-0.125
G1 F400.0 X67.72
G1 Y48.46
G1 X70.26
G1 Y41.0
G1 X72.8
G1 X229.46
G1 X232.0
G1 Y46.08
G1 Y51.0
G0 Z3.0
G0 X225.65 Y43.54
G0 Z1.275
G1 F300.0 Z-0.125
G1 F400.0 Y42.27
G1 Y41.0
G0 Z3.0
G0 Y43.54
G0 Z0.875
G1 F300.0 Z-0.125
G1 F400.0 X199.38
G1 Y42.27
G1 Y41.0
G0 Z3.0
G0 X195.59
G0 Z1.275
G1 F300.0 Z-0.125
G1 F400.0 Y43.54
G1 Y42.27
G0 Z3.0
G0 Y43.54
G0 Z0.875
G1 F300.0 Z-0.125
G1 F400.0 X169.38
G1 Y42.27
G1 Y41.0
G0 Z3.0
G0 X165.34
G0 Z1.275
G1 F300.0 Z-0.125
G1 F400.0 Y42.27
G1 Y43.54
G1 X138.34
G1 Y42.27
G1 Y41.0
G0 Z3.0
G0 X134.34
G0 Z1.275
G1 F300.0 Z-0.125
G1 F400.0 Y42.27
G1 Y43.54
G1 X107.38
G1 Y42.27
G1 Y41.0
G0 Z3.0
G0 X103.715
G0 Z1.275
G1 F300.0 Z-0.125
G1 F400.0 Y42.27
G1 Y43.54
G1 X77.84
G1 Y42.27
G1 Y41.0
G0 Z3.0
G0 X78.9159 Y2.54
G0 Z1.275
G1 F300.0 Z-0.125
G1 F400.0 Y1.27
G1 Y0.0
G0 Z3.0
G0 Y2.54
G0 Z0.875
G1 F300.0 Z-0.125
G1 F400.0 X106.2909
G1 Y1.27
G1 Y0.0
G0 Z3.0
G0 X110.4559
G0 Z1.275
G1 F300.0 Z-0.125
G1 F400.0 Y1.27
G1 Y2.54
G1 X137.7909
G1 Y1.27
G1 Y0.0
G0 Z3.0
G0 Y2.54
G0 Z0.875
G1 F300.0 Z-0.125
G1 F400.0 Y5.08
G0 Z3.0
G0 X141.9559 Y2.54
G0 Z1.275
G1 F300.0 Z-0.125
G1 F400.0 Y1.27
G1 Y0.0
G0 Z3.0
G0 Y2.54
G0 Z0.875
G1 F300.0 Z-0.125
G1 F400.0 X167.4159
G1 Y1.27
G1 Y0.0
G0 Z3.0
G0 X170.9559
G0 Z1.275
G1 F300.0 Z-0.125
G1 F400.0 Y1.27
G1 Y2.54
G1 X196.0409
G1 Y1.27
G1 Y0.0
G0 Z3.0
G0 X199.4559
G0 Z1.275
G1 F300.0 Z-0.125
G1 F400.0 Y1.27
G1 Y2.54
G1 X225.7259
G1 Y1.27
G1 Y0.0
G0 Z3.0
G0 X232.0759
G0 Z1.275
G1 F300.0 Z-0.125
G1 F400.0 X13.3759
G1 X10.8359
G1 Y5.08
G1 X8.2959
G1 Y30.32
G1 X223.1859
G1 Y32.86
G1 X232.0759
G0 Z3.0
G0 Y30.32
G0 Z1.275
G1 F300.0 Z-0.125
G1 F400.0 Y37.94
G1 X218.1059
G1 Y35.4
G1 X10.8359
G1 Y30.32
G0 Z3.0
G0 Y32.86
G0 Z1.275
G1 F300.0 Z-0.125
G1 F400.0 X220.6459
G1 Y35.4
G1 X225.7259
G1 X232.0759
G0 Z3.0
G0 Y30.32
G0 Z0.875
G1 F300.0 Z-0.125
G1 F400.0 Y10.0
G1 Y5.08
G1 Y3.81
G1 Y0.0
G0 Z3.0
G0 X229.5359 Y5.08
G0 Z1.275
G1 F300.0 Z-0.125
G1 F400.0 X13.3759
G1 Y7.46
G1 X10.8359
G1 Y10.0
G1 Y27.78
G1 X229.5359
G1 Y25.24
G1 X10.8359
G0 Z3.0
G0 Y22.7
G0 Z1.275
G1 F300.0 Z-0.125
G1 F400.0 X229.5359
G0 Z3.0
G0 Y20.16
G0 Z1.275
G1 F300.0 Z-0.125
G1 F400.0 X10.8359
G0 Z3.0
G0 Y17.62
G0 Z1.275
G1 F300.0 Z-0.125
G1 F400.0 X229.5359
G0 Z3.0
G0 Y15.08
G0 Z1.275
G1 F300.0 Z-0.125
G1 F400.0 X10.8359
G0 Z3.0
G0 Y12.54
G0 Z1.275
G1 F300.0 Z-0.125
G1 F400.0 X229.5359
G0 Z3.0
G0 Y10.0
G0 Z1.275
G1 F300.0 Z-0.125
G1 F400.0 Y27.78
G0 Z3.0
G0 X232.0759 Y30.32
G0 Z0.875
G1 F300.0 Z-0.125
G1 F400.0 X225.7259
G1 Y29.05
G1 Y30.32
G0 Z3.0
G0 Y29.05
G0 Z0.875
G1 F300.0 Z-0.125
G1 F400.0 Y27.78
G0 Z3.0
G0 X229.5359 Y10.0
G0 Z0.875
G1 F300.0 Z-0.125
G1 F400.0 X10.8359
G0 Z3.0
G0 X18.4159 Y2.54
G0 Z1.275
G1 F300.0 Z-0.125
G1 F400.0 Y1.27
G1 Y0.0
G0 Z3.0
G0 Y2.54
G0 Z0.875
G1 F300.0 Z-0.125
G1 F400.0 X45.4159
G1 Y1.27
G1 Y0.0
G0 Z3.0
G0 X49.4159
G0 Z1.275
G1 F300.0 Z-0.125
G1 F400.0 Y1.27
G1 Y2.54
G1 X75.2909
G1 Y1.27
G1 Y0.0
G0 Z3.0
G0 X134.34 Y43.54
G0 Z0.875
G1 F300.0 Z-0.125
G1 F400.0 Y46.08
G0 Z3.0
G0 X132.8 Y85.08
G0 Z0.875
G1 F300.0 Z-0.125
G1 F400.0 Y90.0
G0 Z3.0
G0 X198.88 Y82.54
G0 Z1.275
G1 F300.0 Z-0.125
G1 F400.0 Y81.27
G1 Y80.0
G0 Z3.0
G0 Y82.54
G0 Z0.875
G1 F300.0 Z-0.125
G1 F400.0 X225.09
G1 Y81.27
G1 Y80.0
G0 Z3.0
G0 X229.46 Y76.4
G0 Z0.875
G1 F300.0 Z-0.125
G1 F400.0 Y71.32
G0 Z3.0
G0 Y73.86
G0 Z1.275
G1 F300.0 Z-0.125
G1 F400.0 X223.11
G1 Y71.32
G0 Z3.0
G0 X251.7959 Y30.32
G0 Z0.875
G1 F300.0 Z-0.125
G1 F400.0 X317.9159
G1 Y37.92
G1 X320.4459
G0 Z3.0
G0 X322.9859
G0 Z1.275
G1 F300.0 Z-0.125
G1 F400.0 Y36.65
G1 Y25.24
G1 X254.3359
G1 Y22.7
G0 Z3.0
G0 Y30.32
G0 Z1.275
G1 F300.0 Z-0.125
G1 F400.0 X317.9159
G0 Z3.0
G0 X338.2259 Y35.27
G0 Z1.275
G1 F300.0 Z-0.125
G1 F400.0 X348.3859
G1 Y36.65
G1 X350.9159
G1 Y39.19
G1 X348.3859
G1 Y36.65
G0 Z3.0
G0 Y37.92
G0 Z1.275
G1 F300.0 Z-0.125
G1 F400.0 X338.2259
G0 Z3.0
G0 X340.7659
G0 Z1.275
G1 F300.0 Z-0.125
G1 F400.0 Y36.65
G1 Y35.27
G0 Z3.0
G0 X343.3059
G0 Z1.275
G1 F300.0 Z-0.125
G1 F400.0 Y36.65
G1 Y37.92
G0 Z3.0
G0 X345.8459
G0 Z1.275
G1 F300.0 Z-0.125
G1 F400.0 Y36.65
G1 Y35.27
G1 Y15.08
G1 X348.3859
G1 Y32.73
G1 X353.4659
G1 X353.4559 Y41.73
G0 Z3.0
G0 X347.2259 Y2.54
G0 Z1.275
G1 F300.0 Z-0.125
G1 F400.0 Y1.27
G1 Y0.0
G0 Z3.0
G0 Y2.54
G0 Z0.875
G1 F300.0 Z-0.125
G1 F400.0 X320.9559
G1 Y1.27
G1 Y0.0
G0 Z3.0
G0 X317.4159
G0 Z1.275
G1 F300.0 Z-0.125
G1 F400.0 Y1.27
G1 Y2.54
G1 X291.9559
G1 Y1.27
G1 Y0.0
G0 Z3.0
G0 X288.1659
G0 Z1.275
G1 F300.0 Z-0.125
G1 F400.0 Y1.27
G1 Y2.54
G1 X261.9159
G1 Y1.27
G1 Y0.0
G0 Z3.0
G0 X229.5359 Y5.08
G0 Z0.875
G1 F300.0 Z-0.125
G1 F400.0 Y10.0
G0 Z3.0
G0 X225.88 Y142.24
G0 Z1.275
G1 F300.0 Z-0.125
G1 F400.0 X353.46
G1 X348.38
G0 Z3.0
G0 X353.46 Y139.7
G0 Z0.875
G1 F300.0 Z-0.125
G1 F400.0 X255.88
G1 Y142.24
G0 Z3.0
G0 X225.88
G0 Z0.875
G1 F300.0 Z-0.125
G1 F400.0 Y144.78
G1 X353.46
G0 Z3.0
G0 Y137.16
G0 Z0.875
G1 F300.0 Z-0.125
G1 F400.0 X286.63
G1 Y139.7
G0 Z3.0
M5
M30
